;FLAVOR:Marlin
;TIME:7145
;Filament used: 4.99191m
;Layer height: 0.2
;MINX:66.05
;MINY:53.788
;MINZ:0.3
;MAXX:153.95
;MAXY:166.35
;MAXZ:10.1
;TARGET_MACHINE.NAME:Anet A8
;Generated with Cura_SteamEngine 5.6.0
M140 S60
M105
M190 S60
M104 S200
M105
M109 S200
M82 ;absolute extrusion mode
G28 ;Home
G1 Z15.0 F2000 ;Move the platform
G92 E0
G92 E0
G1 F1500 E-6.5
;LAYER_COUNT:50
;LAYER:0
M107
M204 S1000
G0 F7500 X79.853 Y55.438 Z0.3
;TYPE:SKIRT
G1 F1500 E0
G1 X80.247 Y54.985 E0.02995
G1 X80.589 Y54.684 E0.05268
G1 X81.075 Y54.354 E0.08199
G1 X81.502 Y54.141 E0.1058
G1 X82.066 Y53.945 E0.13559
G1 X82.522 Y53.852 E0.1588
G1 X83.02 Y53.811 E0.18373
G1 X84.15 Y53.788 E0.24012
G1 X136.207 Y53.788 E2.83725
G1 X136.787 Y53.796 E2.86619
G1 X137.081 Y53.814 E2.88089
G1 X137.429 Y53.851 E2.89835
G1 X137.926 Y53.944 E2.92357
G1 X138.246 Y54.049 E2.94038
G1 X138.569 Y54.174 E2.95766
G1 X139.025 Y54.393 E2.98289
G1 X139.44 Y54.681 E3.0081
G1 X139.922 Y55.17 E3.04235
G1 X140.159 Y55.469 E3.06139
G1 X140.441 Y55.889 E3.08662
G1 X140.641 Y56.291 E3.10903
G1 X140.83 Y56.843 E3.13813
G1 X140.92 Y57.29 E3.16088
G1 X140.962 Y57.754 E3.18413
G1 X141.049 Y60.255 E3.30898
G1 X141.222 Y62.999 E3.44615
G1 X141.474 Y65.749 E3.58392
G1 X141.797 Y68.437 E3.71899
G1 X142.199 Y71.142 E3.85543
G1 X142.686 Y73.88 E3.99417
G1 X143.234 Y76.522 E4.12878
G1 X143.861 Y79.174 E4.26474
G1 X144.571 Y81.829 E4.40185
G1 X145.356 Y84.466 E4.53912
G1 X146.207 Y87.057 E4.67518
G1 X147.133 Y89.63 E4.81161
G1 X148.151 Y92.221 E4.95049
G1 X149.207 Y94.702 E5.08501
G1 X150.346 Y97.181 E5.22112
G1 X151.576 Y99.671 E5.35968
G1 X152.754 Y101.9 E5.48546
G1 X153.118 Y102.568 E5.52341
G1 X153.252 Y102.845 E5.53876
G1 X153.572 Y103.596 E5.57949
G1 X153.733 Y104.075 E5.6047
G1 X153.792 Y104.374 E5.61991
G1 X153.889 Y105.028 E5.65289
G1 X153.939 Y105.565 E5.6798
G1 X153.949 Y105.913 E5.69717
G1 X153.95 Y147.989 E7.79635
G1 X153.938 Y148.828 E7.83821
G1 X153.885 Y149.335 E7.86364
G1 X153.808 Y149.859 E7.89007
G1 X153.611 Y150.589 E7.92779
G1 X153.318 Y151.317 E7.96694
G1 X153.092 Y151.769 E7.99215
G1 X152.904 Y152.049 E8.00898
G1 X152.432 Y152.675 E8.04809
G1 X152.097 Y153.053 E8.07329
G1 X151.842 Y153.274 E8.09013
G1 X151.23 Y153.75 E8.12881
G1 X150.807 Y154.028 E8.15406
G1 X150.542 Y154.158 E8.16879
G1 X149.945 Y154.416 E8.20123
G1 X149.581 Y154.56 E8.22076
G1 X148.333 Y155.01 E8.28695
G1 X145.782 Y155.977 E8.42306
G1 X143.244 Y157.022 E8.55999
G1 X140.742 Y158.136 E8.69663
G1 X138.283 Y159.315 E8.83268
G1 X135.843 Y160.571 E8.96959
G1 X133.431 Y161.9 E9.10699
G1 X131.09 Y163.279 E9.24254
G1 X128.761 Y164.74 E9.3797
G1 X127.735 Y165.425 E9.44125
G1 X127.109 Y165.829 E9.47842
G1 X126.664 Y166.068 E9.50362
G1 X126.187 Y166.235 E9.52883
G1 X125.689 Y166.324 E9.55407
G1 X125.434 Y166.339 E9.56682
G1 X124.839 Y166.35 E9.59651
G1 X93.974 Y166.35 E11.13637
G1 X93.27 Y166.34 E11.17149
G1 X92.766 Y166.293 E11.19675
G1 X92.277 Y166.167 E11.22194
G1 X91.813 Y165.965 E11.24719
G1 X91.518 Y165.788 E11.26435
G1 X88.885 Y164.001 E11.42311
G1 X86.582 Y162.538 E11.55923
G1 X84.229 Y161.136 E11.69588
G1 X81.836 Y159.8 E11.83261
G1 X79.416 Y158.536 E11.96883
G1 X76.95 Y157.337 E12.10563
G1 X74.442 Y156.203 E12.24295
G1 X71.281 Y154.894 E12.41364
G1 X69.81 Y154.315 E12.49251
G1 X69.498 Y154.181 E12.50945
G1 X68.854 Y153.805 E12.54665
G1 X68.228 Y153.334 E12.58573
G1 X67.849 Y152.999 E12.61097
G1 X67.627 Y152.742 E12.62791
G1 X67.15 Y152.129 E12.66666
G1 X66.872 Y151.707 E12.69188
G1 X66.729 Y151.414 E12.70814
G1 X66.426 Y150.7 E12.74684
G1 X66.266 Y150.221 E12.77203
G1 X66.207 Y149.924 E12.78714
G1 X66.11 Y149.263 E12.82047
G1 X66.061 Y148.735 E12.84693
G1 X66.051 Y148.387 E12.8643
G1 X66.05 Y106.311 E14.96348
G1 X66.062 Y105.472 E15.00534
G1 X66.116 Y104.952 E15.03142
G1 X66.192 Y104.438 E15.05734
G1 X66.378 Y103.74 E15.09338
G1 X66.583 Y103.216 E15.12145
G1 X66.734 Y102.866 E15.14047
G1 X66.847 Y102.633 E15.15339
G1 X67.542 Y101.341 E15.22658
G1 X68.803 Y98.911 E15.36317
G1 X69.989 Y96.456 E15.49919
G1 X71.115 Y93.947 E15.63639
G1 X72.177 Y91.386 E15.77471
G1 X73.137 Y88.879 E15.90864
G1 X74.041 Y86.299 E16.04503
G1 X74.883 Y83.659 E16.18328
G1 X75.635 Y81.05 E16.31874
G1 X76.326 Y78.371 E16.45677
G1 X76.933 Y75.7 E16.59343
G1 X77.46 Y73.037 E16.72886
G1 X77.917 Y70.337 E16.86548
G1 X78.299 Y67.61 E17.00286
G1 X78.598 Y64.916 E17.13809
G1 X78.825 Y62.168 E17.27565
G1 X78.974 Y59.429 E17.41251
G1 X79.022 Y57.987 E17.48449
G1 X79.08 Y57.348 E17.5165
G1 X79.171 Y56.85 E17.54175
G1 X79.324 Y56.384 E17.56622
G1 X79.584 Y55.844 E17.59613
G1 X79.853 Y55.438 E17.62042
G1 F1500 E11.12042
;MESH:Tode-2WBattCover.stl
G0 F7500 X98.305 Y79.777
G0 X98.82 Y79.973
;TYPE:WALL-INNER
G1 F1500 E17.62042
G1 F1442.3 X98.926 Y79.978 E17.62593
G0 F7500 X99.779 Y79.957
;TYPE:WALL-OUTER
G1 F1500 X99.864 Y79.801 E17.63479
G1 X99.915 Y79.568 E17.64669
G1 X98.024 Y79.567 E17.74103
G1 X98.065 Y79.769 E17.75132
G1 X98.216 Y80.052 E17.76732
G1 X98.532 Y80.304 E17.78749
G1 X98.942 Y80.393 E17.80842
G1 X99.345 Y80.319 E17.82886
G1 X99.489 Y80.245 E17.83694
G1 X99.779 Y79.957 E17.85733
G0 F7500 X99.864 Y79.801
G0 X99.868 Y79.779
G1 F1500 E11.35733
G0 F7500 X99.57 Y79.818
G0 X107.582 Y78.408
G0 X108.187 Y78.028
;TYPE:WALL-INNER
G1 F1500 E17.85733
G1 F1096.9 X108.482 Y77.967 E17.87788
G0 F7500 X107.635 Y78.348
G0 X107.351 Y78.694
;TYPE:WALL-OUTER
G1 F1500 X107.582 Y78.624 E17.88992
G1 X108.291 Y78.493 E17.92589
G1 X108.888 Y78.357 E17.95644
G1 X109.071 Y78.21 E17.96815
G1 X109.143 Y77.963 E17.98099
G1 X109.106 Y77.785 E17.99006
G1 X108.996 Y77.64 E17.99914
G1 X108.801 Y77.534 E18.01021
G1 X108.484 Y77.493 E18.02616
G1 X108.14 Y77.533 E18.04343
G1 X107.844 Y77.65 E18.05931
G1 X107.61 Y77.829 E18.07401
G1 X107.45 Y78.062 E18.08811
G1 X107.377 Y78.313 E18.10115
G1 X107.351 Y78.694 E18.12021
G0 F7500 X107.542 Y78.636
G1 F1500 E11.62021
G0 F7500 X107.635 Y78.348
G0 X108.919 Y77.95
G0 X112.107 Y78.366
G0 X113.933 Y78.944
;TYPE:WALL-INNER
G1 F1500 E18.12021
G1 X113.933 Y78.116 E18.16152
G1 X113.078 Y78.117 E18.20417
G1 X112.625 Y78.14 E18.2268
G1 X112.441 Y78.19 E18.23631
G1 X112.363 Y78.254 E18.24135
G1 X112.285 Y78.407 E18.24992
G1 X112.291 Y78.66 E18.26254
G1 X112.401 Y78.821 E18.27227
G1 X112.745 Y78.921 E18.29014
G1 X113.201 Y78.944 E18.31292
G1 X113.933 Y78.944 E18.34944
G0 F7500 X114.333 Y79.344
;TYPE:WALL-OUTER
G1 F1500 X114.333 Y77.716 E18.43066
G1 X113.058 Y77.717 E18.49427
G1 X112.563 Y77.743 E18.519
G1 X112.253 Y77.826 E18.53501
G1 X112.066 Y77.98 E18.5471
G1 X111.893 Y78.313 E18.56582
G1 X111.868 Y78.531 E18.57677
G1 X111.903 Y78.777 E18.58916
G1 X112.003 Y78.986 E18.60072
G1 X112.16 Y79.148 E18.61198
G1 X112.369 Y79.254 E18.62367
G1 X112.695 Y79.319 E18.64025
G1 X113.181 Y79.344 E18.66453
G1 X114.333 Y79.344 E18.72201
G0 F7500 X114.333 Y79.144
G0 X114.063 Y79.074
G0 X112.717 Y78.811
G0 X112.799 Y78.528
;TYPE:SKIN
G1 F1227 X113.519 Y78.53 E18.76592
G1 F1500 E12.26592
G0 F7500 X113.519 Y78.216
G0 X113.761 Y78.288
G0 X113.761 Y78.772
G0 X112.898 Y79.111
G0 X112.956 Y80.673
G0 X112.799 Y81.108
G0 X112.619 Y81.308
;TYPE:WALL-INNER
G1 F1500 E18.76592
G1 F1263.2 X112.881 Y81.367 E18.78183
G1 F1242.2 X113.888 Y81.378 E18.8425
G1 F1222 X113.888 Y80.886 E18.87263
G1 F1242.2 X112.88 Y80.893 E18.93335
G1 F1263.2 X112.608 Y80.966 E18.95004
G1 X112.57 Y81.018 E18.95385
G1 X112.57 Y81.223 E18.966
G1 X112.619 Y81.308 E18.97181
G1 F1500 E12.47181
G0 F7500 X112.799 Y81.108
G0 X114.063 Y81.553
G0 X114.333 Y81.823
;TYPE:WALL-OUTER
G1 F1500 E18.97181
G1 X114.333 Y80.441 E19.04076
G1 X113.255 Y80.44 E19.09454
G1 X112.832 Y80.457 E19.11566
G1 X112.575 Y80.502 E19.12868
G1 X112.363 Y80.597 E19.14027
G1 X112.228 Y80.722 E19.14945
G1 X112.146 Y80.891 E19.15882
G1 X112.116 Y81.119 E19.17029
G1 X112.144 Y81.341 E19.18146
G1 X112.224 Y81.524 E19.19142
G1 X112.35 Y81.661 E19.20071
G1 X112.52 Y81.747 E19.21021
G1 X112.836 Y81.803 E19.22622
G1 X113.376 Y81.823 E19.25318
G1 X114.333 Y81.823 E19.30093
G0 F7500 X114.333 Y81.623
G1 F1500 E12.80093
G0 F7500 X113.742 Y81.132
G0 X114.113 Y81.378
G0 X125.292 Y80.805
G0 X125.862 Y81.521
;TYPE:WALL-INNER
G1 F1500 E19.30093
G1 X126.101 Y81.519 E19.31285
G1 X126.315 Y81.419 E19.32464
G1 X126.48 Y81.228 E19.33723
G1 X126.582 Y80.939 E19.35252
G1 X126.598 Y80.722 E19.36337
G1 X126.558 Y80.46 E19.3766
G1 X126.416 Y80.234 E19.38991
G1 X126.197 Y80.083 E19.40318
G1 X125.905 Y80.082 E19.41775
G1 X125.723 Y80.16 E19.42763
G1 X125.533 Y80.405 E19.4431
G1 X125.475 Y80.802 E19.46311
G1 X125.525 Y81.154 E19.48085
G1 X125.635 Y81.349 E19.49202
G1 X125.862 Y81.521 E19.50623
G0 F7500 X125.812 Y81.921
;TYPE:WALL-OUTER
G1 F1500 X126.191 Y81.919 E19.52514
G1 X126.541 Y81.755 E19.54442
G1 X126.826 Y81.434 E19.56584
G1 X126.978 Y81.002 E19.58869
G1 X127.008 Y80.597 E19.60895
G1 X126.929 Y80.298 E19.62438
G1 X126.711 Y79.952 E19.64478
G1 X126.392 Y79.731 E19.66414
G1 X126.231 Y79.683 E19.67252
G1 X125.823 Y79.682 E19.69288
G1 X125.485 Y79.826 E19.71121
G1 X125.224 Y80.115 E19.73063
G1 X125.145 Y80.293 E19.74035
G1 X125.073 Y80.786 E19.76521
G1 X125.099 Y81.182 E19.78501
G1 X125.279 Y81.583 E19.80694
G1 X125.662 Y81.87 E19.83081
G1 X125.812 Y81.921 E19.83872
G0 F7500 X126.012 Y81.92
G0 X125.982 Y81.165
;TYPE:SKIN
G1 F1546.4 X125.897 Y81.101 E19.84387
G1 F1542.4 X125.832 Y80.81 E19.85833
G1 F1562.5 X125.866 Y80.525 E19.87208
G1 F1591.5 X125.932 Y80.449 E19.87681
G1 X126.085 Y80.432 E19.88405
G1 X126.226 Y80.585 E19.89383
G1 F1570.7 X126.227 Y80.883 E19.90803
G1 F1546.4 X126.105 Y81.125 E19.92115
G1 X125.982 Y81.165 E19.92741
G1 F1500 E13.42741
G0 F7500 X125.983 Y81.42
G0 X125.749 Y81.232
G0 X125.636 Y80.81
G0 X125.867 Y79.901
G0 X125.341 Y78.62
G0 X125.589 Y78.317
;TYPE:WALL-INNER
G1 F1500 E19.92741
G1 F1724.1 X126.18 Y78.246 E19.95324
G1 F1739.1 X126.553 Y78.279 E19.96936
G1 F1754.4 X126.493 Y78.081 E19.97818
G1 X126.326 Y77.919 E19.98811
G1 F1739.1 X125.996 Y77.914 E20.00231
G1 F1724.1 X125.757 Y78.055 E20.01435
G1 X125.589 Y78.317 E20.02786
G1 F1500 E13.52786
G0 F7500 X125.304 Y78.627
G0 X123.73 Y78.817
G0 X117.834 Y83.132
G1 F1500 E20.02786
G1 X117.727 Y82.976 E20.0373
G1 X117.67 Y82.719 E20.05043
G1 X117.711 Y82.5 E20.06155
G1 X120.054 Y76.517 E20.38211
G1 X120.195 Y76.359 E20.39268
G1 X120.449 Y76.222 E20.40708
G1 X121.467 Y76.225 E20.45787
G1 X121.631 Y76.273 E20.46639
G1 X121.793 Y76.381 E20.4761
G1 X121.916 Y76.536 E20.48598
G1 X123.513 Y80.66 E20.70661
G1 X123.466 Y79.849 E20.74714
G1 X123.529 Y78.789 E20.80012
G1 X123.742 Y77.88 E20.8467
G1 X124.116 Y77.16 E20.88717
G1 X124.388 Y76.84 E20.90813
G1 X124.698 Y76.577 E20.92841
G1 X125.035 Y76.374 E20.94804
G1 X125.398 Y76.231 E20.9675
G1 X125.76 Y76.148 E20.98603
G1 X126.179 Y76.12 E21.00698
G1 X126.579 Y76.146 E21.02698
G1 X127.003 Y76.246 E21.04871
G1 X127.375 Y76.414 E21.06908
G1 X127.706 Y76.649 E21.08933
G1 X127.985 Y76.946 E21.10966
G1 X128.202 Y77.3 E21.13037
G1 X128.331 Y77.642 E21.14861
G1 X128.428 Y78.081 E21.17104
G1 X128.429 Y78.289 E21.18142
G1 X128.372 Y78.459 E21.19036
G1 X128.211 Y78.655 E21.20302
G1 X127.986 Y78.768 E21.21558
G1 X127.718 Y78.799 E21.22904
G1 X127.878 Y78.938 E21.23961
G1 X128.179 Y79.329 E21.26423
G1 X128.388 Y79.774 E21.28876
G1 X128.508 Y80.244 E21.31296
G1 X128.545 Y80.749 E21.33822
G1 X128.504 Y81.277 E21.36464
G1 X128.381 Y81.77 E21.38999
G1 X128.158 Y82.226 E21.41532
G1 X127.849 Y82.618 E21.44022
G1 X127.491 Y82.919 E21.46355
G1 X127.052 Y83.161 E21.48856
G1 X126.576 Y83.301 E21.51332
G1 X126.09 Y83.343 E21.53765
G1 X125.374 Y83.249 E21.57368
G1 X124.693 Y82.93 E21.6112
G1 X124.227 Y82.513 E21.6424
G1 X124.213 Y82.97 E21.66521
G1 X124.118 Y83.117 E21.67394
G1 X123.951 Y83.248 E21.68453
G1 X123.667 Y83.319 E21.69913
G1 X122.75 Y83.319 E21.74488
G1 X122.513 Y83.234 E21.75744
G1 X122.354 Y83.095 E21.76798
G1 X122.257 Y82.922 E21.77788
G1 X120.971 Y79.326 E21.96841
G1 X119.632 Y82.928 E22.16013
G1 X119.538 Y83.095 E22.16969
G1 X119.379 Y83.234 E22.18023
G1 X119.141 Y83.319 E22.19283
G1 X118.114 Y83.315 E22.24407
G1 X117.834 Y83.132 E22.26076
G1 F1500 E15.76076
G0 F7500 X117.648 Y82.383
G0 X116.091 Y82.43
G0 X110.729 Y80.066
G1 F1500 E22.26076
G1 F886.3 X110.51 Y80.618 E22.3109
G0 F7500 X110.398 Y80.937
G0 X111.002 Y82.227
G0 X111.361 Y82.65
G0 X111.837 Y82.946
G0 X112.305 Y83.078
G0 X115.513 Y83.286
G1 F1500 X115.391 Y83.315 E22.31716
G1 X113.054 Y83.318 E22.43375
G1 X112.386 Y83.268 E22.46717
G1 X111.776 Y83.09 E22.49888
G1 X111.259 Y82.777 E22.52903
G1 X110.864 Y82.304 E22.55977
G1 X110.619 Y81.769 E22.58913
G1 X110.544 Y81.242 E22.61569
G1 X110.562 Y81.039 E22.62585
G1 F1151.6 X110.51 Y80.618 E22.65342
G1 X110.199 Y80.913 E22.68127
G1 F1500 X110.085 Y81.054 E22.69032
G1 X109.737 Y81.365 E22.7136
G1 X109.258 Y81.6 E22.74022
G1 X108.684 Y81.746 E22.76977
G1 X108.036 Y81.789 E22.80217
G1 X107.496 Y81.755 E22.82917
G1 X106.984 Y81.629 E22.85547
G1 X106.547 Y81.421 E22.87962
G1 X106.285 Y81.19 E22.89704
G1 X106.202 Y81.41 E22.90878
G1 X106.044 Y81.579 E22.92032
G1 X105.76 Y81.671 E22.93521
G1 X105.761 Y82.254 E22.9643
G1 X105.676 Y82.461 E22.97546
G1 X105.499 Y82.648 E22.98831
G1 X104.802 Y83.069 E23.02893
G1 X104.529 Y83.081 E23.04256
G1 X104.38 Y83.041 E23.05026
G1 X104.032 Y82.852 E23.07002
G1 X103.897 Y82.648 E23.08222
G1 F1519 X103.845 Y82.39 E23.09519
G1 F1550.4 X103.848 Y81.686 E23.12917
G1 F1562.5 X103.464 Y81.686 E23.14756
G1 F1542.4 X103.459 Y82.293 E23.17701
G1 F1511.3 X103.29 Y82.601 E23.19441
G1 F1500 X102.556 Y83.037 E23.237
G1 X102.402 Y83.08 E23.24498
G1 X102.083 Y83.038 E23.26103
G1 X101.743 Y82.845 E23.28054
G1 X101.607 Y82.648 E23.29248
G1 X101.55 Y82.407 E23.30484
G1 X101.55 Y81.693 E23.34046
G1 X101.422 Y81.693 E23.34684
G1 X101.109 Y81.606 E23.36305
G1 X100.894 Y81.38 E23.37861
G1 X100.806 Y81.029 E23.39667
G1 X100.447 Y81.353 E23.42079
G1 X99.993 Y81.596 E23.44648
G1 X99.485 Y81.745 E23.47289
G1 X98.927 Y81.79 E23.50082
G1 X98.434 Y81.744 E23.52553
G1 X97.963 Y81.604 E23.55004
G1 X97.513 Y81.36 E23.57558
G1 X97.118 Y81.02 E23.60158
G1 X96.839 Y80.645 E23.6249
G1 X96.738 Y80.451 E23.63581
G1 X96.739 Y81.18 E23.67218
G1 X96.639 Y81.424 E23.68534
G1 X96.556 Y81.525 E23.69186
G1 X96.339 Y81.659 E23.70458
G1 X96.204 Y81.693 E23.71153
G1 X95.415 Y81.69 E23.75089
G1 X95.22 Y81.62 E23.76123
G1 X94.979 Y81.728 E23.7744
G1 X94.564 Y81.799 E23.79541
G1 X94.012 Y81.706 E23.82334
G1 X93.976 Y81.692 E23.82526
G1 X92.961 Y81.691 E23.8759
G1 X92.771 Y81.641 E23.88571
G1 X92.59 Y81.516 E23.89668
G1 X92.453 Y81.301 E23.9094
G1 X91.817 Y79.532 E24.00318
G1 X91.169 Y81.301 E24.09718
G1 X91.032 Y81.516 E24.10989
G1 X90.713 Y81.691 E24.12805
G1 X89.812 Y81.69 E24.173
G1 X89.492 Y81.551 E24.1904
G1 X89.35 Y81.374 E24.20173
G1 X89.289 Y81.197 E24.21107
G1 X89.289 Y80.962 E24.22279
G1 X90.947 Y76.53 E24.45887
G1 X91.381 Y75.494 E24.51491
G1 X91.665 Y75.074 E24.5402
G1 X92.032 Y74.738 E24.56503
G1 X92.453 Y74.548 E24.58807
G1 X92.968 Y74.478 E24.614
G1 X93.589 Y74.599 E24.64556
G1 X93.762 Y74.682 E24.65514
G1 X93.95 Y74.896 E24.66935
G1 X94.008 Y75.06 E24.67803
G1 X94.096 Y75.783 E24.71436
G1 X94.055 Y76.082 E24.72942
G1 X93.856 Y76.337 E24.74556
G1 X93.675 Y76.428 E24.75566
G1 X93.408 Y76.448 E24.76902
G1 X93.103 Y76.402 E24.78441
G1 X92.973 Y76.427 E24.79102
G1 X92.82 Y76.818 E24.81196
G1 X93.956 Y79.819 E24.97205
G1 X94.177 Y79.694 E24.98472
G1 X94.504 Y79.82 E25.0022
G1 X94.626 Y79.83 E25.00831
G1 X94.707 Y79.765 E25.01349
G1 X94.788 Y79.414 E25.03146
G1 X94.814 Y79.026 E25.05086
G1 X94.814 Y76.82 E25.16092
G1 X94.903 Y76.504 E25.1773
G1 X95.116 Y76.298 E25.19208
G1 X95.37 Y76.221 E25.20532
G1 X96.183 Y76.221 E25.24589
G1 X96.355 Y76.26 E25.25468
G1 X96.512 Y76.35 E25.26371
G1 X96.666 Y76.532 E25.27561
G1 X96.739 Y76.744 E25.28679
G1 X96.739 Y77.256 E25.31234
G1 X97.033 Y76.873 E25.33643
G1 X97.333 Y76.603 E25.35656
G1 X97.69 Y76.386 E25.3774
G1 X98.076 Y76.235 E25.39808
G1 X98.47 Y76.152 E25.41817
G1 X98.915 Y76.124 E25.44042
G1 X99.499 Y76.173 E25.46966
G1 X99.965 Y76.305 E25.49382
G1 X100.438 Y76.541 E25.52019
G1 X100.737 Y76.795 E25.53976
G1 X100.793 Y76.535 E25.55303
G1 X101.014 Y76.31 E25.56877
