;FLAVOR:Marlin
;TIME:3687
;Filament used: 2.32913m
;Layer height: 0.2
;MINX:78.618
;MINY:78.5
;MINZ:0.3
;MAXX:141.383
;MAXY:141.454
;MAXZ:10.1
;TARGET_MACHINE.NAME:Anet A8
;Generated with Cura_SteamEngine 5.6.0
M140 S60
M105
M190 S60
M104 S200
M105
M109 S200
M82 ;absolute extrusion mode
G28 ;Home
G1 Z15.0 F2000 ;Move the platform
G92 E0
G92 E0
G1 F1500 E-6.5
;LAYER_COUNT:50
;LAYER:0
M107
M204 S1000
G0 F7500 X90.537 Y79.828 Z0.3
;TYPE:SKIRT
G1 F1500 E0
G1 X90.93 Y79.419 E0.0283
G1 X91.384 Y79.075 E0.05672
G1 X91.885 Y78.809 E0.08502
G1 X92.401 Y78.626 E0.11233
G1 X93.22 Y78.51 E0.1536
G1 X93.552 Y78.501 E0.17017
G1 X126.033 Y78.5 E1.79065
G1 X126.735 Y78.51 E1.82568
G1 X127.332 Y78.57 E1.85561
G1 X127.882 Y78.716 E1.884
G1 X128.345 Y78.918 E1.9092
G1 X128.826 Y79.218 E1.93749
G1 X129.256 Y79.593 E1.96595
G1 X129.483 Y79.848 E1.98298
G1 X129.913 Y80.38 E2.01711
G1 X130.867 Y81.595 E2.09418
G1 X132.598 Y83.677 E2.22926
G1 X134.413 Y85.735 E2.36616
G1 X136.289 Y87.747 E2.50341
G1 X138.158 Y89.642 E2.63619
G1 X139.932 Y91.342 E2.75878
G1 X140.245 Y91.686 E2.78198
G1 X140.491 Y91.997 E2.80176
G1 X140.8 Y92.462 E2.82962
G1 X140.953 Y92.773 E2.84691
G1 X141.059 Y93.017 E2.86018
G1 X141.247 Y93.561 E2.8889
G1 X141.356 Y94.377 E2.92997
G1 X141.383 Y95.696 E2.99579
G1 X141.383 Y134.2 E4.91676
G1 X141.373 Y134.881 E4.95074
G1 X141.312 Y135.478 E4.98068
G1 X141.17 Y136.018 E5.00853
G1 X141.025 Y136.373 E5.02767
G1 X140.567 Y137.336 E5.08087
G1 X139.799 Y138.868 E5.16637
G1 X139.462 Y139.52 E5.20298
G1 X139.157 Y140.001 E5.2314
G1 X138.782 Y140.427 E5.25971
G1 X138.343 Y140.79 E5.28813
G1 X137.854 Y141.078 E5.31644
G1 X137.324 Y141.286 E5.34485
G1 X136.775 Y141.407 E5.3729
G1 X136.359 Y141.441 E5.39372
G1 X135.495 Y141.453 E5.43683
G1 X134.787 Y141.441 E5.47216
G1 X134.029 Y141.342 E5.51029
G1 X132.971 Y141.084 E5.56462
G1 X130.305 Y140.469 E5.70113
G1 X127.632 Y139.933 E5.83714
G1 X124.945 Y139.471 E5.97316
G1 X122.231 Y139.084 E6.10993
G1 X119.546 Y138.779 E6.24475
G1 X116.842 Y138.548 E6.38014
G1 X114.113 Y138.393 E6.51651
G1 X111.36 Y138.314 E6.65392
G1 X108.664 Y138.314 E6.78842
G1 X105.913 Y138.391 E6.92572
G1 X103.22 Y138.543 E7.06029
G1 X100.481 Y138.774 E7.19742
G1 X97.76 Y139.083 E7.33405
G1 X95.074 Y139.465 E7.4694
G1 X92.395 Y139.924 E7.605
G1 X89.724 Y140.458 E7.7409
G1 X87.063 Y141.071 E7.87713
G1 X85.938 Y141.347 E7.93492
G1 X85.213 Y141.444 E7.97142
G1 X84.738 Y141.454 E7.99512
G1 X83.663 Y141.437 E8.04876
G1 X83.065 Y141.376 E8.07875
G1 X82.517 Y141.229 E8.10705
G1 X81.997 Y140.997 E8.13546
G1 X81.521 Y140.686 E8.16383
G1 X81.1 Y140.304 E8.19219
G1 X80.747 Y139.866 E8.22026
G1 X80.538 Y139.519 E8.24046
G1 X80.212 Y138.892 E8.27572
G1 X79.283 Y137.032 E8.37945
G1 X78.983 Y136.408 E8.41399
G1 X78.782 Y135.877 E8.44232
G1 X78.667 Y135.328 E8.4703
G1 X78.639 Y134.944 E8.48951
G1 X78.618 Y133.868 E8.5432
G1 X78.618 Y95.293 E10.46772
G1 X78.627 Y94.715 E10.49656
G1 X78.645 Y94.417 E10.51145
G1 X78.682 Y94.057 E10.52951
G1 X78.791 Y93.477 E10.55895
G1 X78.963 Y92.961 E10.58608
G1 X79.25 Y92.373 E10.61873
G1 X79.457 Y92.062 E10.63737
G1 X79.631 Y91.83 E10.65183
G1 X80.011 Y91.402 E10.68039
G1 X80.845 Y90.604 E10.73798
G1 X82.793 Y88.685 E10.8744
G1 X84.67 Y86.729 E11.00965
G1 X86.508 Y84.701 E11.1462
G1 X88.284 Y82.626 E11.28246
G1 X90.537 Y79.828 E11.46168
G0 F7500 X90.828 Y80.103
G1 F1500 X91.175 Y79.736 E11.48688
G1 X91.575 Y79.427 E11.5121
G1 X92.019 Y79.186 E11.5373
G1 X92.496 Y79.017 E11.56255
G1 X93.231 Y78.91 E11.5996
G1 X93.552 Y78.901 E11.61562
G1 X126.027 Y78.9 E13.23581
G1 X126.729 Y78.91 E13.27083
G1 X127.232 Y78.957 E13.29604
G1 X127.722 Y79.083 E13.32128
G1 X128.185 Y79.285 E13.34648
G1 X128.612 Y79.556 E13.37171
G1 X128.99 Y79.892 E13.39695
G1 X129.172 Y80.099 E13.4107
G1 X129.598 Y80.627 E13.44454
G1 X130.559 Y81.851 E13.52218
G1 X132.291 Y83.933 E13.6573
G1 X134.12 Y86.008 E13.79529
G1 X135.996 Y88.02 E13.93254
G1 X137.881 Y89.931 E14.06645
G1 X139.655 Y91.631 E14.18904
G1 X139.949 Y91.955 E14.21086
G1 X140.159 Y92.22 E14.22773
G1 X140.441 Y92.639 E14.25293
G1 X140.586 Y92.932 E14.26924
G1 X140.692 Y93.176 E14.28251
G1 X140.856 Y93.654 E14.30772
G1 X140.956 Y94.385 E14.34453
G1 X140.983 Y95.704 E14.41035
G1 X140.983 Y134.194 E16.33063
G1 X140.973 Y134.875 E16.36461
G1 X140.925 Y135.378 E16.38981
G1 X140.799 Y135.868 E16.41506
G1 X140.664 Y136.201 E16.43298
G1 X140.209 Y137.157 E16.4858
G1 X139.444 Y138.685 E16.57106
G1 X139.122 Y139.309 E16.60609
G1 X138.855 Y139.739 E16.63134
G1 X138.524 Y140.121 E16.65656
G1 X138.137 Y140.447 E16.6818
G1 X137.704 Y140.707 E16.707
G1 X137.235 Y140.896 E16.73223
G1 X136.742 Y141.008 E16.75745
G1 X136.326 Y141.042 E16.77827
G1 X135.5 Y141.053 E16.81949
G1 X134.838 Y141.044 E16.85252
G1 X134.124 Y140.953 E16.88843
G1 X133.066 Y140.695 E16.94276
G1 X130.395 Y140.079 E17.07951
G1 X127.707 Y139.54 E17.21629
G1 X125.001 Y139.075 E17.35327
G1 X122.287 Y138.688 E17.49004
G1 X119.58 Y138.38 E17.62596
G1 X116.876 Y138.15 E17.76135
G1 X114.124 Y137.993 E17.89888
G1 X111.371 Y137.914 E18.03628
G1 X108.653 Y137.914 E18.17188
G1 X105.902 Y137.991 E18.30918
G1 X103.186 Y138.144 E18.4449
G1 X100.447 Y138.376 E18.58204
G1 X97.704 Y138.687 E18.71976
G1 X95.018 Y139.069 E18.85512
G1 X92.327 Y139.53 E18.99133
G1 X89.634 Y140.068 E19.12834
G1 X86.973 Y140.681 E19.26457
G1 X85.884 Y140.951 E19.32055
G1 X85.204 Y141.044 E19.35479
G1 X84.744 Y141.054 E19.37774
G1 X83.669 Y141.037 E19.43138
G1 X83.166 Y140.989 E19.45659
G1 X82.677 Y140.862 E19.4818
G1 X82.213 Y140.66 E19.50704
G1 X81.787 Y140.387 E19.53229
G1 X81.41 Y140.051 E19.55748
G1 X81.09 Y139.66 E19.58269
G1 X80.881 Y139.313 E19.6029
G1 X80.57 Y138.713 E19.63661
G1 X79.643 Y136.858 E19.74007
G1 X79.356 Y136.263 E19.77303
G1 X79.173 Y135.792 E19.79824
G1 X79.066 Y135.298 E19.82346
G1 X79.039 Y134.936 E19.84157
G1 X79.018 Y133.86 E19.89526
G1 X79.018 Y95.299 E21.81908
G1 X79.026 Y94.739 E21.84702
G1 X79.043 Y94.458 E21.86106
G1 X79.08 Y94.098 E21.87912
G1 X79.171 Y93.601 E21.90432
G1 X79.323 Y93.135 E21.92878
G1 X79.584 Y92.594 E21.95875
G1 X79.778 Y92.301 E21.97628
G1 X79.931 Y92.095 E21.98908
G1 X80.288 Y91.691 E22.01598
G1 X81.122 Y90.893 E22.07356
G1 X83.074 Y88.97 E22.21027
G1 X84.959 Y87.006 E22.34608
G1 X86.804 Y84.97 E22.48316
G1 X88.596 Y82.877 E22.62063
G1 X90.828 Y80.103 E22.79826
G1 F1500 E16.29826
;MESH:Tode-2WBattClamp.stl
G0 F7500 X92.647 Y82.514
G0 X97.314 Y87.105
;TYPE:WALL-INNER
G1 F1500 E22.79826
G1 X96.793 Y87.032 E22.8245
G1 X96.313 Y86.837 E22.85035
G1 X95.896 Y86.52 E22.87649
G1 X95.578 Y86.106 E22.90253
G1 X95.373 Y85.615 E22.92908
G1 X95.313 Y85.1 E22.95494
G1 X95.372 Y84.583 E22.9809
G1 X95.59 Y84.084 E23.00807
G1 X95.894 Y83.679 E23.03333
G1 X96.307 Y83.367 E23.05916
G1 F1477.8 X96.824 Y83.142 E23.08771
G1 F1474.2 X97.308 Y83.101 E23.11237
G1 X97.801 Y83.142 E23.13748
G1 F1477.8 X98.318 Y83.367 E23.16603
G1 F1500 X98.729 Y83.677 E23.19172
G1 X99.047 Y84.094 E23.21788
G1 X99.252 Y84.584 E23.24438
G1 X99.318 Y85.097 E23.27018
G1 X99.252 Y85.592 E23.2951
G1 X99.052 Y86.099 E23.32229
G1 X98.728 Y86.521 E23.34883
G1 X98.318 Y86.834 E23.37457
G1 X97.83 Y87.038 E23.40095
G1 X97.314 Y87.105 E23.42691
G1 F1500 E16.92691
G0 F7500 X96.838 Y87.146
G0 X95.216 Y85.659
G0 X95.779 Y83.565
G0 X96.884 Y82.927
G0 X96.252 Y82.861
G0 X94.084 Y82.872
G0 X94.084 Y91.328
G0 X105.369 Y91.313
G0 X104.497 Y89.269
G0 X104.369 Y88.3
G0 X104.497 Y87.331
G0 X104.872 Y86.428
G0 X105.466 Y85.654
G0 X106.24 Y85.059
G0 X107.144 Y84.684
G0 X108.113 Y84.557
G0 X109.081 Y84.684
G0 X109.985 Y85.059
G0 X110.759 Y85.654
G0 X111.353 Y86.428
G0 X111.728 Y87.331
G0 X111.856 Y88.3
G0 X111.728 Y89.269
G0 X111.353 Y90.172
G0 X110.759 Y90.946
G0 X110.55 Y91.1
G0 X110.988 Y91.399
G0 X110.304 Y91.499
G1 F1500 E23.42691
G1 X121.496 Y91.499 E23.98528
G1 X120.923 Y91.06 E24.0213
G1 X120.305 Y90.251 E24.07209
G1 X119.913 Y89.309 E24.12299
G1 X119.783 Y88.3 E24.17375
G1 X119.914 Y87.289 E24.22461
G1 X120.305 Y86.349 E24.2754
G1 X120.927 Y85.537 E24.32643
G1 X121.737 Y84.917 E24.37732
G1 X122.679 Y84.526 E24.4282
G1 X123.688 Y84.395 E24.47897
G1 X124.697 Y84.525 E24.52972
G1 X125.642 Y84.919 E24.5808
G1 X126.088 Y85.262 E24.60887
G1 X126.088 Y82.7 E24.73669
G1 X98.373 Y82.7 E26.1194
G1 F1452.8 X97.776 Y82.714 E26.15016
G1 X97.308 Y82.7 E26.17428
G1 X96.847 Y82.714 E26.19803
G1 X96.252 Y82.7 E26.22869
G1 F1500 X93.912 Y82.7 E26.34543
G1 X93.912 Y91.5 E26.78447
G1 X105.921 Y91.499 E27.3836
G1 X105.351 Y91.063 E27.4194
G1 X104.731 Y90.254 E27.47025
G1 X104.338 Y89.308 E27.52136
G1 X104.209 Y88.286 E27.57275
G1 X104.337 Y87.299 E27.62241
G1 X104.73 Y86.349 E27.6737
G1 X105.35 Y85.538 E27.72463
G1 X106.161 Y84.917 E27.77559
G1 X107.105 Y84.526 E27.82656
G1 X108.113 Y84.395 E27.87728
G1 X109.118 Y84.525 E27.92783
G1 X110.064 Y84.917 E27.97892
G1 X110.875 Y85.538 E28.02988
G1 X111.495 Y86.349 E28.08081
G1 X111.886 Y87.289 E28.1316
G1 X112.018 Y88.3 E28.18247
G1 X111.887 Y89.309 E28.23323
G1 X111.494 Y90.254 E28.28429
G1 X110.874 Y91.063 E28.33514
G1 X110.304 Y91.499 E28.37095
G0 F7500 X110.988 Y91.399
G0 X109.598 Y91.681
G0 X109.087 Y91.815
;TYPE:WALL-OUTER
G1 F1239.7 X109.951 Y91.9 E28.42336
G1 F1500 X121.849 Y91.9 E29.01695
G1 F1242.2 X122.713 Y91.816 E29.06925
G1 F1020.4 X122.796 Y91.793 E29.07556
G1 F1077.2 X122.356 Y91.555 E29.11031
G1 F1327.4 X121.916 Y91.316 E29.13854
G1 F1500 X121.211 Y90.776 E29.18285
G1 X120.656 Y90.051 E29.2284
G1 X120.303 Y89.203 E29.27423
G1 X120.187 Y88.3 E29.31965
G1 X120.301 Y87.418 E29.36402
G1 X120.656 Y86.549 E29.41085
G1 X121.211 Y85.824 E29.4564
G1 X121.937 Y85.268 E29.50202
G1 X122.8 Y84.913 E29.54858
G1 X123.688 Y84.799 E29.59324
G1 X124.591 Y84.915 E29.63867
G1 X125.44 Y85.268 E29.68454
G1 X126.18 Y85.844 E29.73132
G1 X126.488 Y86.245 E29.75655
G1 X126.488 Y82.3 E29.95337
G1 X93.512 Y82.3 E31.59854
G1 X93.512 Y91.9 E32.07749
G1 X106.274 Y91.9 E32.71419
G1 F1242.2 X107.138 Y91.816 E32.76648
G1 F1020.4 X107.221 Y91.793 E32.7728
G1 F1077.2 X106.781 Y91.555 E32.80755
G1 F1327.4 X106.34 Y91.316 E32.83583
G1 F1500 X105.636 Y90.777 E32.88007
G1 X105.096 Y90.072 E32.92437
G1 X104.728 Y89.204 E32.97141
G1 X104.611 Y88.3 E33.01688
G1 X104.728 Y87.404 E33.06197
G1 X105.081 Y86.549 E33.10811
G1 X105.636 Y85.823 E33.15371
G1 X106.361 Y85.268 E33.19926
G1 X107.225 Y84.913 E33.24586
G1 X108.113 Y84.799 E33.29053
G1 X109.016 Y84.915 E33.33595
G1 X109.864 Y85.268 E33.38177
G1 X110.589 Y85.823 E33.42732
G1 X111.144 Y86.549 E33.47292
G1 X111.499 Y87.418 E33.51975
G1 X111.614 Y88.3 E33.56412
G1 X111.497 Y89.204 E33.6096
G1 X111.129 Y90.072 E33.65664
G1 X110.589 Y90.777 E33.70094
G1 X109.885 Y91.316 E33.74518
G1 F1324.5 X109.445 Y91.554 E33.77344
G1 F1073.3 X109.004 Y91.793 E33.80841
G1 F1016.9 X109.087 Y91.815 E33.81473
G0 F7500 X109.286 Y91.834
G0 X109.004 Y91.793
G1 F1077.2 X108.113 Y91.85 E33.87676
G1 F1079.1 X107.221 Y91.793 E33.93874
G1 F1500 E27.43874
G0 F7500 X106.627 Y91.681
G0 X94.084 Y91.328
G0 X94.084 Y82.872
G0 X96.252 Y82.861
G0 X96.884 Y82.927
G0 X95.215 Y84.545
G0 X95.675 Y86.24
G0 X96.838 Y87.146
G0 X97.29 Y86.698
G1 F1500 E33.93874
G1 X96.899 Y86.648 E33.95841
G1 X96.49 Y86.47 E33.98066
G1 X96.182 Y86.236 E33.99996
G1 X95.941 Y85.922 E34.01971
G1 X95.761 Y85.495 E34.04283
G1 X95.714 Y85.074 E34.06396
G1 X95.763 Y84.687 E34.08342
G1 X95.93 Y84.294 E34.10473
G1 X96.181 Y83.963 E34.12545
G1 X96.533 Y83.705 E34.14722
G1 X96.927 Y83.548 E34.16838
G1 X97.334 Y83.502 E34.18882
G1 X97.698 Y83.548 E34.20712
G1 X98.092 Y83.705 E34.22828
G1 X98.443 Y83.963 E34.25002
G1 X98.684 Y84.278 E34.2698
G1 X98.862 Y84.687 E34.29206
G1 X98.911 Y85.122 E34.3139
G1 X98.862 Y85.504 E34.33311
G1 X98.709 Y85.878 E34.35327
G1 X98.456 Y86.219 E34.37445
G1 X98.136 Y86.47 E34.39474
G1 X97.707 Y86.651 E34.41797
G1 X97.29 Y86.698 E34.43891
G0 F7500 X97.092 Y86.673
G1 F1500 E27.93891
G0 F7500 X96.838 Y87.146
G0 X95.216 Y85.659
G0 X95.779 Y83.565
G0 X96.884 Y82.927
G0 X96.252 Y82.861
G0 X94.084 Y82.872
G0 X94.084 Y91.328
G0 X105.369 Y91.313
G0 X104.062 Y88.437
G0 X104.872 Y86.428
G0 X105.466 Y85.654
G0 X106.24 Y85.059
G0 X107.144 Y84.684
G0 X108.113 Y84.557
G0 X109.081 Y84.684
G0 X109.985 Y85.059
G0 X110.759 Y85.654
G0 X111.353 Y86.428
G0 X111.728 Y87.331
G0 X111.856 Y88.3
G0 X111.633 Y90.336
G0 X110.856 Y91.313
G0 X122.203 Y91.681
G0 X122.796 Y91.793
G1 F1500 E34.43891
G1 F1079.1 X123.688 Y91.85 E34.50089
G1 F1077.2 X124.58 Y91.793 E34.56299
G0 F7500 X125.089 Y91.898
G1 F1492.5 X125.232 Y91.898 E34.57016
G1 X125.387 Y91.45 E34.59393
G1 X125.306 Y91.388 E34.59904
G1 X125.012 Y91.511 E34.61502
G1 F1183.4 X124.58 Y91.793 E34.64765
G1 X125.089 Y91.898 E34.68051
G0 F7500 X125.232 Y91.898
G0 X125.25 Y91.845
G1 F1500 E28.18051
G0 F7500 X125.125 Y91.694
G0 X122.282 Y91.697
G0 X111.269 Y91.138
;TYPE:SKIN
G1 F1500 E34.68051
G1 X111.816 Y90.414 E34.72578
G1 X112.239 Y89.402 E34.7805
G1 X112.381 Y88.3 E34.83594
G1 X112.24 Y87.195 E34.89151
G1 X111.794 Y86.146 E34.94838
G1 X111.132 Y85.277 E35.00288
G1 X110.272 Y84.622 E35.05682
G1 X109.215 Y84.173 E35.11411
G1 X108.114 Y84.033 E35.16948
G1 X107.023 Y84.172 E35.22435
G1 X105.975 Y84.604 E35.2809
G1 X105.092 Y85.28 E35.33638
G1 X104.432 Y86.145 E35.39067
G1 X103.987 Y87.209 E35.44821
G1 X103.847 Y88.305 E35.50333
G1 X103.986 Y89.399 E35.55835
G1 X104.409 Y90.414 E35.61321
G1 X104.956 Y91.138 E35.65848
G1 X94.273 Y91.139 E36.19146
G1 X94.273 Y86.46 E36.42489
G1 F1330.4 X94.324 Y85.889 E36.45714
G1 F1115.2 X94.359 Y85.725 E36.46839
G1 F1075.3 X94.342 Y85.099 E36.51198
G1 F1077.2 X94.36 Y84.479 E36.55507
G1 F1115.2 X94.323 Y84.315 E36.56635
G1 F1330.4 X94.272 Y83.76 E36.5977
G1 F1500 X94.272 Y83.061 E36.63257
G1 X96.1 Y83.068 E36.72377
G1 X95.637 Y83.423 E36.75288
G1 X95.271 Y83.913 E36.78339
G1 F1330.4 X94.986 Y84.448 E36.81749
G1 F1115.2 X94.932 Y84.512 E36.82311
G1 F1075.3 X94.884 Y85.068 E36.86195
G1 X94.933 Y85.692 E36.90551
G1 F1115.2 X94.987 Y85.756 E36.91113
G1 F1330.4 X95.279 Y86.308 E36.94626
G1 F1500 X95.636 Y86.778 E36.9757
G1 X96.133 Y87.155 E37.00683
G1 X96.728 Y87.396 E37.03885
G1 X97.315 Y87.458 E37.0683
G1 X97.906 Y87.391 E37.09798
G1 X98.524 Y87.132 E37.13141
G1 X98.984 Y86.782 E37.16024
G1 X99.367 Y86.282 E37.19167
G1 X99.597 Y85.713 E37.22228
G1 X99.677 Y85.127 E37.25179
G1 X99.604 Y84.486 E37.28398
G1 X99.348 Y83.893 E37.3162
G1 X99.003 Y83.441 E37.34457
G1 X98.53 Y83.07 E37.37456
G1 X125.728 Y83.061 E38.73148
G1 X125.728 Y84.566 E38.80656
G1 X124.794 Y84.173 E38.85711
G1 X123.689 Y84.033 E38.91268
G1 X122.598 Y84.172 E38.96755
G1 X121.577 Y84.593 E39.02265
G1 X120.669 Y85.282 E39.07952
G1 X119.984 Y86.186 E39.1361
G1 X119.56 Y87.198 E39.19085
G1 X119.421 Y88.3 E39.24626
G1 X119.561 Y89.402 E39.30168
G1 X119.985 Y90.415 E39.35647
G1 X120.531 Y91.139 E39.40171
G1 X111.269 Y91.138 E39.86379
G0 F7500 X111.063 Y90.981
G0 X110.856 Y91.313
G0 X120.944 Y91.313
G0 X119.622 Y88.3
G0 X120.811 Y85.424
G0 X123.689 Y84.234
G0 X125.907 Y84.891
G0 X125.916 Y82.872
G0 X125.122 Y82.8
G0 X125.122 Y83.261
G1 F1500 X125.527 Y83.666 E39.89237
G0 F7500 X125.527 Y84.232
G1 F1500 X124.556 Y83.261 E39.96088
G0 F7500 X123.991 Y83.261
G1 F1500 X124.686 Y83.957 E40.00995
G0 F7500 X124.038 Y83.874
G1 F1500 X123.425 Y83.261 E40.0532
G0 F7500 X122.859 Y83.261
G1 F1500 X123.457 Y83.859 E40.09539
G0 F7500 X122.955 Y83.923
G1 F1500 X122.294 Y83.261 E40.14206
G0 F7500 X121.729 Y83.262
G1 F1500 X122.468 Y84.002 E40.19424
G0 F7500 X122.069 Y84.169
G1 F1500 X121.163 Y83.262 E40.2582
G0 F7500 X120.597 Y83.262
G1 F1500 X121.671 Y84.335 E40.33394
G0 F7500 X121.307 Y84.538
G1 F1500 X120.032 Y83.262 E40.42393
G0 F7500 X119.466 Y83.262
G1 F1500 X120.987 Y84.783 E40.53125
G0 F7500 X120.667 Y85.029
G1 F1500 X118.901 Y83.263 E40.65585
G0 F7500 X118.335 Y83.263
G1 F1500 X120.389 Y85.317 E40.80077
G0 F7500 X120.143 Y85.636
G1 F1500 X117.77 Y83.263 E40.9682
G0 F7500 X117.204 Y83.263
G1 F1500 X119.898 Y85.957 E41.15827
G0 F7500 X119.706 Y86.33
G1 F1500 X116.638 Y83.263 E41.3747
G0 F7500 X116.072 Y83.263
G1 F1500 X119.539 Y86.729 E41.61928
G0 F7500 X119.372 Y87.128
G1 F1500 X115.508 Y83.263 E41.89194
G0 F7500 X114.942 Y83.263
