;FLAVOR:Marlin
;TIME:20133
;Filament used: 13.7468m
;Layer height: 0.2
;MINX:79.015
;MINY:47.6
;MINZ:0.3
;MAXX:140.985
;MAXY:172.492
;MAXZ:36.3
;TARGET_MACHINE.NAME:Anet A8
;Generated with Cura_SteamEngine 5.6.0
M140 S60
M105
M190 S60
M104 S200
M105
M109 S200
M82 ;absolute extrusion mode
G28 ;Home
G1 Z15.0 F2000 ;Move the platform
G92 E0
G92 E0
G1 F1500 E-6.5
;LAYER_COUNT:181
;LAYER:0
M107
M204 S1000
G0 F7500 X79.588 Y49.654 Z0.3
;TYPE:SKIRT
G1 F1500 E0
G1 X79.853 Y49.253 E0.02398
G1 X80.245 Y48.8 E0.05387
G1 X80.595 Y48.492 E0.07713
G1 X81.084 Y48.164 E0.1065
G1 X81.495 Y47.958 E0.12944
G1 X82.059 Y47.761 E0.15924
G1 X82.42 Y47.687 E0.17763
G1 X82.676 Y47.65 E0.19053
G1 X83.074 Y47.618 E0.21045
G1 X84.041 Y47.6 E0.25871
G1 X136.211 Y47.6 E2.86148
G1 X136.833 Y47.609 E2.89251
G1 X137.115 Y47.626 E2.90661
G1 X137.542 Y47.67 E2.92802
G1 X138.039 Y47.761 E2.95323
G1 X138.516 Y47.93 E2.97848
G1 X139.117 Y48.28 E3.01318
G1 X139.386 Y48.479 E3.02987
G1 X139.768 Y48.811 E3.05512
G1 X139.992 Y49.066 E3.07205
G1 X140.163 Y49.282 E3.0858
G1 X140.444 Y49.702 E3.11101
G1 X140.59 Y49.996 E3.12739
G1 X140.7 Y50.25 E3.1412
G1 X140.864 Y50.729 E3.16645
G1 X140.963 Y51.461 E3.20331
G1 X140.985 Y52.631 E3.26169
G1 X140.981 Y91.248 E5.1883
G1 X140.969 Y91.963 E5.22398
G1 X140.931 Y92.403 E5.24601
G1 X140.77 Y93.432 E5.29797
G1 X140.655 Y94.101 E5.33184
G1 X140.265 Y96.828 E5.46927
G1 X139.959 Y99.521 E5.60449
G1 X139.726 Y102.234 E5.74034
G1 X139.57 Y104.982 E5.87766
G1 X139.49 Y107.768 E6.01671
G1 X139.48 Y109.157 E6.08601
G1 X139.48 Y162.466 E8.74561
G1 X139.469 Y163.169 E8.78068
G1 X139.421 Y163.672 E8.80589
G1 X139.294 Y164.162 E8.83115
G1 X139.151 Y164.511 E8.84996
G1 X138.064 Y166.762 E8.97467
G1 X137.015 Y169.08 E9.10161
G1 X136.658 Y169.683 E9.13657
G1 X136.189 Y170.307 E9.17552
G1 X135.854 Y170.686 E9.20075
G1 X135.6 Y170.906 E9.21752
G1 X134.98 Y171.39 E9.25676
G1 X134.558 Y171.669 E9.282
G1 X134.259 Y171.815 E9.2986
G1 X133.546 Y172.117 E9.33723
G1 X133.066 Y172.276 E9.36246
G1 X132.772 Y172.335 E9.37742
G1 X132.111 Y172.432 E9.41075
G1 X131.582 Y172.481 E9.43725
G1 X131.233 Y172.491 E9.45467
G1 X89.159 Y172.492 E11.55375
G1 X88.461 Y172.482 E11.58858
G1 X88.202 Y172.467 E11.60152
G1 X87.804 Y172.425 E11.62149
G1 X87.291 Y172.35 E11.64735
G1 X86.798 Y172.238 E11.67257
G1 X86.559 Y172.152 E11.68525
G1 X85.824 Y171.856 E11.72478
G1 X85.371 Y171.631 E11.75001
G1 X85.113 Y171.458 E11.76551
G1 X84.386 Y170.905 E11.81108
G1 X84.056 Y170.604 E11.83336
G1 X83.186 Y169.69 E11.89632
G1 X82.303 Y168.793 E11.95912
G1 X81.421 Y167.877 E12.02256
G1 X81.1 Y167.486 E12.0478
G1 X80.845 Y167.049 E12.07304
G1 X80.661 Y166.578 E12.09827
G1 X80.555 Y166.084 E12.12347
G1 X80.528 Y165.757 E12.13984
G1 X80.517 Y165.37 E12.15916
G1 X80.515 Y109.149 E14.96403
G1 X80.475 Y106.352 E15.10359
G1 X80.36 Y103.635 E15.23926
G1 X80.166 Y100.892 E15.37645
G1 X79.896 Y98.181 E15.51238
G1 X79.547 Y95.452 E15.64964
G1 X79.176 Y93.062 E15.7703
G1 X79.079 Y92.486 E15.79944
G1 X79.036 Y92.017 E15.82294
G1 X79.015 Y90.928 E15.87728
G1 X79.02 Y52.361 E17.8014
G1 X79.028 Y51.796 E17.82959
G1 X79.045 Y51.513 E17.84373
G1 X79.081 Y51.164 E17.86123
G1 X79.172 Y50.666 E17.88649
G1 X79.326 Y50.197 E17.91112
G1 X79.588 Y49.654 E17.9412
G1 F1500 E11.4412
;MESH:Tode-2WBattTray.stl
G0 F7500 X87.881 Y93.385
G0 X89.073 Y97.817
;TYPE:WALL-INNER
G1 F1500 E17.9412
G1 X88.502 Y97.898 E17.96997
G1 X87.931 Y97.825 E17.99869
G1 X87.392 Y97.6 E18.02783
G1 X86.936 Y97.254 E18.05639
G1 X86.59 Y96.798 E18.08494
G1 X86.365 Y96.26 E18.11404
G1 X86.298 Y95.693 E18.14252
G1 X86.364 Y95.13 E18.1708
G1 X86.592 Y94.592 E18.19995
G1 X86.937 Y94.131 E18.22868
G1 X87.393 Y93.785 E18.25724
G1 X87.93 Y93.56 E18.28629
G1 X88.5 Y93.487 E18.31496
G1 X89.072 Y93.565 E18.34376
G1 X89.605 Y93.787 E18.37256
G1 X90.064 Y94.14 E18.40145
G1 X90.404 Y94.583 E18.42931
G1 X90.63 Y95.124 E18.45856
G1 X90.698 Y95.692 E18.4871
G1 X90.63 Y96.262 E18.51574
G1 X90.405 Y96.799 E18.54479
G1 X90.059 Y97.25 E18.57315
G1 X89.595 Y97.605 E18.6023
G1 X89.073 Y97.817 E18.63041
G1 F1500 E12.13041
G0 F7500 X89.682 Y97.765
G0 X108.078 Y121.573
G0 X109.998 Y123.891
G1 F1500 E18.63041
G1 X109.536 Y123.839 E18.6536
G1 X109.098 Y123.656 E18.67728
G1 X108.718 Y123.367 E18.7011
G1 X108.436 Y122.987 E18.72471
G1 X108.258 Y122.574 E18.74715
G1 X108.193 Y122.084 E18.77181
G1 X108.258 Y121.628 E18.79479
G1 X108.439 Y121.184 E18.81871
G1 X108.712 Y120.824 E18.84125
G1 X109.096 Y120.529 E18.86541
G1 X109.536 Y120.346 E18.88918
G1 X109.998 Y120.292 E18.91239
G1 X110.461 Y120.347 E18.93565
G1 X110.899 Y120.529 E18.95931
G1 X111.273 Y120.815 E18.9828
G1 X111.559 Y121.189 E19.00629
G1 X111.743 Y121.63 E19.03013
G1 X111.801 Y122.099 E19.05371
G1 X111.738 Y122.574 E19.07761
G1 X111.559 Y122.989 E19.10016
G1 X111.279 Y123.369 E19.12371
G1 X110.903 Y123.653 E19.14722
G1 X110.461 Y123.838 E19.17112
G1 X109.998 Y123.891 E19.19437
G1 F1500 E12.69437
G0 F7500 X109.57 Y123.945
G0 X110.991 Y123.813
G0 X129.192 Y129.407
G0 X130.923 Y130.917
G1 F1500 E19.19437
G1 X130.385 Y130.695 E19.22341
G1 X129.93 Y130.346 E19.25202
G1 X129.595 Y129.904 E19.27969
G1 X129.364 Y129.35 E19.30963
G1 X129.292 Y128.791 E19.33775
G1 X129.367 Y128.219 E19.36653
G1 X129.585 Y127.697 E19.39476
G1 X129.943 Y127.226 E19.42427
G1 X130.402 Y126.88 E19.45295
G1 X130.923 Y126.668 E19.48101
G1 X131.494 Y126.587 E19.50978
G1 X132.066 Y126.66 E19.53855
G1 X132.601 Y126.884 E19.56749
G1 X133.058 Y127.231 E19.59612
G1 X133.409 Y127.691 E19.62498
G1 X133.631 Y128.227 E19.65393
G1 X133.697 Y128.792 E19.68231
G1 X133.631 Y129.357 E19.71069
G1 X133.409 Y129.893 E19.73963
G1 X133.057 Y130.353 E19.76853
G1 X132.601 Y130.701 E19.79715
G1 X132.066 Y130.925 E19.82608
G1 X131.494 Y130.998 E19.85485
G1 X130.923 Y130.917 E19.88362
G1 F1500 E13.38362
G0 F7500 X130.927 Y131.027
G0 X130.295 Y130.854
G0 X115.401 Y130.854
G0 X105.253 Y147.015
G1 F1500 E19.88362
G1 X104.986 Y146.875 E19.89867
G1 X104.863 Y146.732 E19.90808
G1 X104.775 Y146.514 E19.9198
G1 X104.775 Y130.124 E20.73751
G1 X104.89 Y129.812 E20.75409
G1 X105.032 Y129.674 E20.76397
G1 X105.357 Y129.568 E20.78103
G1 X114.693 Y129.568 E21.2468
G1 X114.907 Y129.639 E21.25805
G1 X115.108 Y129.815 E21.27138
G1 X115.222 Y130.136 E21.28838
G1 X115.222 Y146.464 E22.10298
G1 X115.118 Y146.758 E22.11854
G1 X114.964 Y146.912 E22.12941
G1 X114.671 Y147.016 E22.14492
G1 X105.253 Y147.015 E22.61478
G1 F1500 E16.11478
G0 F7500 X109.884 Y147.195
G0 X109.999 Y161.313
G0 X109.998 Y165.091
G1 F1500 E22.61478
G1 X109.536 Y165.039 E22.63798
G1 X109.098 Y164.856 E22.66166
G1 X108.721 Y164.569 E22.6853
G1 X108.436 Y164.195 E22.70876
G1 X108.251 Y163.755 E22.73257
G1 X108.199 Y163.287 E22.75606
G1 X108.259 Y162.809 E22.7801
G1 X108.443 Y162.377 E22.80353
G1 X108.718 Y162.023 E22.82589
G1 X109.1 Y161.727 E22.85
G1 X109.545 Y161.545 E22.87399
G1 X109.999 Y161.493 E22.89678
G1 X110.452 Y161.544 E22.91953
G1 X110.885 Y161.726 E22.94296
G1 X111.272 Y162.014 E22.96703
G1 X111.561 Y162.39 E22.99069
G1 X111.746 Y162.838 E23.01487
G1 X111.797 Y163.287 E23.03741
G1 X111.739 Y163.753 E23.06084
G1 X111.563 Y164.193 E23.08448
G1 X111.275 Y164.572 E23.10823
G1 X110.903 Y164.853 E23.13149
G1 X110.461 Y165.038 E23.1554
G1 X109.998 Y165.091 E23.17865
G1 F1500 E16.67865
G0 F7500 X109.881 Y165.184
G0 X108.592 Y164.699
G0 X89.914 Y160.709
G0 X89.066 Y161.425
G1 F1500 E23.17865
G1 X88.476 Y161.495 E23.20829
G1 X87.927 Y161.421 E23.23593
G1 X87.394 Y161.201 E23.26469
G1 X86.936 Y160.854 E23.29336
G1 X86.59 Y160.398 E23.32192
G1 X86.365 Y159.86 E23.35101
G1 X86.298 Y159.293 E23.3795
G1 X86.364 Y158.727 E23.40793
G1 X86.589 Y158.189 E23.43702
G1 X86.936 Y157.731 E23.46569
G1 X87.393 Y157.385 E23.49428
G1 X87.93 Y157.16 E23.52333
G1 X88.498 Y157.087 E23.5519
G1 X89.069 Y157.161 E23.58063
G1 X89.609 Y157.394 E23.60997
G1 X90.058 Y157.734 E23.63807
G1 X90.409 Y158.194 E23.66693
G1 X90.626 Y158.73 E23.69578
G1 X90.701 Y159.276 E23.72328
G1 X90.632 Y159.849 E23.75207
G1 X90.406 Y160.389 E23.78128
G1 X90.059 Y160.851 E23.81011
G1 X89.601 Y161.201 E23.83886
G1 X89.066 Y161.425 E23.8678
G1 F1500 E17.3678
G0 F7500 X89.084 Y161.523
G0 X89.914 Y160.709
G0 X89.914 Y168.492
G0 X131.452 Y168.691
G1 F1500 E23.8678
G1 X132.123 Y168.603 E23.90156
G1 X132.691 Y168.368 E23.93223
G1 X133.19 Y167.984 E23.96364
G1 X133.574 Y167.485 E23.99506
G1 X133.809 Y166.918 E24.02568
G1 X133.918 Y166.1 E24.06685
G1 X135.295 Y163.65 E24.20706
G1 X135.295 Y94.766 E27.6437
G1 X135.328 Y94.607 E27.6518
G1 X136.795 Y91.661 E27.81599
G1 X136.794 Y51.791 E29.80511
G1 X83.211 Y51.788 E32.47838
G1 X83.203 Y91.66 E34.4676
G1 X84.668 Y94.605 E34.63171
G1 X84.701 Y94.765 E34.63986
G1 X84.702 Y165.448 E38.16624
G1 X85.252 Y165.692 E38.19626
G1 X85.498 Y165.692 E38.20854
G1 X85.823 Y165.787 E38.22543
G1 X86.011 Y165.979 E38.23884
G1 X86.083 Y166.14 E38.24763
G1 X86.185 Y166.918 E38.28678
G1 X86.421 Y167.485 E38.31742
G1 X86.806 Y167.985 E38.3489
G1 X87.305 Y168.369 E38.38032
G1 X87.872 Y168.604 E38.41094
G1 X88.543 Y168.692 E38.4447
G1 X131.452 Y168.691 E40.58544
G1 F1500 E34.08544
G0 F7500 X131.465 Y168.589
G0 X132.071 Y168.408
G0 X131.498 Y98.079
G0 X130.923 Y97.817
G1 F1500 E40.58544
G1 X130.383 Y97.593 E40.61461
G1 X129.935 Y97.251 E40.64273
G1 X129.589 Y96.793 E40.67136
G1 X129.368 Y96.264 E40.69997
G1 X129.293 Y95.682 E40.72924
G1 X129.366 Y95.122 E40.75742
G1 X129.594 Y94.581 E40.78671
G1 X129.939 Y94.132 E40.81496
G1 X130.389 Y93.793 E40.84306
G1 X130.937 Y93.559 E40.87279
G1 X131.493 Y93.492 E40.90073
G1 X132.063 Y93.559 E40.92937
G1 X132.603 Y93.785 E40.95857
G1 X133.06 Y94.133 E40.98723
G1 X133.405 Y94.593 E41.01592
G1 X133.632 Y95.131 E41.04505
G1 X133.697 Y95.692 E41.07322
G1 X133.631 Y96.257 E41.1016
G1 X133.409 Y96.793 E41.13055
G1 X133.057 Y97.253 E41.15944
G1 X132.601 Y97.601 E41.18806
G1 X132.066 Y97.825 E41.217
G1 X131.494 Y97.898 E41.24577
G1 X130.923 Y97.817 E41.27454
G0 F7500 X131.033 Y97.435
;TYPE:WALL-OUTER
G1 F1500 X130.601 Y97.253 E41.29793
G1 X130.233 Y96.977 E41.32088
G1 X129.941 Y96.596 E41.34483
G1 X129.756 Y96.153 E41.36878
G1 X129.698 Y95.71 E41.39107
G1 X129.754 Y95.24 E41.41468
G1 X129.94 Y94.79 E41.43897
G1 X130.226 Y94.416 E41.46246
G1 X130.583 Y94.143 E41.48488
G1 X131.023 Y93.955 E41.50876
G1 X131.496 Y93.892 E41.53256
G1 X131.964 Y93.95 E41.55609
G1 X132.42 Y94.148 E41.58089
G1 X132.752 Y94.401 E41.60172
G1 X133.058 Y94.793 E41.62653
G1 X133.234 Y95.214 E41.64929
G1 X133.296 Y95.666 E41.67205
G1 X133.242 Y96.14 E41.69585
G1 X133.069 Y96.568 E41.71889
G1 X132.772 Y96.967 E41.7437
G1 X132.376 Y97.262 E41.76834
G1 X131.961 Y97.435 E41.79077
G1 X131.472 Y97.491 E41.81532
G1 X131.033 Y97.435 E41.8374
G0 F7500 X130.849 Y97.358
G1 F1500 E35.3374
G0 F7500 X131.005 Y97.936
G0 X131.498 Y98.079
G0 X131.498 Y126.406
G0 X131.033 Y130.535
G1 F1500 E41.8374
G1 X130.605 Y130.355 E41.86057
G1 X130.217 Y130.061 E41.88485
G1 X129.945 Y129.702 E41.90733
G1 X129.755 Y129.248 E41.93188
G1 X129.699 Y128.818 E41.95351
G1 X129.754 Y128.34 E41.97752
G1 X129.953 Y127.87 E42.00298
G1 X130.216 Y127.527 E42.02455
G1 X130.574 Y127.249 E42.04716
G1 X131.031 Y127.053 E42.07197
G1 X131.472 Y126.994 E42.09416
G1 X131.963 Y127.05 E42.11882
G1 X132.42 Y127.248 E42.14367
G1 X132.752 Y127.501 E42.16449
G1 X133.059 Y127.892 E42.18929
G1 X133.243 Y128.353 E42.21406
G1 X133.296 Y128.818 E42.23741
G1 X133.242 Y129.24 E42.25863
G1 X133.069 Y129.668 E42.28166
G1 X132.772 Y130.067 E42.30648
G1 X132.376 Y130.362 E42.33111
G1 X131.961 Y130.535 E42.35355
G1 X131.472 Y130.591 E42.3781
G1 X131.033 Y130.535 E42.40018
G0 F7500 X130.849 Y130.458
G1 F1500 E35.90018
G0 F7500 X131.004 Y131.035
G0 X130.734 Y130.809
G0 X129.192 Y129.407
G0 X110.991 Y123.813
G0 X109.972 Y123.49
G1 F1500 E42.40018
G1 X109.636 Y123.448 E42.41707
G1 X109.32 Y123.315 E42.43418
G1 X109.006 Y123.085 E42.4536
G1 X108.785 Y122.791 E42.47195
G1 X108.647 Y122.463 E42.4897
G1 X108.599 Y122.084 E42.50876
G1 X108.641 Y121.745 E42.5258
G1 X108.787 Y121.389 E42.545
G1 X109.018 Y121.09 E42.56385
G1 X109.291 Y120.884 E42.58091
G1 X109.645 Y120.736 E42.60005
G1 X109.998 Y120.692 E42.6178
G1 X110.35 Y120.736 E42.6355
G1 X110.685 Y120.873 E42.65356
G1 X110.984 Y121.098 E42.67223
G1 X111.216 Y121.402 E42.6913
G1 X111.351 Y121.728 E42.70891
G1 X111.397 Y122.082 E42.72672
G1 X111.353 Y122.449 E42.74516
G1 X111.21 Y122.793 E42.76374
G1 X110.989 Y123.086 E42.78205
G1 X110.678 Y123.314 E42.80129
G1 X110.341 Y123.45 E42.81942
G1 X109.972 Y123.49 E42.83794
G0 F7500 X109.774 Y123.466
G1 F1500 E36.33794
G0 F7500 X109.57 Y123.945
G0 X109.49 Y129.388
G0 X105.305 Y146.616
G1 F1500 E42.83794
G1 X105.203 Y146.522 E42.84486
G1 X105.174 Y146.431 E42.84963
G1 X105.174 Y130.153 E43.66174
G1 X105.212 Y130.049 E43.66726
G1 X105.341 Y129.97 E43.67481
G1 X114.655 Y129.97 E44.13949
G1 X114.728 Y129.997 E44.14337
G1 X114.819 Y130.131 E44.15145
G1 X114.821 Y146.452 E44.96571
G1 X114.752 Y146.571 E44.97257
G1 X114.639 Y146.617 E44.97866
G1 X105.305 Y146.616 E45.44433
G0 F7500 X105.203 Y146.522
G0 X105.185 Y146.463
G1 F1500 E38.94433
G0 F7500 X104.874 Y146.463
G0 X104.946 Y146.844
G0 X109.907 Y147.195
G0 X109.999 Y161.313
G0 X109.972 Y164.69
G1 F1500 E45.44433
G1 X109.635 Y164.647 E45.46128
G1 X109.277 Y164.49 E45.48079
G1 X109.005 Y164.283 E45.49784
G1 X108.775 Y163.97 E45.51722
G1 X108.644 Y163.652 E45.53438
G1 X108.6 Y163.266 E45.55376
G1 X108.642 Y162.931 E45.5706
G1 X108.787 Y162.589 E45.58913
G1 X109.004 Y162.303 E45.60705
G1 X109.287 Y162.087 E45.62481
G1 X109.654 Y161.934 E45.64464
G1 X110.024 Y161.894 E45.66321
G1 X110.35 Y161.936 E45.67961
G1 X110.708 Y162.086 E45.69898
G1 X110.98 Y162.294 E45.71606
G1 X111.205 Y162.583 E45.73433
G1 X111.349 Y162.921 E45.75266
G1 X111.397 Y163.29 E45.77123
G1 X111.352 Y163.652 E45.78942
G1 X111.195 Y164.015 E45.80916
G1 X110.989 Y164.287 E45.82618
G1 X110.678 Y164.514 E45.84539
G1 X110.341 Y164.65 E45.86352
G1 X109.972 Y164.69 E45.88204
G0 F7500 X109.774 Y164.665
G1 F1500 E39.38204
G0 F7500 X109.707 Y165.161
G0 X108.592 Y164.699
G0 X89.914 Y160.709
G0 X88.945 Y161.037
G1 F1500 E45.88204
G1 X88.5 Y161.092 E45.90441
G1 X88.042 Y161.035 E45.92743
G1 X87.618 Y160.861 E45.9503
G1 X87.222 Y160.568 E45.97487
G1 X86.929 Y160.172 E45.99945
G1 X86.753 Y159.739 E46.02277
G1 X86.699 Y159.266 E46.04652
G1 X86.756 Y158.826 E46.06866
G1 X86.953 Y158.37 E46.09344
G1 X87.224 Y158.014 E46.11576
G1 X87.618 Y157.724 E46.14017
G1 X88.035 Y157.55 E46.16271
G1 X88.524 Y157.494 E46.18726
G1 X88.963 Y157.55 E46.20934
G1 X89.402 Y157.736 E46.23313
G1 X89.781 Y158.028 E46.257
G1 X90.058 Y158.393 E46.27986
G1 X90.234 Y158.814 E46.30263
G1 X90.297 Y159.275 E46.32584
G1 X90.236 Y159.764 E46.35042
G1 X90.058 Y160.191 E46.3735
G1 X89.771 Y160.565 E46.39702
G1 X89.376 Y160.862 E46.42168
G1 X88.945 Y161.037 E46.44489
G0 F7500 X88.747 Y161.061
G1 F1500 E39.94489
G0 F7500 X89.066 Y161.525
G0 X89.914 Y160.709
G0 X89.914 Y168.492
G0 X131.478 Y169.091
G1 F1500 E46.44489
G1 X132.227 Y168.993 E46.48257
G1 X132.893 Y168.718 E46.51852
G1 X133.475 Y168.27 E46.55516
G1 X133.924 Y167.687 E46.59188
G1 X134.199 Y167.022 E46.62778
G1 X134.309 Y166.225 E46.66792
G1 X135.695 Y163.755 E46.80922
G1 X135.695 Y94.761 E50.25135
G1 X137.195 Y91.755 E50.41895
G1 X137.198 Y51.761 E52.41426
G1 X137.153 Y51.558 E52.42463
G1 X137.027 Y51.432 E52.43352
G1 X136.824 Y51.387 E52.4439
G1 X83.175 Y51.386 E55.12046
G1 X82.977 Y51.428 E55.13055
G1 X82.854 Y51.557 E55.13945
G1 X82.805 Y51.764 E55.15006
G1 X82.803 Y91.754 E57.14517
G1 X84.301 Y94.759 E57.31268
G1 X84.302 Y165.708 E60.85234
G1 X85.167 Y166.092 E60.89956
G1 X85.584 Y166.092 E60.92036
G1 X85.69 Y166.233 E60.92916
G1 X85.795 Y167.022 E60.96887
G1 X86.072 Y167.687 E61.00481
G1 X86.521 Y168.27 E61.04153
G1 X87.103 Y168.718 E61.07817
G1 X87.768 Y168.994 E61.11409
G1 X88.517 Y169.092 E61.15178
G1 X131.478 Y169.091 E63.29511
G0 F7500 X131.676 Y169.066
G1 F1500 E56.79511
G0 F7500 X131.61 Y168.57
G0 X89.08 Y168.492
G0 X88.498 Y98.079
G0 X88.965 Y97.432
G1 F1500 E63.29511
G1 X88.524 Y97.491 E63.31731
G1 X88.033 Y97.435 E63.34196
G1 X87.575 Y97.236 E63.36688
