;FLAVOR:Marlin
;TIME:1963
;Filament used: 1.3391m
;Layer height: 0.2
;MINX:78.618
;MINY:84.388
;MINZ:0.3
;MAXX:141.383
;MAXY:135.704
;MAXZ:2.9
;TARGET_MACHINE.NAME:Anet A8
;Generated with Cura_SteamEngine 5.6.0
M140 S60
M105
M190 S60
M104 S200
M105
M109 S200
M82 ;absolute extrusion mode
G28 ;Home
G1 Z15.0 F2000 ;Move the platform
G92 E0
G92 E0
G1 F1500 E-6.5
;LAYER_COUNT:14
;LAYER:0
M107
M204 S1000
G0 F7500 X79.945 Y85.722 Z0.3
;TYPE:SKIRT
G1 F1500 E0
G1 X80.364 Y85.353 E0.02785
G1 X80.896 Y84.996 E0.05982
G1 X81.323 Y84.783 E0.08362
G1 X81.986 Y84.553 E0.11864
G1 X82.489 Y84.453 E0.14422
G1 X82.987 Y84.412 E0.16915
G1 X84.142 Y84.388 E0.22679
G1 X136.213 Y84.388 E2.82462
G1 X136.811 Y84.397 E2.85446
G1 X137.123 Y84.416 E2.87005
G1 X137.471 Y84.453 E2.88751
G1 X138.051 Y84.564 E2.91697
G1 X138.39 Y84.676 E2.93478
G1 X138.742 Y84.813 E2.95363
G1 X139.253 Y85.064 E2.98203
G1 X139.699 Y85.373 E3.0091
G1 X140.207 Y85.889 E3.04523
G1 X140.491 Y86.246 E3.06799
G1 X140.8 Y86.712 E3.09588
G1 X140.953 Y87.023 E3.11317
G1 X141.059 Y87.267 E3.12645
G1 X141.247 Y87.811 E3.15516
G1 X141.356 Y88.627 E3.19623
G1 X141.383 Y89.946 E3.26205
G1 X141.383 Y128.45 E5.18303
G1 X141.373 Y129.131 E5.217
G1 X141.312 Y129.728 E5.24694
G1 X141.17 Y130.268 E5.2748
G1 X141.025 Y130.623 E5.29393
G1 X140.567 Y131.586 E5.34713
G1 X139.799 Y133.118 E5.43263
G1 X139.462 Y133.77 E5.46925
G1 X139.157 Y134.251 E5.49766
G1 X138.782 Y134.677 E5.52598
G1 X138.343 Y135.04 E5.5544
G1 X137.854 Y135.328 E5.58271
G1 X137.324 Y135.536 E5.61111
G1 X136.775 Y135.657 E5.63916
G1 X136.359 Y135.691 E5.65999
G1 X135.495 Y135.703 E5.70309
G1 X134.787 Y135.691 E5.73842
G1 X134.029 Y135.592 E5.77656
G1 X132.971 Y135.334 E5.83089
G1 X130.305 Y134.719 E5.96739
G1 X127.632 Y134.183 E6.1034
G1 X124.945 Y133.721 E6.23942
G1 X122.231 Y133.334 E6.3762
G1 X119.546 Y133.029 E6.51101
G1 X116.842 Y132.798 E6.64641
G1 X114.113 Y132.643 E6.78278
G1 X111.36 Y132.564 E6.92018
G1 X108.664 Y132.564 E7.05469
G1 X105.913 Y132.641 E7.19199
G1 X103.22 Y132.793 E7.32656
G1 X100.481 Y133.024 E7.46369
G1 X97.76 Y133.333 E7.60031
G1 X95.074 Y133.715 E7.73567
G1 X92.395 Y134.174 E7.87127
G1 X89.724 Y134.708 E8.00716
G1 X87.063 Y135.321 E8.1434
G1 X85.938 Y135.597 E8.20119
G1 X85.213 Y135.694 E8.23768
G1 X84.738 Y135.704 E8.26139
G1 X83.663 Y135.687 E8.31502
G1 X83.065 Y135.626 E8.34501
G1 X82.517 Y135.479 E8.37332
G1 X81.997 Y135.247 E8.40173
G1 X81.521 Y134.936 E8.43009
G1 X81.1 Y134.554 E8.45846
G1 X80.747 Y134.116 E8.48652
G1 X80.538 Y133.769 E8.50673
G1 X80.212 Y133.142 E8.54199
G1 X79.283 Y131.282 E8.64571
G1 X78.983 Y130.658 E8.68026
G1 X78.782 Y130.127 E8.70858
G1 X78.667 Y129.578 E8.73657
G1 X78.639 Y129.194 E8.75578
G1 X78.618 Y128.118 E8.80947
G1 X78.618 Y89.543 E10.73398
G1 X78.627 Y88.965 E10.76282
G1 X78.645 Y88.667 E10.77772
G1 X78.682 Y88.307 E10.79577
G1 X78.791 Y87.727 E10.82521
G1 X78.963 Y87.211 E10.85235
G1 X79.251 Y86.623 E10.88502
G1 X79.551 Y86.175 E10.91191
G1 X79.945 Y85.722 E10.94187
G0 F7500 X80.247 Y85.985
G1 F1500 X80.589 Y85.684 E10.9646
G1 X81.075 Y85.354 E10.99391
G1 X81.502 Y85.141 E11.01771
G1 X82.066 Y84.945 E11.0475
G1 X82.522 Y84.852 E11.07072
G1 X83.02 Y84.811 E11.09565
G1 X84.15 Y84.788 E11.15204
G1 X136.207 Y84.788 E13.74917
G1 X136.787 Y84.796 E13.77811
G1 X137.081 Y84.814 E13.7928
G1 X137.429 Y84.851 E13.81026
G1 X137.926 Y84.944 E13.83549
G1 X138.246 Y85.049 E13.85229
G1 X138.569 Y85.174 E13.86957
G1 X139.025 Y85.393 E13.89481
G1 X139.44 Y85.681 E13.92001
G1 X139.922 Y86.17 E13.95427
G1 X140.159 Y86.469 E13.9733
G1 X140.441 Y86.889 E13.99854
G1 X140.586 Y87.182 E14.01485
G1 X140.692 Y87.426 E14.02812
G1 X140.856 Y87.904 E14.05333
G1 X140.956 Y88.635 E14.09014
G1 X140.983 Y89.954 E14.15596
G1 X140.983 Y128.444 E16.07624
G1 X140.973 Y129.125 E16.11022
G1 X140.925 Y129.628 E16.13542
G1 X140.799 Y130.118 E16.16067
G1 X140.664 Y130.451 E16.17859
G1 X140.209 Y131.407 E16.23141
G1 X139.444 Y132.935 E16.31667
G1 X139.122 Y133.559 E16.3517
G1 X138.855 Y133.989 E16.37695
G1 X138.524 Y134.371 E16.40217
G1 X138.137 Y134.697 E16.42741
G1 X137.704 Y134.957 E16.45261
G1 X137.235 Y135.146 E16.47784
G1 X136.742 Y135.258 E16.50306
G1 X136.326 Y135.292 E16.52388
G1 X135.5 Y135.303 E16.5651
G1 X134.838 Y135.294 E16.59813
G1 X134.124 Y135.203 E16.63404
G1 X133.066 Y134.945 E16.68837
G1 X130.395 Y134.329 E16.82512
G1 X127.707 Y133.79 E16.9619
G1 X125.001 Y133.325 E17.09888
G1 X122.287 Y132.938 E17.23565
G1 X119.58 Y132.63 E17.37157
G1 X116.876 Y132.4 E17.50696
G1 X114.124 Y132.243 E17.64448
G1 X111.371 Y132.164 E17.78189
G1 X108.653 Y132.164 E17.91749
G1 X105.902 Y132.241 E18.05479
G1 X103.186 Y132.394 E18.19051
G1 X100.447 Y132.626 E18.32765
G1 X97.704 Y132.937 E18.46537
G1 X95.018 Y133.319 E18.60073
G1 X92.327 Y133.78 E18.73694
G1 X89.634 Y134.318 E18.87395
G1 X86.973 Y134.931 E19.01018
G1 X85.884 Y135.201 E19.06616
G1 X85.204 Y135.294 E19.1004
G1 X84.744 Y135.304 E19.12335
G1 X83.669 Y135.287 E19.17699
G1 X83.166 Y135.239 E19.2022
G1 X82.677 Y135.112 E19.22741
G1 X82.213 Y134.91 E19.25265
G1 X81.787 Y134.637 E19.2779
G1 X81.41 Y134.301 E19.30309
G1 X81.09 Y133.91 E19.3283
G1 X80.881 Y133.563 E19.34851
G1 X80.57 Y132.963 E19.38222
G1 X79.643 Y131.108 E19.48568
G1 X79.356 Y130.513 E19.51864
G1 X79.173 Y130.042 E19.54385
G1 X79.066 Y129.548 E19.56907
G1 X79.039 Y129.186 E19.58718
G1 X79.018 Y128.11 E19.64087
G1 X79.018 Y89.549 E21.56469
G1 X79.026 Y88.989 E21.59263
G1 X79.043 Y88.708 E21.60667
G1 X79.08 Y88.348 E21.62473
G1 X79.171 Y87.851 E21.64993
G1 X79.323 Y87.385 E21.67439
G1 X79.584 Y86.844 E21.70436
G1 X79.853 Y86.438 E21.72865
G1 X80.247 Y85.985 E21.75861
G1 F1500 E15.25861
;MESH:Tode-2WBattCover.stl
G0 F7500 X81.939 Y105.775
G0 X95.607 Y105.774
G0 X96.698 Y106.168
G0 X97.354 Y106.122
;TYPE:WALL-INNER
G1 F1500 E21.75861
G1 F1445.8 X97.481 Y105.97 E21.76886
G1 F1459.9 X95.902 Y105.967 E21.8498
G1 F1470.6 X96.096 Y106.207 E21.86551
G1 X96.45 Y106.37 E21.88534
G1 F1459.9 X96.642 Y106.387 E21.89522
G1 F1445.8 X97.081 Y106.305 E21.91834
G1 X97.354 Y106.122 E21.93535
G0 F7500 X96.658 Y106.798
;TYPE:WALL-OUTER
G1 F1500 X97.215 Y106.695 E21.96361
G1 X97.433 Y106.581 E21.97588
G1 X97.641 Y106.413 E21.98922
G1 X97.823 Y106.195 E22.00339
G1 X97.948 Y105.963 E22.01654
G1 X98.038 Y105.563 E22.03699
G1 X95.351 Y105.563 E22.17105
G1 X95.422 Y105.926 E22.1895
G1 X95.632 Y106.317 E22.21164
G1 X95.845 Y106.527 E22.22656
G1 X96.081 Y106.673 E22.24041
G1 X96.365 Y106.768 E22.25535
G1 X96.658 Y106.798 E22.27004
G0 F7500 X96.854 Y106.762
G1 F1500 E15.77004
G0 F7500 X96.728 Y106.212
G0 X97.774 Y105.774
G0 X108.023 Y104.267
G0 X108.632 Y103.708
G0 X108.303 Y103.954
;TYPE:WALL-INNER
G1 F1500 E22.27004
G1 F1190.5 X109.04 Y103.821 E22.31712
G1 F1202.4 X109.775 Y103.658 E22.36398
G1 F1214.6 X109.876 Y103.522 E22.37442
G1 X109.807 Y103.354 E22.38561
G1 X109.682 Y103.286 E22.39437
G1 X109.376 Y103.247 E22.41338
G1 F1195.2 X109.017 Y103.297 E22.43607
G1 F1183.4 X108.715 Y103.413 E22.45653
G1 F1190.5 X108.495 Y103.581 E22.47393
G1 X108.351 Y103.79 E22.48989
G1 X108.303 Y103.954 E22.50063
G0 F7500 X107.797 Y104.555
;TYPE:WALL-OUTER
G1 F1500 X108.218 Y104.428 E22.52257
G1 X109.109 Y104.269 E22.56772
G1 X109.944 Y104.078 E22.61046
G1 X110.104 Y103.983 E22.61974
G1 X110.227 Y103.844 E22.629
G1 X110.306 Y103.674 E22.63835
G1 X110.329 Y103.506 E22.64681
G1 X110.27 Y103.224 E22.66119
G1 X110.105 Y103.006 E22.67483
G1 X109.821 Y102.853 E22.69092
G1 X109.379 Y102.796 E22.71315
G1 X108.905 Y102.851 E22.73696
G1 X108.49 Y103.015 E22.75922
G1 X108.163 Y103.265 E22.77976
G1 X107.936 Y103.594 E22.7997
G1 X107.836 Y103.945 E22.81791
G1 X107.797 Y104.555 E22.8484
G0 F7500 X107.988 Y104.498
G1 F1500 E16.3484
G0 F7500 X108.073 Y104.204
G0 X109.859 Y103.874
G0 X114.044 Y104.243
G0 X116.842 Y104.998
;TYPE:WALL-INNER
G1 F1500 E22.8484
G1 X116.842 Y103.494 E22.92344
G1 X115.491 Y103.495 E22.99084
G1 X114.871 Y103.528 E23.02182
G1 X114.502 Y103.656 E23.0413
G1 X114.311 Y103.871 E23.05565
G1 X114.227 Y104.242 E23.07463
G1 X114.259 Y104.477 E23.08646
G1 X114.349 Y104.663 E23.09677
G1 X114.48 Y104.799 E23.10619
G1 X114.667 Y104.894 E23.11665
G1 X115.036 Y104.968 E23.13543
G1 X115.664 Y104.998 E23.1668
G1 X116.842 Y104.998 E23.22557
G0 F7500 X117.242 Y105.398
;TYPE:WALL-OUTER
G1 F1500 X117.242 Y103.094 E23.34051
G1 X115.47 Y103.095 E23.42892
G1 X114.809 Y103.131 E23.46195
G1 X114.508 Y103.21 E23.47747
G1 X114.284 Y103.316 E23.48984
G1 X114.107 Y103.465 E23.50138
G1 X113.955 Y103.682 E23.5146
G1 X113.858 Y103.937 E23.52821
G1 X113.823 Y104.246 E23.54372
G1 X113.871 Y104.594 E23.56125
G1 X114.016 Y104.895 E23.57792
G1 X114.24 Y105.126 E23.59397
G1 X114.535 Y105.275 E23.61046
G1 X114.986 Y105.366 E23.63341
G1 X115.637 Y105.398 E23.66593
G1 X117.242 Y105.398 E23.746
G0 F7500 X117.242 Y105.198
G0 X116.972 Y105.128
G0 X114.945 Y104.779
G0 X114.481 Y104.636
G0 X114.778 Y104.462
;TYPE:SKIN
G1 F1058.2 X114.696 Y104.341 E23.75634
G1 X114.692 Y104.135 E23.77091
G1 X114.737 Y104.048 E23.77784
G1 X114.936 Y103.968 E23.79301
G1 F1038.1 X115.524 Y103.948 E23.83542
G1 F1016.9 X116.386 Y103.95 E23.89885
G1 F1013.5 X116.386 Y104.542 E23.94257
G1 X115.685 Y104.542 E23.99433
G1 F1036.3 X115.092 Y104.526 E24.03717
G1 F1058.2 X114.778 Y104.462 E24.05983
G1 F1500 E17.55983
G0 F7500 X114.481 Y104.636
G0 X115.643 Y105.179
G0 X115.757 Y106.946
G0 X116.842 Y108.304
;TYPE:WALL-INNER
G1 F1500 E24.05983
G1 X116.842 Y107.128 E24.1185
G1 X115.749 Y107.127 E24.17303
G1 X115.214 Y107.148 E24.19974
G1 X114.922 Y107.198 E24.21452
G1 X114.739 Y107.281 E24.22455
G1 X114.585 Y107.49 E24.2375
G1 X114.556 Y107.703 E24.24822
G1 X114.581 Y107.904 E24.25833
G1 X114.737 Y108.151 E24.2729
G1 X114.865 Y108.217 E24.28009
G1 X115.214 Y108.278 E24.29776
G1 X115.898 Y108.304 E24.33191
G1 X116.842 Y108.304 E24.37901
G0 F7500 X117.242 Y108.704
;TYPE:WALL-OUTER
G1 F1500 X117.242 Y106.728 E24.47759
G1 X115.735 Y106.727 E24.55278
G1 X115.172 Y106.749 E24.58089
G1 X114.803 Y106.813 E24.59957
G1 X114.514 Y106.944 E24.6154
G1 X114.314 Y107.131 E24.62906
G1 X114.197 Y107.373 E24.64247
G1 X114.153 Y107.701 E24.65898
G1 X114.191 Y108.012 E24.67461
G1 X114.308 Y108.275 E24.68897
G1 X114.49 Y108.475 E24.70247
G1 X114.737 Y108.601 E24.7163
G1 X115.172 Y108.677 E24.73833
G1 X115.898 Y108.704 E24.77458
G1 X117.242 Y108.704 E24.84163
G0 F7500 X117.242 Y108.504
G0 X116.972 Y108.434
G0 X114.808 Y108.059
G0 X114.969 Y107.867
;TYPE:SKIN
G1 F1474.2 X114.936 Y107.61 E24.85478
G1 X115.029 Y107.548 E24.86045
G1 X115.254 Y107.51 E24.87204
G1 F1442.3 X115.762 Y107.5 E24.8984
G1 F1408.5 X116.468 Y107.502 E24.93591
G1 F1401.9 X116.468 Y107.93 E24.95876
G1 X115.911 Y107.93 E24.9885
G1 F1438.8 X115.251 Y107.916 E25.02283
G1 F1474.2 X114.969 Y107.867 E25.03736
G1 F1500 E18.53736
G0 F7500 X114.808 Y108.059
G0 X117.022 Y108.326
G0 X131.735 Y107.865
G0 X132.565 Y108.444
;TYPE:WALL-INNER
G1 F1500 E25.03736
G1 X132.917 Y108.442 E25.05492
G1 X133.244 Y108.285 E25.07302
G1 X133.546 Y107.945 E25.09571
G1 X133.645 Y107.733 E25.10738
G1 X133.707 Y107.486 E25.12008
G1 X133.731 Y107.171 E25.13585
G1 X133.654 Y106.703 E25.15951
G1 X133.44 Y106.368 E25.17934
G1 X133.303 Y106.251 E25.18833
G1 X132.961 Y106.106 E25.20686
G1 X132.561 Y106.106 E25.22682
G1 X132.391 Y106.158 E25.23569
G1 X132.104 Y106.363 E25.25328
G1 X131.916 Y106.688 E25.27201
G1 X131.831 Y107.269 E25.30131
G1 X131.851 Y107.561 E25.31591
G1 X131.91 Y107.815 E25.32892
G1 X132.115 Y108.17 E25.34937
G1 X132.263 Y108.305 E25.35937
G1 X132.565 Y108.444 E25.37595
G0 F7500 X132.481 Y108.838
;TYPE:WALL-OUTER
G1 F1500 X132.733 Y108.863 E25.38859
G1 X133.004 Y108.835 E25.40218
G1 X133.248 Y108.751 E25.41505
G1 X133.486 Y108.607 E25.42893
G1 X133.703 Y108.407 E25.44365
G1 X133.892 Y108.15 E25.45957
G1 X134.024 Y107.867 E25.47515
G1 X134.103 Y107.55 E25.49145
G1 X134.132 Y107.171 E25.51041
G1 X134.107 Y106.857 E25.52613
G1 X134.03 Y106.562 E25.54134
G1 X133.909 Y106.317 E25.55497
G1 X133.73 Y106.09 E25.56939
G1 X133.531 Y105.92 E25.58245
G1 X133.29 Y105.788 E25.59616
G1 X133.038 Y105.711 E25.60931
G1 X132.761 Y105.686 E25.62318
G1 X132.484 Y105.711 E25.63706
G1 X132.231 Y105.788 E25.65025
G1 X132.006 Y105.916 E25.66317
G1 X131.806 Y106.091 E25.67642
G1 X131.646 Y106.312 E25.69004
G1 X131.528 Y106.575 E25.70442
G1 X131.429 Y107.254 E25.73865
G1 X131.454 Y107.62 E25.75695
G1 X131.53 Y107.944 E25.77356
G1 X131.65 Y108.21 E25.78812
G1 X131.815 Y108.438 E25.80216
G1 X132.023 Y108.628 E25.81621
G1 X132.24 Y108.757 E25.82881
G1 X132.481 Y108.838 E25.84149
G0 F7500 X132.68 Y108.857
G0 X132.642 Y108.087
;TYPE:SKIN
G1 F1500 X132.391 Y107.933 E25.85618
G1 X132.219 Y107.635 E25.87335
G1 X132.194 Y107.278 E25.8912
G1 X132.265 Y106.798 E25.91541
G1 X132.374 Y106.609 E25.9263
G1 X132.537 Y106.491 E25.93633
G1 X132.76 Y106.452 E25.94763
G1 X132.994 Y106.496 E25.95951
G1 X133.176 Y106.62 E25.97049
G1 X133.311 Y106.832 E25.98303
G1 X133.368 Y107.181 E26.00068
G1 X133.349 Y107.42 E26.01264
G1 X133.232 Y107.76 E26.03058
G1 X133.025 Y107.994 E26.04616
G1 X132.836 Y108.084 E26.05661
G1 X132.642 Y108.087 E26.06629
G0 F7500 X132.757 Y107.867
G1 F1500 X132.409 Y107.519 E26.09084
G0 F7500 X132.438 Y106.983
G1 F1500 X133.069 Y107.613 E26.13533
G0 F7500 X133.156 Y107.135
G1 F1500 X132.689 Y106.667 E26.16831
G1 F1500 E19.66831
G0 F7500 X132.596 Y106.218
G0 X132.523 Y105.928
G0 X131.919 Y104.462
G0 X132.321 Y103.865
G0 X132.037 Y104.111
;TYPE:WALL-INNER
G1 F1500 E26.16831
G1 F1003.3 X132.346 Y104.008 E26.1926
G1 X132.951 Y103.934 E26.23806
G1 F1010.1 X133.563 Y103.99 E26.2836
G1 F1018.7 X133.45 Y103.619 E26.31209
G1 X133.326 Y103.449 E26.32754
G1 X133.182 Y103.365 E26.33979
G1 F1010.1 X132.939 Y103.333 E26.35795
G1 F1003.3 X132.71 Y103.36 E26.37515
G1 X132.527 Y103.437 E26.38996
G1 X132.356 Y103.57 E26.40611
G1 X132.213 Y103.751 E26.42332
G1 X132.037 Y104.111 E26.45321
G1 F1500 E19.95321
G0 F7500 X132.321 Y103.865
G0 X133.943 Y104.332
G0 X135.693 Y104.165
G0 X135.517 Y103.225
G0 X135.342 Y102.767
G0 X135.092 Y102.359
G0 X134.769 Y102.012
G0 X134.383 Y101.738
G0 X133.952 Y101.543
G0 X133.479 Y101.428
G0 X132.487 Y101.425
G0 X131.596 Y101.7
G0 X130.838 Y102.248
G0 X130.52 Y102.627
G0 X130.066 Y103.506
G0 X129.393 Y106.008
G0 X130.239 Y110.254
G0 X128.19 Y110.264
G0 X126.026 Y105.264
G0 X123.789 Y110.264
G0 X122.147 Y110.364
G1 F1500 E26.45321
G1 X121.948 Y110.196 E26.4662
G1 X121.864 Y110.046 E26.47478
G1 X121.826 Y109.832 E26.48562
G1 X121.867 Y109.613 E26.49674
G1 X124.947 Y101.747 E26.91818
G1 X125.051 Y101.573 E26.9283
G1 X125.183 Y101.459 E26.937
G1 X125.428 Y101.37 E26.95
G1 X126.651 Y101.366 E27.01102
G1 X126.912 Y101.468 E27.025
G1 X127.119 Y101.711 E27.04093
G1 X128.876 Y106.243 E27.28343
G1 F1324.5 X129.158 Y106.824 E27.31991
G1 F1073.3 X129.441 Y107.405 E27.36497
G1 F927.4 X129.509 Y107.485 E27.37345
G1 X129.53 Y107.386 E27.38161
G1 F1073.3 X129.541 Y106.703 E27.42924
G1 F1324.5 X129.553 Y106.02 E27.46783
G1 F1500 X129.637 Y104.619 E27.53786
G1 X129.911 Y103.453 E27.59761
G1 X130.384 Y102.538 E27.649
G1 X130.727 Y102.131 E27.67556
G1 X131.105 Y101.808 E27.70036
G1 X131.552 Y101.544 E27.72626
G1 X132.026 Y101.363 E27.75157
G1 X132.464 Y101.264 E27.77398
G1 X133.01 Y101.234 E27.80126
G1 X133.501 Y101.267 E27.82581
G1 X134.005 Y101.389 E27.85168
G1 X134.468 Y101.598 E27.87702
G1 X134.877 Y101.89 E27.9021
G1 X135.218 Y102.258 E27.92713
G1 X135.486 Y102.69 E27.95249
G1 X135.669 Y103.174 E27.9783
G1 X135.785 Y103.745 E28.00737
G1 X135.739 Y104.009 E28.02074
G1 X135.549 Y104.259 E28.03641
G1 X135.316 Y104.375 E28.04939
G1 X134.488 Y104.453 E28.09089
G1 X134.688 Y104.578 E28.10265
G1 X135.093 Y104.928 E28.12936
G1 X135.459 Y105.408 E28.15947
G1 X135.724 Y105.954 E28.18975
G1 X135.878 Y106.564 E28.22114
G1 X135.926 Y107.207 E28.25331
G1 X135.873 Y107.882 E28.28709
G1 X135.717 Y108.492 E28.3185
G1 X135.443 Y109.057 E28.34983
G1 X135.053 Y109.556 E28.38142
G1 X134.586 Y109.954 E28.41204
G1 X134.057 Y110.239 E28.44202
G1 X133.476 Y110.41 E28.47223
G1 X132.835 Y110.468 E28.50434
G1 X131.95 Y110.343 E28.54893
G1 F1425.2 X131.102 Y109.948 E28.59805
