(G-CODE GENERATED BY FLATCAM v8.993 - www.flatcam.org - Version Date: 2020/06/05)

(Name: MainBoardSplit-PTH.drl_cnc)
(Type: G-code from Excellon)
(Units: MM)

(Created on Sunday, 01 November 2020 at 06:13)

(This preprocessor is the default preprocessor used by FlatCAM.)
(It is made to work with MACH3 compatible motion controllers.)


(TOOLS DIAMETER: )
(Tool: 1 -> Dia: 1.0007599999999999)
(Tool: 2 -> Dia: 2.1996399999999996)

(FEEDRATE Z: )
(Tool: 1 -> Feedrate: 50.0)
(Tool: 2 -> Feedrate: 50.0)

(FEEDRATE RAPIDS: )
(Tool: 1 -> Feedrate Rapids: 1500)
(Tool: 2 -> Feedrate Rapids: 1500)

(Z_CUT: )
(Tool: 1 -> Z_Cut: -2.0)
(Tool: 2 -> Z_Cut: -2.0)

(Tools Offset: )
(Tool: 1 -> Offset Z: -0.0)

(Z_MOVE: )
(Tool: 1 -> Z_Move: 1.0)
(Tool: 2 -> Z_Move: 1.0)

(Z Start: None mm)
(Z End: 2.0 mm)
(Steps per circle: 64)
(Preprocessor Excellon: default)

(X range:    2.5476 ...   30.9804  mm)
(Y range:    3.0556 ...   20.3124  mm)

(Spindle Speed: 2000.0 RPM)
G21
G90
G94



G00 Z1.0000

G01 F50.00
M03 S2000
G00 X25.4000 Y12.9540
G01 Z-2.0000
G01 Z0
G00 Z1.0000
G00 X27.9400 Y12.9540
G01 Z-2.0000
G01 Z0
G00 Z1.0000
G00 X30.4800 Y12.9540
G01 Z-2.0000
G01 Z0
G00 Z1.0000
G00 X30.4800 Y10.4140
G01 Z-2.0000
G01 Z0
G00 Z1.0000
G00 X27.9400 Y10.4140
G01 Z-2.0000
G01 Z0
G00 Z1.0000
G00 X25.4000 Y10.4140
G01 Z-2.0000
G01 Z0
G00 Z1.0000
G00 X21.5900 Y6.2230
G01 Z-2.0000
G01 Z0
G00 Z1.0000
G00 X21.5900 Y3.5560
G01 Z-2.0000
G01 Z0
G00 Z1.0000
G00 X19.0500 Y3.5560
G01 Z-2.0000
G01 Z0
G00 Z1.0000
G00 X16.5100 Y3.5560
G01 Z-2.0000
G01 Z0
G00 Z1.0000
G00 X13.9700 Y3.5560
G01 Z-2.0000
G01 Z0
G00 Z1.0000
G00 X11.4300 Y3.5560
G01 Z-2.0000
G01 Z0
G00 Z1.0000
G00 X8.8900 Y3.5560
G01 Z-2.0000
G01 Z0
G00 Z1.0000
G00 X6.3500 Y3.5560
G01 Z-2.0000
G01 Z0
G00 Z1.0000
G00 X3.8100 Y3.5560
G01 Z-2.0000
G01 Z0
G00 Z1.0000
G00 X3.8100 Y6.2230
G01 Z-2.0000
G01 Z0
G00 Z1.0000
G00 X6.3500 Y6.2230
G01 Z-2.0000
G01 Z0
G00 Z1.0000
G00 X8.8900 Y6.2230
G01 Z-2.0000
G01 Z0
G00 Z1.0000
G00 X7.4930 Y10.4140
G01 Z-2.0000
G01 Z0
G00 Z1.0000
G00 X7.4930 Y12.9540
G01 Z-2.0000
G01 Z0
G00 Z1.0000
G00 X3.0480 Y19.8120
G01 Z-2.0000
G01 Z0
G00 Z1.0000
G00 X5.5880 Y19.8120
G01 Z-2.0000
G01 Z0
G00 Z1.0000
G00 X8.1280 Y19.8120
G01 Z-2.0000
G01 Z0
G00 Z1.0000
G00 X10.6680 Y19.8120
G01 Z-2.0000
G01 Z0
G00 Z1.0000
G00 X13.2080 Y19.8120
G01 Z-2.0000
G01 Z0
G00 Z1.0000
G00 X15.7480 Y19.8120
G01 Z-2.0000
G01 Z0
G00 Z1.0000
G00 X18.2880 Y19.8120
G01 Z-2.0000
G01 Z0
G00 Z1.0000
G00 X12.5730 Y12.9540
G01 Z-2.0000
G01 Z0
G00 Z1.0000
G00 X10.0330 Y12.9540
G01 Z-2.0000
G01 Z0
G00 Z1.0000
G00 X10.0330 Y10.4140
G01 Z-2.0000
G01 Z0
G00 Z1.0000
G00 X12.5730 Y10.4140
G01 Z-2.0000
G01 Z0
G00 Z1.0000
G00 X11.4300 Y6.2230
G01 Z-2.0000
G01 Z0
G00 Z1.0000
G00 X13.9700 Y6.2230
G01 Z-2.0000
G01 Z0
G00 Z1.0000
G00 X16.5100 Y6.2230
G01 Z-2.0000
G01 Z0
G00 Z1.0000
G00 X19.0500 Y6.2230
G01 Z-2.0000
G01 Z0
G00 Z1.0000
M05
G00 Z2.00

G01 X0Y0 F300