(G-CODE GENERATED BY FLATCAM v8.993 - www.flatcam.org - Version Date: 2020/06/05)

(Name: MainBoardSplit-Edge_Cuts.gbr_cutout_1_cnc)
(Type: G-code from Geometry)
(Units: MM)

(Created on Sunday, 01 November 2020 at 06:19)

(This preprocessor is the default preprocessor used by FlatCAM.)
(It is made to work with MACH3 compatible motion controllers.)

(TOOL DIAMETER: 0.199 mm)
(Feedrate_XY: 30.0 mm/min)
(Feedrate_Z: 30.0 mm/min)
(Feedrate rapids 1500.0 mm/min)

(Z_Cut: -1.9 mm)
(Z_Move: 1.0 mm)
(Z Start: None mm)
(Z End: 15.0 mm)
(Steps per circle: 64)
(Preprocessor Geometry: default)

(X range:   -0.1745 ...   32.4325  mm)
(Y range:   -0.1745 ...   23.0345  mm)

(Spindle Speed: 2000 RPM)
G21
G90
G94



G01 F30.00
G00 Z1.0000

M03 S2000
G00 X-0.1744 Y-0.0049
G01 F30.00
G01 Z-1.9000
G01 F30.00
G01 X-0.1745 Y22.8600
G01 X-0.1741 Y22.8722
G01 X-0.1731 Y22.8820
G01 X-0.1701 Y22.8988
G01 X-0.1683 Y22.9060
G01 X-0.1630 Y22.9222
G01 X-0.1593 Y22.9313
G01 X-0.1561 Y22.9379
G01 X-0.1477 Y22.9528
G01 X-0.1379 Y22.9669
G01 X-0.1317 Y22.9744
G01 X-0.1199 Y22.9868
G01 X-0.1144 Y22.9917
G01 X-0.1069 Y22.9979
G01 X-0.0928 Y23.0077
G01 X-0.0779 Y23.0161
G01 X-0.0713 Y23.0193
G01 X-0.0553 Y23.0255
G01 X-0.0388 Y23.0301
G01 X-0.0220 Y23.0331
G01 X-0.0122 Y23.0341
G01 X0.0000 Y23.0345
G01 X23.3680 Y23.0345
G01 X23.3802 Y23.0341
G01 X23.3900 Y23.0331
G01 X23.4068 Y23.0301
G01 X23.4233 Y23.0255
G01 X23.4393 Y23.0193
G01 X23.4459 Y23.0161
G01 X23.4608 Y23.0077
G01 X23.4749 Y22.9979
G01 X23.4879 Y22.9868
G01 X23.4948 Y22.9799
G01 X23.5059 Y22.9669
G01 X23.5157 Y22.9528
G01 X23.5241 Y22.9379
G01 X23.5273 Y22.9313
G01 X23.5335 Y22.9153
G01 X23.5381 Y22.8988
G01 X23.5400 Y22.8892
G01 X23.5421 Y22.8722
G01 X23.5425 Y22.8600
G01 X23.5425 Y15.1605
G01 X32.2580 Y15.1605
G01 X32.2702 Y15.1601
G01 X32.2800 Y15.1591
G01 X32.2968 Y15.1561
G01 X32.3040 Y15.1543
G01 X32.3202 Y15.1490
G01 X32.3293 Y15.1453
G01 X32.3359 Y15.1421
G01 X32.3508 Y15.1337
G01 X32.3649 Y15.1239
G01 X32.3724 Y15.1177
G01 X32.3848 Y15.1059
G01 X32.3897 Y15.1004
G01 X32.3959 Y15.0929
G01 X32.4057 Y15.0788
G01 X32.4141 Y15.0639
G01 X32.4173 Y15.0573
G01 X32.4235 Y15.0413
G01 X32.4281 Y15.0248
G01 X32.4311 Y15.0080
G01 X32.4321 Y14.9982
G01 X32.4325 Y14.9860
G01 X32.4325 Y8.1280
G01 X32.4321 Y8.1158
G01 X32.4300 Y8.0988
G01 X32.4263 Y8.0820
G01 X32.4210 Y8.0658
G01 X32.4173 Y8.0567
G01 X32.4095 Y8.0415
G01 X32.4003 Y8.0270
G01 X32.3897 Y8.0136
G01 X32.3779 Y8.0012
G01 X32.3649 Y7.9901
G01 X32.3508 Y7.9803
G01 X32.3445 Y7.9765
G01 X32.3293 Y7.9687
G01 X32.3133 Y7.9625
G01 X32.2968 Y7.9579
G01 X32.2800 Y7.9549
G01 X32.2702 Y7.9539
G01 X32.2580 Y7.9535
G01 X27.5043 Y7.9535
G01 X26.7934 Y7.2426
G01 X26.7844 Y7.2343
G01 X26.7769 Y7.2281
G01 X26.7628 Y7.2183
G01 X26.7479 Y7.2099
G01 X26.7322 Y7.2030
G01 X26.7160 Y7.1977
G01 X26.6992 Y7.1940
G01 X26.6822 Y7.1919
G01 X26.6700 Y7.1915
G01 X25.5745 Y7.1915
G01 X25.5745 Y0.0000
G01 X25.5741 Y-0.0122
G01 X25.5731 Y-0.0220
G01 X25.5701 Y-0.0388
G01 X25.5683 Y-0.0460
G01 X25.5630 Y-0.0622
G01 X25.5593 Y-0.0713
G01 X25.5561 Y-0.0779
G01 X25.5477 Y-0.0928
G01 X25.5379 Y-0.1069
G01 X25.5317 Y-0.1144
G01 X25.5199 Y-0.1268
G01 X25.5144 Y-0.1317
G01 X25.5069 Y-0.1379
G01 X25.4928 Y-0.1477
G01 X25.4779 Y-0.1561
G01 X25.4713 Y-0.1593
G01 X25.4553 Y-0.1655
G01 X25.4388 Y-0.1701
G01 X25.4220 Y-0.1731
G01 X25.4122 Y-0.1741
G01 X25.4000 Y-0.1745
G01 X0.0000 Y-0.1745
G01 X-0.0122 Y-0.1741
G01 X-0.0292 Y-0.1720
G01 X-0.0460 Y-0.1683
G01 X-0.0622 Y-0.1630
G01 X-0.0779 Y-0.1561
G01 X-0.0928 Y-0.1477
G01 X-0.1069 Y-0.1379
G01 X-0.1199 Y-0.1268
G01 X-0.1317 Y-0.1144
G01 X-0.1423 Y-0.1010
G01 X-0.1515 Y-0.0865
G01 X-0.1593 Y-0.0713
G01 X-0.1655 Y-0.0553
G01 X-0.1701 Y-0.0388
G01 X-0.1731 Y-0.0220
G01 X-0.1744 Y-0.0049
G00 Z1.0000
M05
G00 Z1.0000
G00 Z15.00

G01 X0Y0 F300