(G-CODE GENERATED BY FLATCAM v8.993 - www.flatcam.org - Version Date: 2020/06/05)

(Name: MainBoardSplit-F_Cu.gbr_0.1990_iso_cnc)
(Type: G-code from Geometry)
(Units: MM)

(Created on Sunday, 01 November 2020 at 01:40)

(This preprocessor is the default preprocessor used by FlatCAM.)
(It is made to work with MACH3 compatible motion controllers.)

(TOOL DIAMETER: 0.199 mm)
(Feedrate_XY: 120.0 mm/min)
(Feedrate_Z: 60.0 mm/min)
(Feedrate rapids 1500.0 mm/min)

(Z_Cut: -0.094 mm)
(Z_Move: 1.0 mm)
(Z Start: None mm)
(Z End: 15.0 mm)
(Steps per circle: 64)
(Preprocessor Geometry: default)

(X range:    0.6984 ...   31.4295  mm)
(Y range:    0.7245 ...   22.1616  mm)

(Spindle Speed: 2000 RPM)
G21
G90
G94



G01 F120.00
G00 Z1.0000

M03 S2000
G00 X8.8949 Y2.6066
G01 F60.00
G01 Z-0.0940
G01 F120.00
G01 X8.9831 Y2.6111
G01 X9.0704 Y2.6239
G01 X9.0800 Y2.6258
G01 X9.1656 Y2.6474
G01 X9.2488 Y2.6770
G01 X9.2578 Y2.6808
G01 X9.3376 Y2.7186
G01 X9.4155 Y2.7652
G01 X9.4885 Y2.8190
G01 X9.4961 Y2.8252
G01 X9.5614 Y2.8846
G01 X9.6224 Y2.9518
G01 X9.6767 Y3.0245
G01 X9.6808 Y3.0305
G01 X9.7262 Y3.1063
G01 X9.7502 Y3.1564
G01 X10.4805 Y3.1563
G01 X10.4805 Y2.7060
G01 X10.4808 Y2.6987
G01 X10.4816 Y2.6914
G01 X10.4829 Y2.6842
G01 X10.4848 Y2.6771
G01 X10.4881 Y2.6679
G01 X10.4911 Y2.6613
G01 X10.4947 Y2.6548
G01 X10.4987 Y2.6487
G01 X10.5031 Y2.6429
G01 X10.5079 Y2.6374
G01 X10.5132 Y2.6323
G01 X10.5188 Y2.6276
G01 X10.5247 Y2.6233
G01 X10.5310 Y2.6194
G01 X10.5397 Y2.6150
G01 X10.5465 Y2.6123
G01 X10.5535 Y2.6101
G01 X10.5606 Y2.6084
G01 X10.5702 Y2.6070
G01 X10.5800 Y2.6065
G01 X12.2800 Y2.6065
G01 X12.2922 Y2.6072
G01 X12.3042 Y2.6095
G01 X12.3158 Y2.6132
G01 X12.3269 Y2.6182
G01 X12.3332 Y2.6219
G01 X12.3393 Y2.6261
G01 X12.3486 Y2.6339
G01 X12.3569 Y2.6429
G01 X12.3641 Y2.6528
G01 X12.3678 Y2.6591
G01 X12.3710 Y2.6657
G01 X12.3752 Y2.6771
G01 X12.3771 Y2.6842
G01 X12.3784 Y2.6914
G01 X12.3795 Y2.7036
G01 X12.3795 Y4.4060
G01 X12.3788 Y4.4182
G01 X12.3765 Y4.4302
G01 X12.3728 Y4.4418
G01 X12.3678 Y4.4529
G01 X12.3641 Y4.4592
G01 X12.3599 Y4.4653
G01 X12.3521 Y4.4746
G01 X12.3431 Y4.4829
G01 X12.3332 Y4.4901
G01 X12.3225 Y4.4959
G01 X12.3158 Y4.4988
G01 X12.3089 Y4.5012
G01 X12.2970 Y4.5040
G01 X12.2898 Y4.5050
G01 X12.2824 Y4.5055
G01 X10.5800 Y4.5055
G01 X10.5678 Y4.5048
G01 X10.5558 Y4.5025
G01 X10.5488 Y4.5005
G01 X10.5419 Y4.4979
G01 X10.5353 Y4.4949
G01 X10.5288 Y4.4913
G01 X10.5227 Y4.4873
G01 X10.5169 Y4.4829
G01 X10.5114 Y4.4781
G01 X10.5063 Y4.4728
G01 X10.5016 Y4.4672
G01 X10.4973 Y4.4613
G01 X10.4934 Y4.4550
G01 X10.4901 Y4.4485
G01 X10.4872 Y4.4418
G01 X10.4848 Y4.4349
G01 X10.4829 Y4.4278
G01 X10.4816 Y4.4206
G01 X10.4808 Y4.4133
G01 X10.4805 Y4.4060
G01 X10.4805 Y3.9556
G01 X9.7502 Y3.9557
G01 X9.7262 Y4.0057
G01 X9.6808 Y4.0815
G01 X9.6767 Y4.0875
G01 X9.6255 Y4.1564
G01 X9.6208 Y4.1621
G01 X9.5614 Y4.2274
G01 X9.4961 Y4.2868
G01 X9.4904 Y4.2915
G01 X9.4175 Y4.3455
G01 X9.3418 Y4.3910
G01 X9.3332 Y4.3956
G01 X9.2534 Y4.4332
G01 X9.1703 Y4.4631
G01 X9.1609 Y4.4659
G01 X9.0776 Y4.4867
G01 X9.0704 Y4.4881
G01 X8.9831 Y4.5009
G01 X8.8949 Y4.5054
G01 X8.8851 Y4.5054
G01 X8.8018 Y4.5013
G01 X8.7921 Y4.5003
G01 X8.7048 Y4.4873
G01 X8.6144 Y4.4646
G01 X8.5266 Y4.4332
G01 X8.4424 Y4.3934
G01 X8.3625 Y4.3455
G01 X8.2876 Y4.2900
G01 X8.2186 Y4.2274
G01 X8.1592 Y4.1621
G01 X8.1530 Y4.1545
G01 X8.1033 Y4.0875
G01 X8.0979 Y4.0794
G01 X8.0526 Y4.0036
G01 X8.0128 Y3.9194
G01 X7.9814 Y3.8316
G01 X7.9598 Y3.7460
G01 X7.9579 Y3.7364
G01 X7.9457 Y3.6539
G01 X7.9447 Y3.6442
G01 X7.9405 Y3.5560
G01 X7.9451 Y3.4629
G01 X7.9587 Y3.3708
G01 X7.9801 Y3.2851
G01 X7.9829 Y3.2757
G01 X8.0128 Y3.1926
G01 X8.0504 Y3.1128
G01 X8.0550 Y3.1042
G01 X8.0979 Y3.0326
G01 X8.1033 Y3.0245
G01 X8.1560 Y2.9536
G01 X8.2186 Y2.8846
G01 X8.2876 Y2.8220
G01 X8.3585 Y2.7693
G01 X8.3666 Y2.7639
G01 X8.4382 Y2.7210
G01 X8.4468 Y2.7164
G01 X8.5266 Y2.6788
G01 X8.6144 Y2.6474
G01 X8.7048 Y2.6247
G01 X8.7921 Y2.6117
G01 X8.8018 Y2.6107
G01 X8.8851 Y2.6066
G01 X8.8949 Y2.6066
G00 Z1.0000
G00 X9.3147 Y7.0714
G01 F60.00
G01 Z-0.0940
G01 F120.00
G01 X9.2534 Y7.1002
G01 X9.1703 Y7.1301
G01 X9.1633 Y7.1323
G01 X9.0752 Y7.1543
G01 X8.9879 Y7.1673
G01 X8.9806 Y7.1681
G01 X8.8900 Y7.1725
G01 X8.7969 Y7.1679
G01 X8.7048 Y7.1543
G01 X8.6191 Y7.1329
G01 X8.6120 Y7.1309
G01 X8.5266 Y7.1002
G01 X8.4424 Y7.0604
G01 X8.3625 Y7.0125
G01 X8.2876 Y6.9570
G01 X8.2186 Y6.8944
G01 X8.1560 Y6.8254
G01 X8.1005 Y6.7505
G01 X8.0550 Y6.6748
G01 X8.0515 Y6.6684
G01 X8.0128 Y6.5864
G01 X7.9814 Y6.4986
G01 X7.9587 Y6.4082
G01 X7.9451 Y6.3161
G01 X7.9405 Y6.2230
G01 X7.9451 Y6.1299
G01 X7.9587 Y6.0378
G01 X7.9814 Y5.9474
G01 X8.0128 Y5.8596
G01 X8.0526 Y5.7754
G01 X8.1005 Y5.6955
G01 X8.1560 Y5.6206
G01 X8.2186 Y5.5516
G01 X8.2876 Y5.4890
G01 X8.3625 Y5.4335
G01 X8.4382 Y5.3880
G01 X8.4446 Y5.3845
G01 X8.5266 Y5.3458
G01 X8.6097 Y5.3159
G01 X8.6191 Y5.3131
G01 X8.7048 Y5.2917
G01 X8.7921 Y5.2787
G01 X8.8018 Y5.2777
G01 X8.8900 Y5.2735
G01 X8.9831 Y5.2781
G01 X9.0752 Y5.2917
G01 X9.1609 Y5.3131
G01 X9.1703 Y5.3159
G01 X9.2534 Y5.3458
G01 X9.3332 Y5.3834
G01 X9.3418 Y5.3880
G01 X9.4175 Y5.4335
G01 X9.4904 Y5.4875
G01 X9.4961 Y5.4922
G01 X9.5614 Y5.5516
G01 X9.6208 Y5.6169
G01 X9.6270 Y5.6245
G01 X9.6767 Y5.6915
G01 X9.6821 Y5.6996
G01 X9.7274 Y5.7754
G01 X9.7672 Y5.8596
G01 X9.7986 Y5.9474
G01 X9.8207 Y6.0354
G01 X9.8343 Y6.1251
G01 X9.8353 Y6.1348
G01 X9.8395 Y6.2230
G01 X9.8353 Y6.3112
G01 X9.8347 Y6.3185
G01 X9.8213 Y6.4082
G01 X9.7986 Y6.4986
G01 X9.7672 Y6.5864
G01 X9.7384 Y6.6477
G01 X10.8811 Y7.7904
G01 X12.1304 Y7.7904
G01 X12.1573 Y7.7918
G01 X12.1816 Y7.7953
G01 X12.1912 Y7.7972
G01 X12.2149 Y7.8033
G01 X12.2380 Y7.8114
G01 X12.2471 Y7.8152
G01 X12.2692 Y7.8258
G01 X12.2903 Y7.8383
G01 X12.2984 Y7.8437
G01 X12.3180 Y7.8584
G01 X12.3398 Y7.8781
G01 X13.4849 Y9.0232
G01 X13.5046 Y9.0450
G01 X13.5221 Y9.0686
G01 X13.5372 Y9.0938
G01 X13.5471 Y9.1144
G01 X14.0366 Y9.6039
G01 X14.0546 Y9.6239
G01 X14.0707 Y9.6455
G01 X14.0848 Y9.6685
G01 X14.0894 Y9.6771
G01 X14.0998 Y9.6993
G01 X14.1097 Y9.7270
G01 X14.1168 Y9.7555
G01 X14.1209 Y9.7822
G01 X14.1226 Y9.8140
G01 X14.1226 Y11.0140
G01 X14.1215 Y11.0385
G01 X14.1206 Y11.0482
G01 X14.1173 Y11.0700
G01 X14.1158 Y11.0772
G01 X14.1097 Y11.1010
G01 X14.0988 Y11.1309
G01 X14.0872 Y11.1552
G01 X14.0721 Y11.1804
G01 X14.0546 Y11.2041
G01 X14.0366 Y11.2241
G01 X13.3431 Y11.9176
G01 X13.3249 Y11.9340
G01 X13.3192 Y11.9386
G01 X13.2995 Y11.9531
G01 X13.2785 Y11.9658
G01 X13.2699 Y11.9704
G01 X13.2477 Y11.9808
G01 X13.2200 Y11.9907
G01 X13.1962 Y11.9968
G01 X13.1866 Y11.9987
G01 X13.1624 Y12.0022
G01 X13.1330 Y12.0036
G01 X11.4071 Y12.0036
G01 X10.8814 Y12.5293
G01 X10.9102 Y12.5906
G01 X10.9401 Y12.6737
G01 X10.9429 Y12.6831
G01 X10.9643 Y12.7688
G01 X10.9773 Y12.8561
G01 X10.9783 Y12.8658
G01 X10.9825 Y12.9540
G01 X10.9781 Y13.0446
G01 X10.9773 Y13.0519
G01 X10.9643 Y13.1392
G01 X10.9429 Y13.2249
G01 X10.9401 Y13.2343
G01 X10.9102 Y13.3174
G01 X10.8726 Y13.3972
G01 X10.8680 Y13.4058
G01 X10.8225 Y13.4815
G01 X10.7670 Y13.5564
G01 X10.7044 Y13.6254
G01 X10.6354 Y13.6880
G01 X10.5645 Y13.7407
G01 X10.5564 Y13.7461
G01 X10.4848 Y13.7890
G01 X10.4762 Y13.7936
G01 X10.3964 Y13.8312
G01 X10.3133 Y13.8611
G01 X10.3039 Y13.8639
G01 X10.2182 Y13.8853
G01 X10.1285 Y13.8987
G01 X10.0379 Y13.9034
G01 X10.0281 Y13.9034
G01 X9.9399 Y13.8989
G01 X9.8478 Y13.8853
G01 X9.7621 Y13.8639
G01 X9.7527 Y13.8611
G01 X9.6696 Y13.8312
G01 X9.5854 Y13.7914
G01 X9.5096 Y13.7461
G01 X9.5015 Y13.7407
G01 X9.4306 Y13.6880
G01 X9.3616 Y13.6254
G01 X9.2990 Y13.5564
G01 X9.2463 Y13.4855
G01 X9.2409 Y13.4774
G01 X9.1956 Y13.4016
G01 X9.1558 Y13.3174
G01 X9.1259 Y13.2343
G01 X9.1231 Y13.2249
G01 X9.1017 Y13.1392
G01 X9.0887 Y13.0519
G01 X9.0877 Y13.0422
G01 X9.0835 Y12.9540
G01 X9.0881 Y12.8609
G01 X9.1017 Y12.7688
G01 X9.1231 Y12.6831
G01 X9.1259 Y12.6737
G01 X9.1558 Y12.5906
G01 X9.1956 Y12.5064
G01 X9.2409 Y12.4306
G01 X9.2463 Y12.4225
G01 X9.3006 Y12.3498
G01 X9.3616 Y12.2826
G01 X9.4306 Y12.2200
G01 X9.5055 Y12.1645
G01 X9.5812 Y12.1190
G01 X9.5898 Y12.1144
G01 X9.6652 Y12.0788
G01 X9.6742 Y12.0750
G01 X9.7574 Y12.0454
G01 X9.8478 Y12.0227
G01 X9.9399 Y12.0091
G01 X10.0281 Y12.0046
G01 X10.0379 Y12.0046
G01 X10.1212 Y12.0087
G01 X10.1309 Y12.0097
G01 X10.2182 Y12.0227
G01 X10.3086 Y12.0454
G01 X10.3964 Y12.0768
G01 X10.4577 Y12.1056
G01 X11.0747 Y11.4888
G01 X11.0929 Y11.4724
G01 X11.1126 Y11.4577
G01 X11.1186 Y11.4536
G01 X11.1396 Y11.4410
G01 X11.1683 Y11.4272
G01 X11.1914 Y11.4188
G01 X11.2007 Y11.4160
G01 X11.2246 Y11.4102
G01 X11.2488 Y11.4064
G01 X11.2585 Y11.4055
G01 X11.2830 Y11.4044
G01 X13.0089 Y11.4044
G01 X13.5234 Y10.8899
G01 X13.5234 Y9.9381
G01 X13.0595 Y9.4741
G01 X13.0414 Y9.4541
G01 X13.0239 Y9.4305
G01 X13.0088 Y9.4052
G01 X12.9989 Y9.3847
G01 X12.0039 Y8.3896
G01 X10.7545 Y8.3896
G01 X10.7252 Y8.3879
G01 X10.7009 Y8.3843
G01 X10.6938 Y8.3828
G01 X10.6700 Y8.3767
G01 X10.6469 Y8.3685
G01 X10.6401 Y8.3658
G01 X10.6179 Y8.3553
G01 X10.5947 Y8.3417
G01 X10.5865 Y8.3363
G01 X10.5669 Y8.3216
G01 X10.5451 Y8.3018
G01 X9.3147 Y7.0714
G00 Z1.0000
G00 X8.4435 Y11.6991
G01 F60.00
G01 Z-0.0940
G01 F120.00
G01 X8.4448 Y11.6746
G01 X8.4492 Y11.6455
G01 X8.4563 Y11.6170
G01 X8.4644 Y11.5939
G01 X8.4682 Y11.5849
G01 X8.4777 Y11.5649
G01 X8.4812 Y11.5585
G01 X8.4939 Y11.5376
G01 X8.5130 Y11.5121
G01 X8.5312 Y11.4921
G01 X9.1846 Y10.8387
G01 X9.1558 Y10.7774
G01 X9.1259 Y10.6943
G01 X9.1231 Y10.6849
G01 X9.1017 Y10.5992
G01 X9.0887 Y10.5119
G01 X9.0877 Y10.5022
G01 X9.0835 Y10.4140
G01 X9.0881 Y10.3209
G01 X9.1017 Y10.2288
G01 X9.1231 Y10.1431
G01 X9.1259 Y10.1337
G01 X9.1558 Y10.0506
G01 X9.1934 Y9.9708
G01 X9.1980 Y9.9622
G01 X9.2435 Y9.8865
G01 X9.2960 Y9.8155
G01 X9.3022 Y9.8079
G01 X9.3616 Y9.7426
G01 X9.4269 Y9.6832
G01 X9.4345 Y9.6770
G01 X9.5055 Y9.6245
G01 X9.5812 Y9.5790
G01 X9.5898 Y9.5744
G01 X9.6696 Y9.5368
G01 X9.7574 Y9.5054
G01 X9.8430 Y9.4838
G01 X9.8526 Y9.4819
G01 X9.9399 Y9.4691
G01 X10.0281 Y9.4646
G01 X10.0379 Y9.4646
G01 X10.1236 Y9.4689
G01 X10.1309 Y9.4697
G01 X10.2182 Y9.4827
G01 X10.3086 Y9.5054
G01 X10.3964 Y9.5368
G01 X10.4806 Y9.5766
G01 X10.5605 Y9.6245
G01 X10.6354 Y9.6800
G01 X10.7044 Y9.7426
G01 X10.7670 Y9.8116
G01 X10.8225 Y9.8865
G01 X10.8704 Y9.9664
G01 X10.9102 Y10.0506
G01 X10.9416 Y10.1384
G01 X10.9643 Y10.2288
G01 X10.9779 Y10.3209
G01 X10.9825 Y10.4140
G01 X10.9783 Y10.5022
G01 X10.9777 Y10.5095
G01 X10.9643 Y10.5992
G01 X10.9429 Y10.6849
G01 X10.9401 Y10.6943
G01 X10.9102 Y10.7774
G01 X10.8726 Y10.8572
G01 X10.8680 Y10.8658
G01 X10.8251 Y10.9374
G01 X10.8197 Y10.9455
G01 X10.7670 Y11.0164
G01 X10.7044 Y11.0854
G01 X10.6354 Y11.1480
G01 X10.5605 Y11.2035
G01 X10.4848 Y11.2490
G01 X10.4762 Y11.2536
G01 X10.3964 Y11.2912
G01 X10.3133 Y11.3211
G01 X10.3039 Y11.3239
G01 X10.2182 Y11.3453
G01 X10.1309 Y11.3583
G01 X10.1236 Y11.3591
G01 X10.0330 Y11.3635
G01 X9.9448 Y11.3593
G01 X9.9351 Y11.3583
G01 X9.8478 Y11.3453
G01 X9.7621 Y11.3239
G01 X9.7527 Y11.3211
G01 X9.6696 Y11.2912
G01 X9.6083 Y11.2624
G01 X9.0426 Y11.8281
G01 X9.0426 Y13.3899
G01 X9.5771 Y13.9244
G01 X17.1229 Y13.9244
G01 X18.5739 Y12.4734
G01 X18.5739 Y10.5136
G01 X17.5534 Y9.4931
G01 X14.4005 Y9.4931
G01 X14.3711 Y9.4917
G01 X14.3420 Y9.4873
G01 X14.3135 Y9.4802
G01 X14.2881 Y9.4712
G01 X14.2593 Y9.4577
G01 X14.2341 Y9.4426
G01 X14.2104 Y9.4251
G01 X14.1886 Y9.4053
G01 X11.8547 Y7.0714
G01 X11.7934 Y7.1002
G01 X11.7056 Y7.1316
G01 X11.6152 Y7.1543
G01 X11.5279 Y7.1673
G01 X11.5182 Y7.1683
G01 X11.4349 Y7.1724
G01 X11.4251 Y7.1724
G01 X11.3369 Y7.1679
G01 X11.2472 Y7.1547
G01 X11.1591 Y7.1329
G01 X11.1497 Y7.1301
G01 X11.0666 Y7.1002
G01 X10.9824 Y7.0604
G01 X10.9066 Y7.0151
G01 X10.8985 Y7.0097
G01 X10.8276 Y6.9570
G01 X10.7586 Y6.8944
G01 X10.6960 Y6.8254
G01 X10.6433 Y6.7545
G01 X10.6379 Y6.7464
G01 X10.5926 Y6.6706
G01 X10.5548 Y6.5908
G01 X10.5510 Y6.5818
G01 X10.5214 Y6.4986
G01 X10.4998 Y6.4130
G01 X10.4979 Y6.4034
G01 X10.4857 Y6.3209
G01 X10.4847 Y6.3112
G01 X10.4805 Y6.2230
G01 X10.4847 Y6.1348
G01 X10.4857 Y6.1251
G01 X10.4987 Y6.0378
G01 X10.5201 Y5.9521
G01 X10.5229 Y5.9427
G01 X10.5528 Y5.8596
G01 X10.5904 Y5.7798
G01 X10.5950 Y5.7712
G01 X10.6405 Y5.6955
G01 X10.6960 Y5.6206
G01 X10.7552 Y5.5551
G01 X10.7621 Y5.5482
G01 X10.8276 Y5.4890
G01 X10.8985 Y5.4363
G01 X10.9066 Y5.4309
G01 X10.9824 Y5.3856
G01 X11.0666 Y5.3458
G01 X11.1497 Y5.3159
G01 X11.1591 Y5.3131
G01 X11.2448 Y5.2917
G01 X11.3345 Y5.2783
G01 X11.3418 Y5.2777
G01 X11.4300 Y5.2735
G01 X11.5182 Y5.2777
G01 X11.5279 Y5.2787
G01 X11.6152 Y5.2917
G01 X11.7009 Y5.3131
G01 X11.7103 Y5.3159
G01 X11.7934 Y5.3458
G01 X11.8776 Y5.3856
G01 X11.9534 Y5.4309
G01 X11.9615 Y5.4363
G01 X12.0324 Y5.4890
G01 X12.0979 Y5.5482
G01 X12.1048 Y5.5551
G01 X12.1624 Y5.6188
G01 X12.2167 Y5.6915
G01 X12.2221 Y5.6996
G01 X12.2674 Y5.7754
G01 X12.3072 Y5.8596
G01 X12.3371 Y5.9427
G01 X12.3399 Y5.9521
G01 X12.3613 Y6.0378
G01 X12.3747 Y6.1275
G01 X12.3794 Y6.2181
G01 X12.3794 Y6.2279
G01 X12.3749 Y6.3161
G01 X12.3617 Y6.4058
G01 X12.3399 Y6.4939
G01 X12.3371 Y6.5033
G01 X12.3072 Y6.5864
G01 X12.2784 Y6.6477
G01 X14.5246 Y8.8939
G01 X17.6775 Y8.8939
G01 X17.7020 Y8.8950
G01 X17.7117 Y8.8959
G01 X17.7360 Y8.8997
G01 X17.7645 Y8.9068
G01 X17.7922 Y8.9167
G01 X17.8144 Y8.9271
G01 X17.8230 Y8.9317
G01 X17.8439 Y8.9444
G01 X17.8637 Y8.9589
G01 X17.8694 Y8.9635
G01 X17.8876 Y8.9799
G01 X19.0871 Y10.1794
G01 X19.1051 Y10.1994
G01 X19.1212 Y10.2210
G01 X19.1353 Y10.2440
G01 X19.1399 Y10.2526
G01 X19.1503 Y10.2748
G01 X19.1602 Y10.3025
G01 X19.1673 Y10.3310
G01 X19.1714 Y10.3577
G01 X19.1731 Y10.3895
G01 X19.1731 Y12.5975
G01 X19.1717 Y12.6269
G01 X19.1673 Y12.6560
G01 X19.1602 Y12.6845
G01 X19.1493 Y12.7144
G01 X19.1377 Y12.7387
G01 X19.1226 Y12.7639
G01 X19.1051 Y12.7876
G01 X19.0854 Y12.8094
G01 X17.4571 Y14.4376
G01 X17.4371 Y14.4556
G01 X17.4155 Y14.4717
G01 X17.3925 Y14.4858
G01 X17.3839 Y14.4904
G01 X17.3617 Y14.5008
G01 X17.3340 Y14.5107
G01 X17.3055 Y14.5178
G01 X17.2788 Y14.5219
G01 X17.2470 Y14.5236
G01 X9.4530 Y14.5236
G01 X9.4236 Y14.5222
G01 X9.3994 Y14.5187
G01 X9.3898 Y14.5168
G01 X9.3637 Y14.5100
G01 X9.3406 Y14.5017
G01 X9.3339 Y14.4988
G01 X9.3118 Y14.4882
G01 X9.2907 Y14.4757
G01 X9.2845 Y14.4717
G01 X9.2648 Y14.4571
G01 X9.2429 Y14.4376
G01 X8.5312 Y13.7259
G01 X8.5114 Y13.7041
G01 X8.4967 Y13.6844
G01 X8.4913 Y13.6763
G01 X8.4788 Y13.6552
G01 X8.4682 Y13.6331
G01 X8.4653 Y13.6264
G01 X8.4570 Y13.6033
G01 X8.4502 Y13.5772
G01 X8.4483 Y13.5676
G01 X8.4448 Y13.5434
G01 X8.4434 Y13.5140
G01 X8.4435 Y11.6991
G00 Z1.0000
G00 X7.1934 Y13.8542
G01 F60.00
G01 Z-0.0940
G01 F120.00
G01 X7.1296 Y13.8312
G01 X7.0454 Y13.7914
G01 X6.9655 Y13.7435
G01 X6.8926 Y13.6895
G01 X6.8869 Y13.6848
G01 X6.8216 Y13.6254
G01 X6.7622 Y13.5601
G01 X6.7560 Y13.5525
G01 X6.7022 Y13.4795
G01 X6.6556 Y13.4016
G01 X6.6158 Y13.3174
G01 X6.5844 Y13.2296
G01 X6.5628 Y13.1440
G01 X6.5609 Y13.1344
G01 X6.5487 Y13.0519
G01 X6.5477 Y13.0422
G01 X6.5435 Y12.9540
G01 X6.5477 Y12.8658
G01 X6.5483 Y12.8585
G01 X6.5617 Y12.7688
G01 X6.5844 Y12.6784
G01 X6.6158 Y12.5906
G01 X6.6534 Y12.5108
G01 X6.6580 Y12.5022
G01 X6.7009 Y12.4306
G01 X6.7063 Y12.4225
G01 X6.7590 Y12.3516
G01 X6.8216 Y12.2826
G01 X6.8906 Y12.2200
G01 X6.9615 Y12.1673
G01 X6.9696 Y12.1619
G01 X7.0412 Y12.1190
G01 X7.0498 Y12.1144
G01 X7.1296 Y12.0768
G01 X7.2174 Y12.0454
G01 X7.3078 Y12.0227
G01 X7.3999 Y12.0091
G01 X7.4930 Y12.0045
G01 X7.5861 Y12.0091
G01 X7.6782 Y12.0227
G01 X7.7686 Y12.0454
G01 X7.8564 Y12.0768
G01 X7.9406 Y12.1166
G01 X8.0205 Y12.1645
G01 X8.0915 Y12.2170
G01 X8.0991 Y12.2232
G01 X8.1644 Y12.2826
G01 X8.2238 Y12.3479
G01 X8.2300 Y12.3555
G01 X8.2797 Y12.4225
G01 X8.2851 Y12.4306
G01 X8.3304 Y12.5064
G01 X8.3702 Y12.5906
G01 X8.4016 Y12.6784
G01 X8.4232 Y12.7640
G01 X8.4247 Y12.7712
G01 X8.4379 Y12.8609
G01 X8.4425 Y12.9540
G01 X8.4379 Y13.0471
G01 X8.4251 Y13.1344
G01 X8.4232 Y13.1440
G01 X8.4029 Y13.2249
G01 X8.4001 Y13.2343
G01 X8.3702 Y13.3174
G01 X8.3326 Y13.3972
G01 X8.3280 Y13.4058
G01 X8.2825 Y13.4815
G01 X8.2270 Y13.5564
G01 X8.1644 Y13.6254
G01 X8.0954 Y13.6880
G01 X8.0205 Y13.7435
G01 X7.9406 Y13.7914
G01 X7.8564 Y13.8312
G01 X7.7926 Y13.8542
G01 X7.7926 Y14.4979
G01 X7.8192 Y14.5244
G01 X17.3714 Y14.5244
G01 X19.1739 Y12.7219
G01 X19.1739 Y10.2651
G01 X17.8019 Y8.8931
G01 X15.1360 Y8.8931
G01 X15.1090 Y8.8916
G01 X15.0800 Y8.8873
G01 X15.0514 Y8.8802
G01 X15.0260 Y8.8712
G01 X14.9972 Y8.8577
G01 X14.9761 Y8.8452
G01 X14.9699 Y8.8412
G01 X14.9522 Y8.8281
G01 X14.9446 Y8.8219
G01 X14.9266 Y8.8053
G01 X13.7582 Y7.6369
G01 X13.7384 Y7.6151
G01 X13.7237 Y7.5955
G01 X13.7183 Y7.5874
G01 X13.7058 Y7.5663
G01 X13.6932 Y7.5397
G01 X13.6848 Y7.5167
G01 X13.6820 Y7.5073
G01 X13.6762 Y7.4835
G01 X13.6724 Y7.4593
G01 X13.6715 Y7.4496
G01 X13.6704 Y7.4251
G01 X13.6704 Y7.1232
G01 X13.6066 Y7.1002
G01 X13.5268 Y7.0626
G01 X13.5182 Y7.0580
G01 X13.4466 Y7.0151
G01 X13.4385 Y7.0097
G01 X13.3676 Y6.9570
G01 X13.2986 Y6.8944
G01 X13.2360 Y6.8254
G01 X13.1833 Y6.7545
G01 X13.1779 Y6.7464
G01 X13.1350 Y6.6748
G01 X13.1304 Y6.6662
G01 X13.0928 Y6.5864
G01 X13.0629 Y6.5033
G01 X13.0601 Y6.4939
G01 X13.0387 Y6.4082
G01 X13.0251 Y6.3161
G01 X13.0205 Y6.2230
G01 X13.0251 Y6.1299
G01 X13.0387 Y6.0378
G01 X13.0614 Y5.9474
G01 X13.0928 Y5.8596
G01 X13.1326 Y5.7754
G01 X13.1805 Y5.6955
G01 X13.2360 Y5.6206
G01 X13.2986 Y5.5516
G01 X13.3676 Y5.4890
G01 X13.4425 Y5.4335
G01 X13.5224 Y5.3856
G01 X13.6066 Y5.3458
G01 X13.6944 Y5.3144
G01 X13.7848 Y5.2917
G01 X13.8769 Y5.2781
G01 X13.9700 Y5.2735
G01 X14.0582 Y5.2777
G01 X14.0679 Y5.2787
G01 X14.1504 Y5.2909
G01 X14.1600 Y5.2928
G01 X14.2456 Y5.3144
G01 X14.3334 Y5.3458
G01 X14.4176 Y5.3856
G01 X14.4934 Y5.4309
G01 X14.5015 Y5.4363
G01 X14.5685 Y5.4860
G01 X14.5761 Y5.4922
G01 X14.6414 Y5.5516
G01 X14.7040 Y5.6206
G01 X14.7595 Y5.6955
G01 X14.8074 Y5.7754
G01 X14.8472 Y5.8596
G01 X14.8786 Y5.9474
G01 X14.9013 Y6.0378
G01 X14.9149 Y6.1299
G01 X14.9195 Y6.2230
G01 X14.9149 Y6.3161
G01 X14.9013 Y6.4082
G01 X14.8799 Y6.4939
G01 X14.8771 Y6.5033
G01 X14.8472 Y6.5864
G01 X14.8096 Y6.6662
G01 X14.8050 Y6.6748
G01 X14.7621 Y6.7464
G01 X14.7567 Y6.7545
G01 X14.7040 Y6.8254
G01 X14.6414 Y6.8944
G01 X14.5724 Y6.9570
G01 X14.5015 Y7.0097
G01 X14.4934 Y7.0151
G01 X14.4218 Y7.0580
G01 X14.4132 Y7.0626
G01 X14.3334 Y7.1002
G01 X14.2696 Y7.1232
G01 X14.2696 Y7.3010
G01 X15.2625 Y8.2939
G01 X17.9260 Y8.2939
G01 X17.9554 Y8.2953
G01 X17.9845 Y8.2996
G01 X18.0130 Y8.3068
G01 X18.0384 Y8.3158
G01 X18.0673 Y8.3293
G01 X18.0925 Y8.3444
G01 X18.1161 Y8.3619
G01 X18.1379 Y8.3816
G01 X19.6854 Y9.9292
G01 X19.7019 Y9.9472
G01 X19.7081 Y9.9548
G01 X19.7226 Y9.9745
G01 X19.7353 Y9.9955
G01 X19.7399 Y10.0041
G01 X19.7503 Y10.0263
G01 X19.7602 Y10.0540
G01 X19.7663 Y10.0778
G01 X19.7682 Y10.0873
G01 X19.7717 Y10.1115
G01 X19.7731 Y10.1410
G01 X19.7731 Y12.8462
G01 X19.7717 Y12.8753
G01 X19.7674 Y12.9044
G01 X19.7602 Y12.9329
G01 X19.7494 Y12.9629
G01 X19.7377 Y12.9873
G01 X19.7226 Y13.0125
G01 X19.7051 Y13.0361
G01 X19.6855 Y13.0577
G01 X17.7074 Y15.0359
G01 X17.6856 Y15.0556
G01 X17.6660 Y15.0703
G01 X17.6579 Y15.0757
G01 X17.6368 Y15.0882
G01 X17.6147 Y15.0988
G01 X17.6056 Y15.1026
G01 X17.5825 Y15.1107
G01 X17.5540 Y15.1179
G01 X17.5297 Y15.1216
G01 X17.5200 Y15.1225
G01 X17.4955 Y15.1236
G01 X7.6951 Y15.1236
G01 X7.6633 Y15.1219
G01 X7.6366 Y15.1179
G01 X7.6128 Y15.1120
G01 X7.6034 Y15.1092
G01 X7.5804 Y15.1008
G01 X7.5538 Y15.0882
G01 X7.5327 Y15.0757
G01 X7.5246 Y15.0703
G01 X7.5031 Y15.0540
G01 X7.4832 Y15.0359
G01 X7.2812 Y14.8338
G01 X7.2646 Y14.8157
G01 X7.2584 Y14.8082
G01 X7.2453 Y14.7904
G01 X7.2413 Y14.7843
G01 X7.2277 Y14.7610
G01 X7.2172 Y14.7389
G01 X7.2144 Y14.7321
G01 X7.2063 Y14.7089
G01 X7.1992 Y14.6804
G01 X7.1948 Y14.6513
G01 X7.1934 Y14.6244
G01 X7.1934 Y13.8542
G00 Z1.0000
G00 X11.6235 Y13.8040
G01 F60.00
G01 Z-0.0940
G01 F120.00
G01 X11.6235 Y12.1016
G01 X11.6242 Y12.0918
G01 X11.6259 Y12.0822
G01 X11.6285 Y12.0728
G01 X11.6320 Y12.0637
G01 X11.6364 Y12.0550
G01 X11.6417 Y12.0467
G01 X11.6477 Y12.0390
G01 X11.6544 Y12.0319
G01 X11.6618 Y12.0256
G01 X11.6698 Y12.0199
G01 X11.6761 Y12.0162
G01 X11.6849 Y12.0121
G01 X11.6941 Y12.0088
G01 X11.7036 Y12.0064
G01 X11.7108 Y12.0052
G01 X11.7206 Y12.0045
G01 X13.4230 Y12.0045
G01 X13.4328 Y12.0050
G01 X13.4424 Y12.0064
G01 X13.4542 Y12.0095
G01 X13.4633 Y12.0130
G01 X13.4720 Y12.0174
G01 X13.4803 Y12.0227
G01 X13.4880 Y12.0287
G01 X13.4951 Y12.0354
G01 X13.5014 Y12.0428
G01 X13.5071 Y12.0508
G01 X13.5108 Y12.0571
G01 X13.5149 Y12.0659
G01 X13.5182 Y12.0751
G01 X13.5206 Y12.0846
G01 X13.5218 Y12.0918
G01 X13.5225 Y12.1016
G01 X13.5225 Y13.8040
G01 X13.5220 Y13.8138
G01 X13.5201 Y13.8258
G01 X13.5175 Y13.8352
G01 X13.5140 Y13.8443
G01 X13.5096 Y13.8530
G01 X13.5043 Y13.8613
G01 X13.4983 Y13.8690
G01 X13.4916 Y13.8761
G01 X13.4842 Y13.8824
G01 X13.4783 Y13.8867
G01 X13.4699 Y13.8918
G01 X13.4611 Y13.8959
G01 X13.4519 Y13.8992
G01 X13.4424 Y13.9016
G01 X13.4352 Y13.9028
G01 X13.4254 Y13.9035
G01 X11.7181 Y13.9034
G01 X11.7084 Y13.9024
G01 X11.6988 Y13.9005
G01 X11.6895 Y13.8977
G01 X11.6805 Y13.8939
G01 X11.6740 Y13.8906
G01 X11.6657 Y13.8853
G01 X11.6580 Y13.8793
G01 X11.6509 Y13.8726
G01 X11.6446 Y13.8652
G01 X11.6389 Y13.8572
G01 X11.6352 Y13.8509
G01 X11.6311 Y13.8421
G01 X11.6278 Y13.8329
G01 X11.6254 Y13.8234
G01 X11.6240 Y13.8138
G01 X11.6235 Y13.8040
G00 Z1.0000
G00 X10.3684 Y18.9118
G01 F60.00
G01 Z-0.0940
G01 F120.00
G01 X10.3684 Y15.4940
G01 X10.3695 Y15.4695
G01 X10.3704 Y15.4598
G01 X10.3742 Y15.4356
G01 X10.3800 Y15.4117
G01 X10.3828 Y15.4024
G01 X10.3912 Y15.3793
G01 X10.4016 Y15.3571
G01 X10.4062 Y15.3485
G01 X10.4203 Y15.3255
G01 X10.4364 Y15.3039
G01 X10.4544 Y15.2839
G01 X10.5263 Y15.2120
G01 X10.5480 Y15.1924
G01 X10.5736 Y15.1735
G01 X10.5969 Y15.1597
G01 X10.6189 Y15.1492
G01 X10.6279 Y15.1455
G01 X10.6510 Y15.1373
G01 X10.6794 Y15.1302
G01 X10.7038 Y15.1265
G01 X10.7135 Y15.1255
G01 X10.7380 Y15.1244
G01 X17.6200 Y15.1244
G01 X19.7739 Y12.9705
G01 X19.7739 Y10.0165
G01 X18.0230 Y8.2656
G01 X16.3981 Y8.2655
G01 X16.3736 Y8.2642
G01 X16.3446 Y8.2599
G01 X16.3160 Y8.2527
G01 X16.2906 Y8.2437
G01 X16.2618 Y8.2302
G01 X16.2407 Y8.2177
G01 X16.2345 Y8.2137
G01 X16.2168 Y8.2006
G01 X16.2092 Y8.1944
G01 X16.1912 Y8.1779
G01 X15.0082 Y6.9949
G01 X14.9916 Y6.9768
G01 X14.9854 Y6.9692
G01 X14.9709 Y6.9495
G01 X14.9558 Y6.9242
G01 X14.9432 Y6.8977
G01 X14.9348 Y6.8746
G01 X14.9320 Y6.8653
G01 X14.9262 Y6.8415
G01 X14.9224 Y6.8172
G01 X14.9216 Y6.8099
G01 X14.9204 Y6.7854
G01 X14.9204 Y5.7471
G01 X13.7564 Y4.5831
G01 X13.7400 Y4.5649
G01 X13.7354 Y4.5592
G01 X13.7209 Y4.5394
G01 X13.7082 Y4.5185
G01 X13.7036 Y4.5099
G01 X13.6932 Y4.4876
G01 X13.6836 Y4.4609
G01 X13.6066 Y4.4332
G01 X13.5224 Y4.3934
G01 X13.4425 Y4.3455
G01 X13.3676 Y4.2900
G01 X13.2986 Y4.2274
G01 X13.2360 Y4.1584
G01 X13.1805 Y4.0835
G01 X13.1326 Y4.0036
G01 X13.0928 Y3.9194
G01 X13.0629 Y3.8363
G01 X13.0601 Y3.8269
G01 X13.0387 Y3.7412
G01 X13.0257 Y3.6539
G01 X13.0247 Y3.6442
G01 X13.0205 Y3.5560
G01 X13.0251 Y3.4629
G01 X13.0387 Y3.3708
G01 X13.0601 Y3.2851
G01 X13.0629 Y3.2757
G01 X13.0928 Y3.1926
G01 X13.1304 Y3.1128
G01 X13.1350 Y3.1042
G01 X13.1805 Y3.0285
G01 X13.2330 Y2.9575
G01 X13.2392 Y2.9499
G01 X13.2952 Y2.8881
G01 X13.3021 Y2.8812
G01 X13.3676 Y2.8220
G01 X13.4385 Y2.7693
G01 X13.4466 Y2.7639
G01 X13.5224 Y2.7186
G01 X13.6022 Y2.6808
G01 X13.6112 Y2.6770
G01 X13.6944 Y2.6474
G01 X13.7800 Y2.6258
G01 X13.7896 Y2.6239
G01 X13.8769 Y2.6111
G01 X13.9700 Y2.6065
G01 X14.0582 Y2.6107
G01 X14.0679 Y2.6117
G01 X14.1576 Y2.6253
G01 X14.2409 Y2.6461
G01 X14.2503 Y2.6489
G01 X14.3334 Y2.6788
G01 X14.4132 Y2.7164
G01 X14.4218 Y2.7210
G01 X14.4975 Y2.7665
G01 X14.5685 Y2.8190
G01 X14.5761 Y2.8252
G01 X14.6414 Y2.8846
G01 X14.7008 Y2.9499
G01 X14.7070 Y2.9575
G01 X14.7595 Y3.0285
G01 X14.8050 Y3.1042
G01 X14.8096 Y3.1128
G01 X14.8472 Y3.1926
G01 X14.8779 Y3.2780
G01 X14.8799 Y3.2851
G01 X14.9013 Y3.3708
G01 X14.9143 Y3.4581
G01 X14.9153 Y3.4678
G01 X14.9194 Y3.5511
G01 X14.9194 Y3.5609
G01 X14.9149 Y3.6491
G01 X14.9013 Y3.7412
G01 X14.8786 Y3.8316
G01 X14.8472 Y3.9194
G01 X14.8074 Y4.0036
G01 X14.7595 Y4.0835
G01 X14.7040 Y4.1584
G01 X14.6448 Y4.2239
G01 X14.6379 Y4.2308
G01 X14.5761 Y4.2868
G01 X14.5685 Y4.2930
G01 X14.4975 Y4.3455
G01 X14.4218 Y4.3910
G01 X14.4153 Y4.3946
G01 X15.4319 Y5.4111
G01 X15.4516 Y5.4329
G01 X15.4663 Y5.4526
G01 X15.4717 Y5.4607
G01 X15.4830 Y5.4796
G01 X15.4864 Y5.4861
G01 X15.4958 Y5.5061
G01 X15.4986 Y5.5129
G01 X15.5067 Y5.5360
G01 X15.5128 Y5.5598
G01 X15.5143 Y5.5670
G01 X15.5179 Y5.5912
G01 X15.5196 Y5.6206
G01 X15.5196 Y6.6589
G01 X16.5271 Y7.6664
G01 X18.1495 Y7.6664
G01 X18.1765 Y7.6679
G01 X18.2007 Y7.6713
G01 X18.2103 Y7.6732
G01 X18.2341 Y7.6793
G01 X18.2572 Y7.6875
G01 X18.2662 Y7.6912
G01 X18.2883 Y7.7018
G01 X18.3115 Y7.7156
G01 X18.3372 Y7.7344
G01 X18.3589 Y7.7542
G01 X20.2854 Y9.6806
G01 X20.3019 Y9.6987
G01 X20.3081 Y9.7062
G01 X20.3227 Y9.7260
G01 X20.3353 Y9.7470
G01 X20.3399 Y9.7556
G01 X20.3503 Y9.7778
G01 X20.3587 Y9.8008
G01 X20.3615 Y9.8102
G01 X20.3674 Y9.8340
G01 X20.3711 Y9.8582
G01 X20.3720 Y9.8679
G01 X20.3731 Y9.8924
G01 X20.3731 Y13.0946
G01 X20.3717 Y13.1239
G01 X20.3669 Y13.1553
G01 X20.3602 Y13.1815
G01 X20.3521 Y13.2047
G01 X20.3483 Y13.2137
G01 X20.3378 Y13.2358
G01 X20.3252 Y13.2569
G01 X20.3198 Y13.2650
G01 X20.3050 Y13.2847
G01 X20.2854 Y13.3064
G01 X17.9559 Y15.6359
G01 X17.9378 Y15.6524
G01 X17.9303 Y15.6586
G01 X17.9104 Y15.6732
G01 X17.8895 Y15.6858
G01 X17.8809 Y15.6904
G01 X17.8586 Y15.7008
G01 X17.8288 Y15.7114
G01 X17.8026 Y15.7179
G01 X17.7783 Y15.7216
G01 X17.7686 Y15.7225
G01 X17.7443 Y15.7236
G01 X10.9676 Y15.7236
G01 X10.9676 Y18.9118
G01 X11.0314 Y18.9348
G01 X11.1156 Y18.9746
G01 X11.1955 Y19.0225
G01 X11.2665 Y19.0750
G01 X11.2741 Y19.0812
G01 X11.3359 Y19.1372
G01 X11.3428 Y19.1441
G01 X11.4020 Y19.2096
G01 X11.4561 Y19.2825
G01 X11.5030 Y19.3602
G01 X11.5076 Y19.3688
G01 X11.5452 Y19.4486
G01 X11.5766 Y19.5364
G01 X11.5993 Y19.6268
G01 X11.6123 Y19.7141
G01 X11.6133 Y19.7238
G01 X11.6175 Y19.8120
G01 X11.6133 Y19.9002
G01 X11.6123 Y19.9099
G01 X11.5993 Y19.9972
G01 X11.5766 Y20.0876
G01 X11.5452 Y20.1754
G01 X11.5076 Y20.2552
G01 X11.5030 Y20.2638
G01 X11.4601 Y20.3354
G01 X11.4547 Y20.3435
G01 X11.4020 Y20.4144
G01 X11.3394 Y20.4834
G01 X11.2704 Y20.5460
G01 X11.1995 Y20.5987
G01 X11.1914 Y20.6041
G01 X11.1198 Y20.6470
G01 X11.1112 Y20.6516
G01 X11.0314 Y20.6892
G01 X10.9460 Y20.7199
G01 X10.9389 Y20.7219
G01 X10.8532 Y20.7433
G01 X10.7611 Y20.7569
G01 X10.6680 Y20.7615
G01 X10.5749 Y20.7569
G01 X10.4828 Y20.7433
G01 X10.3924 Y20.7206
G01 X10.3046 Y20.6892
G01 X10.2204 Y20.6494
G01 X10.1405 Y20.6015
G01 X10.0656 Y20.5460
G01 X9.9966 Y20.4834
G01 X9.9340 Y20.4144
G01 X9.8785 Y20.3395
G01 X9.8306 Y20.2596
G01 X9.7908 Y20.1754
G01 X9.7601 Y20.0900
G01 X9.7581 Y20.0829
G01 X9.7367 Y19.9972
G01 X9.7231 Y19.9051
G01 X9.7185 Y19.8120
G01 X9.7231 Y19.7189
G01 X9.7367 Y19.6268
G01 X9.7594 Y19.5364
G01 X9.7908 Y19.4486
G01 X9.8295 Y19.3666
G01 X9.8330 Y19.3602
G01 X9.8785 Y19.2845
G01 X9.9340 Y19.2096
G01 X9.9966 Y19.1406
G01 X10.0638 Y19.0796
G01 X10.0695 Y19.0750
G01 X10.1405 Y19.0225
G01 X10.2183 Y18.9758
G01 X10.2248 Y18.9724
G01 X10.3046 Y18.9348
G01 X10.3684 Y18.9118
G00 Z1.0000
G00 X8.1329 Y18.8626
G01 F60.00
G01 Z-0.0940
G01 F120.00
G01 X8.2162 Y18.8667
G01 X8.2259 Y18.8677
G01 X8.3132 Y18.8807
G01 X8.3989 Y18.9021
G01 X8.4083 Y18.9049
G01 X8.4914 Y18.9348
G01 X8.5756 Y18.9746
G01 X8.6555 Y19.0225
G01 X8.7265 Y19.0750
G01 X8.7341 Y19.0812
G01 X8.7994 Y19.1406
G01 X8.8588 Y19.2059
G01 X8.8650 Y19.2135
G01 X8.9161 Y19.2825
G01 X8.9630 Y19.3602
G01 X8.9676 Y19.3688
G01 X9.0052 Y19.4486
G01 X9.0351 Y19.5317
G01 X9.0379 Y19.5411
G01 X9.0593 Y19.6268
G01 X9.0723 Y19.7141
G01 X9.0731 Y19.7214
G01 X9.0775 Y19.8120
G01 X9.0733 Y19.9002
G01 X9.0723 Y19.9099
G01 X9.0593 Y19.9972
G01 X9.0379 Y20.0829
G01 X9.0351 Y20.0923
G01 X9.0052 Y20.1754
G01 X8.9764 Y20.2367
G01 X9.5021 Y20.7624
G01 X13.6839 Y20.7624
G01 X14.1584 Y20.2879
G01 X14.1584 Y17.8000
G01 X14.1598 Y17.7706
G01 X14.1642 Y17.7415
G01 X14.1713 Y17.7130
G01 X14.1794 Y17.6899
G01 X14.1822 Y17.6831
G01 X14.1927 Y17.6609
G01 X14.2076 Y17.6356
G01 X14.2264 Y17.6099
G01 X14.2444 Y17.5899
G01 X15.1901 Y16.6442
G01 X15.2119 Y16.6244
G01 X15.2355 Y16.6069
G01 X15.2608 Y16.5918
G01 X15.2873 Y16.5792
G01 X15.3150 Y16.5693
G01 X15.3435 Y16.5622
G01 X15.3726 Y16.5579
G01 X15.3995 Y16.5564
G01 X17.8851 Y16.5564
G01 X22.9493 Y11.4921
G01 X22.9711 Y11.4724
G01 X22.9907 Y11.4577
G01 X22.9988 Y11.4523
G01 X23.0221 Y11.4387
G01 X23.0443 Y11.4282
G01 X23.0511 Y11.4254
G01 X23.0742 Y11.4173
G01 X23.0980 Y11.4112
G01 X23.1075 Y11.4093
G01 X23.1318 Y11.4058
G01 X23.1612 Y11.4044
G01 X29.2300 Y11.4044
G01 X29.2569 Y11.4056
G01 X29.2836 Y11.4093
G01 X29.2932 Y11.4112
G01 X29.3170 Y11.4173
G01 X29.3447 Y11.4272
G01 X29.3712 Y11.4398
G01 X29.3923 Y11.4523
G01 X29.4004 Y11.4577
G01 X29.4219 Y11.4740
G01 X29.4418 Y11.4921
G01 X29.9542 Y12.0045
G01 X31.3349 Y12.0046
G01 X31.3422 Y12.0052
G01 X31.3494 Y12.0064
G01 X31.3565 Y12.0081
G01 X31.3635 Y12.0103
G01 X31.3725 Y12.0141
G01 X31.3790 Y12.0174
G01 X31.3853 Y12.0213
G01 X31.3912 Y12.0256
G01 X31.3968 Y12.0303
G01 X31.4021 Y12.0354
G01 X31.4069 Y12.0409
G01 X31.4127 Y12.0487
G01 X31.4166 Y12.0550
G01 X31.4199 Y12.0615
G01 X31.4228 Y12.0682
G01 X31.4252 Y12.0751
G01 X31.4271 Y12.0822
G01 X31.4284 Y12.0894
G01 X31.4292 Y12.0967
G01 X31.4295 Y12.1040
G01 X31.4295 Y13.8064
G01 X31.4288 Y13.8162
G01 X31.4276 Y13.8234
G01 X31.4252 Y13.8329
G01 X31.4219 Y13.8421
G01 X31.4178 Y13.8509
G01 X31.4127 Y13.8593
G01 X31.4069 Y13.8671
G01 X31.4004 Y13.8744
G01 X31.3931 Y13.8809
G01 X31.3853 Y13.8867
G01 X31.3769 Y13.8918
G01 X31.3681 Y13.8959
G01 X31.3589 Y13.8992
G01 X31.3518 Y13.9011
G01 X31.3422 Y13.9028
G01 X31.3324 Y13.9035
G01 X29.6300 Y13.9035
G01 X29.6227 Y13.9032
G01 X29.6130 Y13.9020
G01 X29.6035 Y13.8999
G01 X29.5942 Y13.8968
G01 X29.5853 Y13.8929
G01 X29.5768 Y13.8881
G01 X29.5688 Y13.8824
G01 X29.5614 Y13.8761
G01 X29.5563 Y13.8708
G01 X29.5501 Y13.8633
G01 X29.5447 Y13.8552
G01 X29.5401 Y13.8465
G01 X29.5363 Y13.8375
G01 X29.5335 Y13.8282
G01 X29.5316 Y13.8186
G01 X29.5308 Y13.8113
G01 X29.5305 Y13.8040
G01 X29.5305 Y12.4282
G01 X29.1059 Y12.0036
G01 X23.2853 Y12.0036
G01 X18.2210 Y17.0679
G01 X18.1992 Y17.0876
G01 X18.1756 Y17.1051
G01 X18.1504 Y17.1202
G01 X18.1283 Y17.1308
G01 X18.1193 Y17.1346
G01 X18.0961 Y17.1427
G01 X18.0724 Y17.1488
G01 X18.0628 Y17.1507
G01 X18.0385 Y17.1542
G01 X18.0116 Y17.1556
G01 X15.5261 Y17.1556
G01 X14.7576 Y17.9241
G01 X14.7576 Y20.4120
G01 X14.7562 Y20.4414
G01 X14.7518 Y20.4705
G01 X14.7447 Y20.4990
G01 X14.7357 Y20.5244
G01 X14.7222 Y20.5532
G01 X14.7071 Y20.5784
G01 X14.6896 Y20.6021
G01 X14.6716 Y20.6221
G01 X14.0199 Y21.2739
G01 X13.9981 Y21.2936
G01 X13.9784 Y21.3083
G01 X13.9703 Y21.3137
G01 X13.9492 Y21.3262
G01 X13.9271 Y21.3368
G01 X13.9181 Y21.3406
G01 X13.8950 Y21.3487
G01 X13.8665 Y21.3558
G01 X13.8422 Y21.3596
G01 X13.8325 Y21.3605
G01 X13.8080 Y21.3616
G01 X9.3780 Y21.3616
G01 X9.3486 Y21.3602
G01 X9.3196 Y21.3558
G01 X9.2910 Y21.3487
G01 X9.2611 Y21.3378
G01 X9.2368 Y21.3262
G01 X9.2116 Y21.3111
G01 X9.1879 Y21.2936
G01 X9.1679 Y21.2756
G01 X8.5527 Y20.6604
G01 X8.4914 Y20.6892
G01 X8.4083 Y20.7191
G01 X8.3989 Y20.7219
G01 X8.3180 Y20.7422
G01 X8.3084 Y20.7441
G01 X8.2211 Y20.7569
G01 X8.1329 Y20.7614
G01 X8.1231 Y20.7614
G01 X8.0349 Y20.7569
G01 X7.9428 Y20.7433
G01 X7.8524 Y20.7206
G01 X7.7692 Y20.6910
G01 X7.7602 Y20.6872
G01 X7.6804 Y20.6494
G01 X7.6005 Y20.6015
G01 X7.5256 Y20.5460
G01 X7.4566 Y20.4834
G01 X7.3940 Y20.4144
G01 X7.3385 Y20.3395
G01 X7.2906 Y20.2596
G01 X7.2517 Y20.1776
G01 X7.2490 Y20.1708
G01 X7.2194 Y20.0876
G01 X7.1978 Y20.0020
G01 X7.1959 Y19.9924
G01 X7.1831 Y19.9051
G01 X7.1786 Y19.8169
G01 X7.1786 Y19.8071
G01 X7.1831 Y19.7189
G01 X7.1967 Y19.6268
G01 X7.2181 Y19.5411
G01 X7.2209 Y19.5317
G01 X7.2508 Y19.4486
G01 X7.2884 Y19.3688
G01 X7.2930 Y19.3602
G01 X7.3385 Y19.2845
G01 X7.3910 Y19.2135
G01 X7.3972 Y19.2059
G01 X7.4566 Y19.1406
G01 X7.5219 Y19.0812
G01 X7.5295 Y19.0750
G01 X7.6005 Y19.0225
G01 X7.6804 Y18.9746
G01 X7.7602 Y18.9368
G01 X7.7692 Y18.9330
G01 X7.8524 Y18.9034
G01 X7.9380 Y18.8818
G01 X7.9476 Y18.8799
G01 X8.0349 Y18.8671
G01 X8.1231 Y18.8626
G01 X8.1329 Y18.8626
G00 Z1.0000
G00 X12.9084 Y18.9118
G01 F60.00
G01 Z-0.0940
G01 F120.00
G01 X12.9084 Y18.2015
G01 X12.9095 Y18.1770
G01 X12.9104 Y18.1672
G01 X12.9142 Y18.1430
G01 X12.9200 Y18.1192
G01 X12.9228 Y18.1099
G01 X12.9312 Y18.0868
G01 X12.9416 Y18.0646
G01 X12.9462 Y18.0560
G01 X12.9603 Y18.0330
G01 X12.9764 Y18.0114
G01 X12.9962 Y17.9896
G01 X14.9416 Y16.0442
G01 X14.9653 Y16.0229
G01 X14.9870 Y16.0069
G01 X15.0101 Y15.9930
G01 X15.0343 Y15.9812
G01 X15.0434 Y15.9774
G01 X15.0665 Y15.9693
G01 X15.0950 Y15.9622
G01 X15.1241 Y15.9578
G01 X15.1510 Y15.9564
G01 X17.6365 Y15.9564
G01 X20.3739 Y13.2190
G01 X20.3739 Y9.7680
G01 X17.5482 Y6.9422
G01 X17.5284 Y6.9204
G01 X17.5137 Y6.9008
G01 X17.5083 Y6.8927
G01 X17.4958 Y6.8716
G01 X17.4832 Y6.8450
G01 X17.4733 Y6.8173
G01 X17.4672 Y6.7936
G01 X17.4653 Y6.7840
G01 X17.4621 Y6.7622
G01 X17.4615 Y6.7549
G01 X17.4604 Y6.7304
G01 X17.4604 Y5.7471
G01 X16.2964 Y4.5831
G01 X16.2800 Y4.5649
G01 X16.2754 Y4.5592
G01 X16.2609 Y4.5394
G01 X16.2482 Y4.5185
G01 X16.2436 Y4.5099
G01 X16.2332 Y4.4876
G01 X16.2236 Y4.4609
G01 X16.1466 Y4.4332
G01 X16.0668 Y4.3956
G01 X16.0582 Y4.3910
G01 X15.9866 Y4.3481
G01 X15.9785 Y4.3427
G01 X15.9076 Y4.2900
G01 X15.8421 Y4.2308
G01 X15.8369 Y4.2256
G01 X15.7760 Y4.1584
G01 X15.7233 Y4.0875
G01 X15.7179 Y4.0794
G01 X15.6750 Y4.0078
G01 X15.6704 Y3.9992
G01 X15.6328 Y3.9194
G01 X15.6029 Y3.8363
G01 X15.6001 Y3.8269
G01 X15.5787 Y3.7412
G01 X15.5657 Y3.6539
G01 X15.5647 Y3.6442
G01 X15.5605 Y3.5560
G01 X15.5647 Y3.4678
G01 X15.5657 Y3.4581
G01 X15.5787 Y3.3708
G01 X15.6001 Y3.2851
G01 X15.6029 Y3.2757
G01 X15.6328 Y3.1926
G01 X15.6704 Y3.1128
G01 X15.6750 Y3.1042
G01 X15.7205 Y3.0285
G01 X15.7730 Y2.9575
G01 X15.7792 Y2.9499
G01 X15.8386 Y2.8846
G01 X15.9039 Y2.8252
G01 X15.9115 Y2.8190
G01 X15.9825 Y2.7665
G01 X16.0582 Y2.7210
G01 X16.0668 Y2.7164
G01 X16.1466 Y2.6788
G01 X16.2297 Y2.6489
G01 X16.2391 Y2.6461
G01 X16.3248 Y2.6247
G01 X16.4121 Y2.6117
G01 X16.4218 Y2.6107
G01 X16.5100 Y2.6065
G01 X16.5982 Y2.6107
G01 X16.6079 Y2.6117
G01 X16.6976 Y2.6253
G01 X16.7809 Y2.6461
G01 X16.7903 Y2.6489
G01 X16.8734 Y2.6788
G01 X16.9532 Y2.7164
G01 X16.9618 Y2.7210
G01 X17.0375 Y2.7665
G01 X17.1085 Y2.8190
G01 X17.1161 Y2.8252
G01 X17.1814 Y2.8846
G01 X17.2408 Y2.9499
G01 X17.2470 Y2.9575
G01 X17.2995 Y3.0285
G01 X17.3450 Y3.1042
G01 X17.3496 Y3.1128
G01 X17.3872 Y3.1926
G01 X17.4179 Y3.2780
G01 X17.4199 Y3.2851
G01 X17.4413 Y3.3708
G01 X17.4543 Y3.4581
G01 X17.4553 Y3.4678
G01 X17.4594 Y3.5511
G01 X17.4594 Y3.5609
G01 X17.4549 Y3.6491
G01 X17.4413 Y3.7412
G01 X17.4186 Y3.8316
G01 X17.3872 Y3.9194
G01 X17.3474 Y4.0036
G01 X17.2995 Y4.0835
G01 X17.2440 Y4.1584
G01 X17.1848 Y4.2239
G01 X17.1779 Y4.2308
G01 X17.1161 Y4.2868
G01 X17.1085 Y4.2930
G01 X17.0375 Y4.3455
G01 X16.9618 Y4.3910
G01 X16.9553 Y4.3946
G01 X17.9719 Y5.4111
G01 X17.9916 Y5.4329
G01 X18.0063 Y5.4526
G01 X18.0117 Y5.4607
G01 X18.0253 Y5.4839
G01 X18.0377 Y5.5106
G01 X18.0460 Y5.5337
G01 X18.0480 Y5.5407
G01 X18.0538 Y5.5645
G01 X18.0576 Y5.5888
G01 X18.0584 Y5.5961
G01 X18.0596 Y5.6206
G01 X18.0596 Y6.6063
G01 X20.8854 Y9.4321
G01 X20.9051 Y9.4538
G01 X20.9227 Y9.4775
G01 X20.9377 Y9.5027
G01 X20.9512 Y9.5315
G01 X20.9602 Y9.5568
G01 X20.9673 Y9.5853
G01 X20.9717 Y9.6145
G01 X20.9731 Y9.6439
G01 X20.9731 Y13.3433
G01 X20.9717 Y13.3725
G01 X20.9669 Y13.4039
G01 X20.9602 Y13.4301
G01 X20.9521 Y13.4532
G01 X20.9483 Y13.4622
G01 X20.9378 Y13.4843
G01 X20.9253 Y13.5054
G01 X20.9198 Y13.5135
G01 X20.9051 Y13.5332
G01 X20.8857 Y13.5546
G01 X17.9725 Y16.4678
G01 X17.9544 Y16.4844
G01 X17.9468 Y16.4906
G01 X17.9270 Y16.5051
G01 X17.9040 Y16.5190
G01 X17.8753 Y16.5328
G01 X17.8522 Y16.5412
G01 X17.8429 Y16.5440
G01 X17.8191 Y16.5498
G01 X17.7948 Y16.5536
G01 X17.7875 Y16.5544
G01 X17.7631 Y16.5556
G01 X15.2776 Y16.5556
G01 X13.5076 Y18.3256
G01 X13.5076 Y18.9118
G01 X13.5714 Y18.9348
G01 X13.6556 Y18.9746
G01 X13.7355 Y19.0225
G01 X13.8065 Y19.0750
G01 X13.8141 Y19.0812
G01 X13.8759 Y19.1372
G01 X13.8828 Y19.1441
G01 X13.9420 Y19.2096
G01 X13.9961 Y19.2825
G01 X14.0430 Y19.3602
G01 X14.0476 Y19.3688
G01 X14.0852 Y19.4486
G01 X14.1166 Y19.5364
G01 X14.1393 Y19.6268
G01 X14.1523 Y19.7141
G01 X14.1533 Y19.7238
G01 X14.1575 Y19.8120
G01 X14.1533 Y19.9002
G01 X14.1523 Y19.9099
G01 X14.1393 Y19.9972
G01 X14.1166 Y20.0876
G01 X14.0852 Y20.1754
G01 X14.0476 Y20.2552
G01 X14.0430 Y20.2638
G01 X14.0001 Y20.3354
G01 X13.9947 Y20.3435
G01 X13.9420 Y20.4144
G01 X13.8794 Y20.4834
G01 X13.8104 Y20.5460
G01 X13.7395 Y20.5987
G01 X13.7314 Y20.6041
G01 X13.6598 Y20.6470
G01 X13.6512 Y20.6516
G01 X13.5714 Y20.6892
G01 X13.4860 Y20.7199
G01 X13.4789 Y20.7219
G01 X13.3932 Y20.7433
G01 X13.3011 Y20.7569
G01 X13.2080 Y20.7615
G01 X13.1149 Y20.7569
G01 X13.0228 Y20.7433
G01 X12.9324 Y20.7206
G01 X12.8446 Y20.6892
G01 X12.7604 Y20.6494
G01 X12.6805 Y20.6015
G01 X12.6056 Y20.5460
G01 X12.5366 Y20.4834
G01 X12.4740 Y20.4144
G01 X12.4185 Y20.3395
G01 X12.3706 Y20.2596
G01 X12.3308 Y20.1754
G01 X12.3001 Y20.0900
G01 X12.2981 Y20.0829
G01 X12.2767 Y19.9972
G01 X12.2631 Y19.9051
G01 X12.2585 Y19.8120
G01 X12.2631 Y19.7189
G01 X12.2767 Y19.6268
G01 X12.2994 Y19.5364
G01 X12.3308 Y19.4486
G01 X12.3695 Y19.3666
G01 X12.3730 Y19.3602
G01 X12.4185 Y19.2845
G01 X12.4740 Y19.2096
G01 X12.5366 Y19.1406
G01 X12.6038 Y19.0796
G01 X12.6095 Y19.0750
G01 X12.6805 Y19.0225
G01 X12.7583 Y18.9758
G01 X12.7648 Y18.9724
G01 X12.8446 Y18.9348
G01 X12.9084 Y18.9118
G00 Z1.0000
G00 X15.4484 Y20.7122
G01 F60.00
G01 Z-0.0940
G01 F120.00
G01 X15.3846 Y20.6892
G01 X15.3004 Y20.6494
G01 X15.2205 Y20.6015
G01 X15.1476 Y20.5475
G01 X15.1419 Y20.5428
G01 X15.0766 Y20.4834
G01 X15.0172 Y20.4181
G01 X15.0110 Y20.4105
G01 X14.9572 Y20.3375
G01 X14.9106 Y20.2596
G01 X14.8708 Y20.1754
G01 X14.8394 Y20.0876
G01 X14.8178 Y20.0020
G01 X14.8159 Y19.9924
G01 X14.8037 Y19.9099
G01 X14.8027 Y19.9002
G01 X14.7985 Y19.8120
G01 X14.8031 Y19.7189
G01 X14.8167 Y19.6268
G01 X14.8394 Y19.5364
G01 X14.8708 Y19.4486
G01 X14.9084 Y19.3688
G01 X14.9130 Y19.3602
G01 X14.9559 Y19.2886
G01 X14.9613 Y19.2805
G01 X15.0140 Y19.2096
G01 X15.0766 Y19.1406
G01 X15.1456 Y19.0780
G01 X15.2165 Y19.0253
G01 X15.2246 Y19.0199
G01 X15.2962 Y18.9770
G01 X15.3048 Y18.9724
G01 X15.3846 Y18.9348
G01 X15.4724 Y18.9034
G01 X15.5628 Y18.8807
G01 X15.6525 Y18.8673
G01 X15.6598 Y18.8667
G01 X15.7480 Y18.8625
G01 X15.8411 Y18.8671
G01 X15.9332 Y18.8807
G01 X16.0189 Y18.9021
G01 X16.0283 Y18.9049
G01 X16.1114 Y18.9348
G01 X16.1912 Y18.9724
G01 X16.1998 Y18.9770
G01 X16.2714 Y19.0199
G01 X16.2795 Y19.0253
G01 X16.3504 Y19.0780
G01 X16.4194 Y19.1406
G01 X16.4820 Y19.2096
G01 X16.5375 Y19.2845
G01 X16.5854 Y19.3644
G01 X16.6252 Y19.4486
G01 X16.6566 Y19.5364
G01 X16.6782 Y19.6220
G01 X16.6801 Y19.6316
G01 X16.6923 Y19.7141
G01 X16.6933 Y19.7238
G01 X16.6975 Y19.8120
G01 X16.6933 Y19.9002
G01 X16.6923 Y19.9099
G01 X16.6793 Y19.9972
G01 X16.6566 Y20.0876
G01 X16.6252 Y20.1754
G01 X16.5876 Y20.2552
G01 X16.5830 Y20.2638
G01 X16.5375 Y20.3395
G01 X16.4820 Y20.4144
G01 X16.4194 Y20.4834
G01 X16.3522 Y20.5444
G01 X16.3465 Y20.5490
G01 X16.2755 Y20.6015
G01 X16.1977 Y20.6482
G01 X16.1912 Y20.6516
G01 X16.1136 Y20.6883
G01 X16.0537 Y20.7100
G01 X16.1261 Y20.7824
G01 X18.7439 Y20.7824
G01 X19.2584 Y20.2679
G01 X19.2584 Y17.0043
G01 X19.2598 Y16.9749
G01 X19.2642 Y16.9458
G01 X19.2713 Y16.9173
G01 X19.2794 Y16.8942
G01 X19.2832 Y16.8851
G01 X19.2938 Y16.8630
G01 X19.3089 Y16.8378
G01 X19.3264 Y16.8142
G01 X19.3462 Y16.7924
G01 X22.1464 Y13.9922
G01 X22.1682 Y13.9724
G01 X22.1938 Y13.9536
G01 X22.2170 Y13.9398
G01 X22.2391 Y13.9292
G01 X22.2482 Y13.9254
G01 X22.2713 Y13.9173
G01 X22.2950 Y13.9112
G01 X22.3046 Y13.9093
G01 X22.3289 Y13.9058
G01 X22.3558 Y13.9044
G01 X25.8759 Y13.9044
G01 X27.0081 Y12.7722
G01 X27.0098 Y12.7640
G01 X27.0314 Y12.6784
G01 X27.0628 Y12.5906
G01 X27.1026 Y12.5064
G01 X27.1479 Y12.4306
G01 X27.1533 Y12.4225
G01 X27.2060 Y12.3516
G01 X27.2652 Y12.2861
G01 X27.2721 Y12.2792
G01 X27.3339 Y12.2232
G01 X27.3415 Y12.2170
G01 X27.4125 Y12.1645
G01 X27.4882 Y12.1190
G01 X27.4946 Y12.1155
G01 X27.5766 Y12.0768
G01 X27.6644 Y12.0454
G01 X27.7548 Y12.0227
G01 X27.8469 Y12.0091
G01 X27.9400 Y12.0045
G01 X28.0331 Y12.0091
G01 X28.1252 Y12.0227
G01 X28.2109 Y12.0441
G01 X28.2203 Y12.0469
G01 X28.3034 Y12.0768
G01 X28.3832 Y12.1144
G01 X28.3918 Y12.1190
G01 X28.4634 Y12.1619
G01 X28.4715 Y12.1673
G01 X28.5424 Y12.2200
G01 X28.6114 Y12.2826
G01 X28.6740 Y12.3516
G01 X28.7267 Y12.4225
G01 X28.7308 Y12.4285
G01 X28.7774 Y12.5064
G01 X28.8152 Y12.5862
G01 X28.8190 Y12.5952
G01 X28.8471 Y12.6737
G01 X28.8499 Y12.6831
G01 X28.8713 Y12.7688
G01 X28.8843 Y12.8561
G01 X28.8853 Y12.8658
G01 X28.8895 Y12.9540
G01 X28.8849 Y13.0471
G01 X28.8713 Y13.1392
G01 X28.8499 Y13.2249
G01 X28.8471 Y13.2343
G01 X28.8172 Y13.3174
G01 X28.7796 Y13.3972
G01 X28.7750 Y13.4058
G01 X28.7321 Y13.4774
G01 X28.7267 Y13.4855
G01 X28.6740 Y13.5564
G01 X28.6114 Y13.6254
G01 X28.5424 Y13.6880
G01 X28.4715 Y13.7407
G01 X28.4634 Y13.7461
G01 X28.3876 Y13.7914
G01 X28.3078 Y13.8292
G01 X28.2988 Y13.8330
G01 X28.2180 Y13.8619
G01 X28.2109 Y13.8639
G01 X28.1252 Y13.8853
G01 X28.0379 Y13.8983
G01 X28.0282 Y13.8993
G01 X27.9449 Y13.9034
G01 X27.9351 Y13.9034
G01 X27.8469 Y13.8989
G01 X27.7548 Y13.8853
G01 X27.6644 Y13.8626
G01 X27.5812 Y13.8330
G01 X27.5722 Y13.8292
G01 X27.4968 Y13.7936
G01 X27.4882 Y13.7890
G01 X27.4125 Y13.7435
G01 X27.3376 Y13.6880
G01 X27.2686 Y13.6254
G01 X27.2092 Y13.5601
G01 X27.2030 Y13.5525
G01 X27.1533 Y13.4855
G01 X27.1488 Y13.4789
G01 X26.2101 Y14.4176
G01 X26.1901 Y14.4356
G01 X26.1704 Y14.4503
G01 X26.1623 Y14.4557
G01 X26.1412 Y14.4682
G01 X26.1191 Y14.4788
G01 X26.1101 Y14.4826
G01 X26.0870 Y14.4907
G01 X26.0608 Y14.4973
G01 X26.0294 Y14.5022
G01 X26.0000 Y14.5036
G01 X22.4823 Y14.5036
G01 X19.8576 Y17.1283
G01 X19.8576 Y20.3920
G01 X19.8562 Y20.4214
G01 X19.8518 Y20.4505
G01 X19.8447 Y20.4790
G01 X19.8366 Y20.5021
G01 X19.8328 Y20.5111
G01 X19.8222 Y20.5332
G01 X19.8097 Y20.5543
G01 X19.8043 Y20.5624
G01 X19.7896 Y20.5821
G01 X19.7716 Y20.6021
G01 X19.0799 Y21.2938
G01 X19.0581 Y21.3136
G01 X19.0324 Y21.3324
G01 X19.0092 Y21.3462
G01 X18.9871 Y21.3568
G01 X18.9781 Y21.3606
G01 X18.9550 Y21.3687
G01 X18.9312 Y21.3748
G01 X18.9216 Y21.3767
G01 X18.8974 Y21.3802
G01 X18.8704 Y21.3816
G01 X16.0020 Y21.3816
G01 X15.9726 Y21.3802
G01 X15.9460 Y21.3763
G01 X15.9150 Y21.3687
G01 X15.8919 Y21.3606
G01 X15.8829 Y21.3568
G01 X15.8608 Y21.3462
G01 X15.8397 Y21.3337
G01 X15.8316 Y21.3283
G01 X15.8119 Y21.3136
G01 X15.7902 Y21.2938
G01 X15.5362 Y21.0398
G01 X15.5196 Y21.0218
G01 X15.5134 Y21.0142
G01 X15.5003 Y20.9965
G01 X15.4963 Y20.9903
G01 X15.4838 Y20.9692
G01 X15.4732 Y20.9471
G01 X15.4703 Y20.9404
G01 X15.4620 Y20.9173
G01 X15.4547 Y20.8888
G01 X15.4498 Y20.8574
G01 X15.4484 Y20.8304
G01 X15.4484 Y20.7122
G00 Z1.0000
G00 X17.9884 Y18.9118
G01 F60.00
G01 Z-0.0940
G01 F120.00
G01 X17.9884 Y17.4233
G01 X17.9898 Y17.3963
G01 X17.9933 Y17.3721
G01 X17.9952 Y17.3625
G01 X18.0020 Y17.3364
G01 X18.0112 Y17.3111
G01 X18.0227 Y17.2866
G01 X18.0363 Y17.2634
G01 X18.0417 Y17.2553
G01 X18.0564 Y17.2356
G01 X18.0762 Y17.2139
G01 X22.5479 Y12.7422
G01 X22.5696 Y12.7224
G01 X22.5933 Y12.7049
G01 X22.6142 Y12.6922
G01 X22.6206 Y12.6887
G01 X22.6406 Y12.6792
G01 X22.6496 Y12.6754
G01 X22.6727 Y12.6673
G01 X22.7013 Y12.6602
G01 X22.7303 Y12.6558
G01 X22.7573 Y12.6544
G01 X24.4998 Y12.6544
G01 X24.5228 Y12.5906
G01 X24.5604 Y12.5108
G01 X24.5650 Y12.5022
G01 X24.6119 Y12.4245
G01 X24.6660 Y12.3516
G01 X24.7252 Y12.2861
G01 X24.7321 Y12.2792
G01 X24.7996 Y12.2185
G01 X24.8725 Y12.1645
G01 X24.9482 Y12.1190
G01 X24.9568 Y12.1144
G01 X25.0366 Y12.0768
G01 X25.1197 Y12.0469
G01 X25.1291 Y12.0441
G01 X25.2148 Y12.0227
G01 X25.3069 Y12.0091
G01 X25.4000 Y12.0045
G01 X25.4882 Y12.0087
G01 X25.4979 Y12.0097
G01 X25.5852 Y12.0227
G01 X25.6709 Y12.0441
G01 X25.6803 Y12.0469
G01 X25.7634 Y12.0768
G01 X25.8476 Y12.1166
G01 X25.9234 Y12.1619
G01 X25.9315 Y12.1673
G01 X26.0024 Y12.2200
G01 X26.0679 Y12.2792
G01 X26.0748 Y12.2861
G01 X26.1340 Y12.3516
G01 X26.1895 Y12.4265
G01 X26.2350 Y12.5022
G01 X26.2396 Y12.5108
G01 X26.2772 Y12.5906
G01 X26.3071 Y12.6737
G01 X26.3099 Y12.6831
G01 X26.3313 Y12.7688
G01 X26.3443 Y12.8561
G01 X26.3453 Y12.8658
G01 X26.3495 Y12.9540
G01 X26.3453 Y13.0422
G01 X26.3443 Y13.0519
G01 X26.3313 Y13.1392
G01 X26.3086 Y13.2296
G01 X26.2790 Y13.3128
G01 X26.2752 Y13.3218
G01 X26.2374 Y13.4016
G01 X26.1921 Y13.4774
G01 X26.1867 Y13.4855
G01 X26.1340 Y13.5564
G01 X26.0714 Y13.6254
G01 X26.0061 Y13.6848
G01 X25.9985 Y13.6910
G01 X25.9275 Y13.7435
G01 X25.8518 Y13.7890
G01 X25.8432 Y13.7936
G01 X25.7634 Y13.8312
G01 X25.6803 Y13.8611
G01 X25.6733 Y13.8633
G01 X25.5852 Y13.8853
G01 X25.4931 Y13.8989
G01 X25.4000 Y13.9035
G01 X25.3069 Y13.8989
G01 X25.2148 Y13.8853
G01 X25.1244 Y13.8626
G01 X25.0366 Y13.8312
G01 X24.9524 Y13.7914
G01 X24.8725 Y13.7435
G01 X24.7976 Y13.6880
G01 X24.7286 Y13.6254
G01 X24.6676 Y13.5582
G01 X24.6630 Y13.5525
G01 X24.6105 Y13.4815
G01 X24.5638 Y13.4037
G01 X24.5604 Y13.3972
G01 X24.5228 Y13.3174
G01 X24.4998 Y13.2536
G01 X22.8838 Y13.2536
G01 X18.5876 Y17.5498
G01 X18.5876 Y18.9118
G01 X18.6514 Y18.9348
G01 X18.7356 Y18.9746
G01 X18.8155 Y19.0225
G01 X18.8865 Y19.0750
G01 X18.8941 Y19.0812
G01 X18.9559 Y19.1372
G01 X18.9628 Y19.1441
G01 X19.0220 Y19.2096
G01 X19.0761 Y19.2825
G01 X19.1230 Y19.3602
G01 X19.1276 Y19.3688
G01 X19.1652 Y19.4486
G01 X19.1966 Y19.5364
G01 X19.2193 Y19.6268
G01 X19.2323 Y19.7141
G01 X19.2333 Y19.7238
G01 X19.2375 Y19.8120
G01 X19.2333 Y19.9002
G01 X19.2323 Y19.9099
G01 X19.2193 Y19.9972
G01 X19.1966 Y20.0876
G01 X19.1652 Y20.1754
G01 X19.1276 Y20.2552
G01 X19.1230 Y20.2638
G01 X19.0801 Y20.3354
G01 X19.0747 Y20.3435
G01 X19.0220 Y20.4144
G01 X18.9594 Y20.4834
G01 X18.8904 Y20.5460
G01 X18.8195 Y20.5987
G01 X18.8114 Y20.6041
G01 X18.7398 Y20.6470
G01 X18.7312 Y20.6516
G01 X18.6514 Y20.6892
G01 X18.5660 Y20.7199
G01 X18.5589 Y20.7219
G01 X18.4732 Y20.7433
G01 X18.3811 Y20.7569
G01 X18.2880 Y20.7615
G01 X18.1949 Y20.7569
G01 X18.1028 Y20.7433
G01 X18.0124 Y20.7206
G01 X17.9246 Y20.6892
G01 X17.8404 Y20.6494
G01 X17.7605 Y20.6015
G01 X17.6856 Y20.5460
G01 X17.6166 Y20.4834
G01 X17.5540 Y20.4144
G01 X17.4985 Y20.3395
G01 X17.4506 Y20.2596
G01 X17.4108 Y20.1754
G01 X17.3801 Y20.0900
G01 X17.3781 Y20.0829
G01 X17.3567 Y19.9972
G01 X17.3431 Y19.9051
G01 X17.3385 Y19.8120
G01 X17.3431 Y19.7189
G01 X17.3567 Y19.6268
G01 X17.3794 Y19.5364
G01 X17.4108 Y19.4486
G01 X17.4495 Y19.3666
G01 X17.4530 Y19.3602
G01 X17.4985 Y19.2845
G01 X17.5540 Y19.2096
G01 X17.6166 Y19.1406
G01 X17.6838 Y19.0796
G01 X17.6895 Y19.0750
G01 X17.7605 Y19.0225
G01 X17.8383 Y18.9758
G01 X17.8448 Y18.9724
G01 X17.9246 Y18.9348
G01 X17.9884 Y18.9118
G00 Z1.0000
G00 X18.5729 Y11.4984
G01 F60.00
G01 Z-0.0940
G01 F120.00
G01 X18.5634 Y11.6895
G01 X18.5346 Y11.8836
G01 X18.4869 Y12.0739
G01 X18.4208 Y12.2587
G01 X18.3369 Y12.4361
G01 X18.2360 Y12.6044
G01 X18.1191 Y12.7620
G01 X17.9874 Y12.9074
G01 X17.8420 Y13.0391
G01 X17.6844 Y13.1560
G01 X17.5161 Y13.2569
G01 X17.3387 Y13.3408
G01 X17.1539 Y13.4069
G01 X16.9636 Y13.4546
G01 X16.7695 Y13.4834
G01 X16.5735 Y13.4930
G01 X16.3775 Y13.4834
G01 X16.1834 Y13.4546
G01 X15.9931 Y13.4069
G01 X15.8083 Y13.3408
G01 X15.6309 Y13.2569
G01 X15.4626 Y13.1560
G01 X15.3050 Y13.0391
G01 X15.1596 Y12.9074
G01 X15.0279 Y12.7620
G01 X14.9110 Y12.6044
G01 X14.8101 Y12.4361
G01 X14.7262 Y12.2587
G01 X14.6601 Y12.0739
G01 X14.6124 Y11.8836
G01 X14.5836 Y11.6895
G01 X14.5740 Y11.4935
G01 X14.5836 Y11.2975
G01 X14.6124 Y11.1034
G01 X14.6601 Y10.9131
G01 X14.7262 Y10.7283
G01 X14.8101 Y10.5509
G01 X14.9110 Y10.3826
G01 X15.0279 Y10.2250
G01 X15.1596 Y10.0796
G01 X15.3050 Y9.9479
G01 X15.4626 Y9.8310
G01 X15.6309 Y9.7301
G01 X15.8083 Y9.6462
G01 X15.9931 Y9.5801
G01 X16.1834 Y9.5324
G01 X16.3775 Y9.5036
G01 X16.5735 Y9.4940
G01 X16.7695 Y9.5036
G01 X16.9636 Y9.5324
G01 X17.1539 Y9.5801
G01 X17.3387 Y9.6462
G01 X17.5161 Y9.7301
G01 X17.6844 Y9.8310
G01 X17.8420 Y9.9479
G01 X17.9874 Y10.0796
G01 X18.1191 Y10.2250
G01 X18.2360 Y10.3826
G01 X18.3369 Y10.5509
G01 X18.4208 Y10.7283
G01 X18.4869 Y10.9131
G01 X18.5346 Y11.1034
G01 X18.5634 Y11.2975
G01 X18.5729 Y11.4886
G01 X18.5729 Y11.4984
G00 Z1.0000
G00 X18.7504 Y7.1232
G01 F60.00
G01 Z-0.0940
G01 F120.00
G01 X18.6866 Y7.1002
G01 X18.6068 Y7.0626
G01 X18.6003 Y7.0592
G01 X18.5225 Y7.0125
G01 X18.4515 Y6.9600
G01 X18.4458 Y6.9554
G01 X18.3786 Y6.8944
G01 X18.3160 Y6.8254
G01 X18.2605 Y6.7505
G01 X18.2150 Y6.6748
G01 X18.2115 Y6.6684
G01 X18.1728 Y6.5864
G01 X18.1414 Y6.4986
G01 X18.1187 Y6.4082
G01 X18.1051 Y6.3161
G01 X18.1005 Y6.2230
G01 X18.1051 Y6.1299
G01 X18.1187 Y6.0378
G01 X18.1401 Y5.9521
G01 X18.1421 Y5.9450
G01 X18.1728 Y5.8596
G01 X18.2126 Y5.7754
G01 X18.2605 Y5.6955
G01 X18.3160 Y5.6206
G01 X18.3786 Y5.5516
G01 X18.4476 Y5.4890
G01 X18.5225 Y5.4335
G01 X18.6024 Y5.3856
G01 X18.6866 Y5.3458
G01 X18.7744 Y5.3144
G01 X18.8648 Y5.2917
G01 X18.9569 Y5.2781
G01 X19.0500 Y5.2735
G01 X19.1431 Y5.2781
G01 X19.2352 Y5.2917
G01 X19.3209 Y5.3131
G01 X19.3280 Y5.3151
G01 X19.4134 Y5.3458
G01 X19.4932 Y5.3834
G01 X19.5018 Y5.3880
G01 X19.5775 Y5.4335
G01 X19.6524 Y5.4890
G01 X19.7179 Y5.5482
G01 X19.7248 Y5.5551
G01 X19.7808 Y5.6169
G01 X19.7870 Y5.6245
G01 X19.8395 Y5.6955
G01 X19.8874 Y5.7754
G01 X19.9272 Y5.8596
G01 X19.9571 Y5.9427
G01 X19.9599 Y5.9521
G01 X19.9802 Y6.0330
G01 X19.9821 Y6.0426
G01 X19.9949 Y6.1299
G01 X19.9994 Y6.2181
G01 X19.9994 Y6.2279
G01 X19.9953 Y6.3112
G01 X19.9943 Y6.3209
G01 X19.9813 Y6.4082
G01 X19.9586 Y6.4986
G01 X19.9272 Y6.5864
G01 X19.8896 Y6.6662
G01 X19.8850 Y6.6748
G01 X19.8395 Y6.7505
G01 X19.7840 Y6.8254
G01 X19.7248 Y6.8909
G01 X19.7179 Y6.8978
G01 X19.6524 Y6.9570
G01 X19.5775 Y7.0125
G01 X19.5018 Y7.0580
G01 X19.4932 Y7.0626
G01 X19.4178 Y7.0982
G01 X19.4052 Y7.1033
G01 X22.4163 Y10.1144
G01 X24.4998 Y10.1144
G01 X24.5228 Y10.0506
G01 X24.5626 Y9.9664
G01 X24.6105 Y9.8865
G01 X24.6660 Y9.8116
G01 X24.7286 Y9.7426
G01 X24.7976 Y9.6800
G01 X24.8725 Y9.6245
G01 X24.9503 Y9.5778
G01 X24.9568 Y9.5744
G01 X25.0366 Y9.5368
G01 X25.1197 Y9.5069
G01 X25.1291 Y9.5041
G01 X25.2100 Y9.4838
G01 X25.2196 Y9.4819
G01 X25.3069 Y9.4691
G01 X25.4000 Y9.4645
G01 X25.4931 Y9.4691
G01 X25.5852 Y9.4827
G01 X25.6756 Y9.5054
G01 X25.7588 Y9.5350
G01 X25.7678 Y9.5388
G01 X25.8476 Y9.5766
G01 X25.9234 Y9.6219
G01 X25.9315 Y9.6273
G01 X25.9985 Y9.6770
G01 X26.0061 Y9.6832
G01 X26.0714 Y9.7426
G01 X26.1340 Y9.8116
G01 X26.1895 Y9.8865
G01 X26.2350 Y9.9622
G01 X26.2396 Y9.9708
G01 X26.2772 Y10.0506
G01 X26.3071 Y10.1337
G01 X26.3099 Y10.1431
G01 X26.3302 Y10.2240
G01 X26.3321 Y10.2336
G01 X26.3449 Y10.3209
G01 X26.3495 Y10.4140
G01 X26.3449 Y10.5071
G01 X26.3321 Y10.5944
G01 X26.3302 Y10.6040
G01 X26.3086 Y10.6896
G01 X26.2790 Y10.7728
G01 X26.2752 Y10.7818
G01 X26.2385 Y10.8594
G01 X26.1921 Y10.9374
G01 X26.1867 Y10.9455
G01 X26.1340 Y11.0164
G01 X26.0714 Y11.0854
G01 X26.0061 Y11.1448
G01 X25.9985 Y11.1510
G01 X25.9275 Y11.2035
G01 X25.8518 Y11.2490
G01 X25.8432 Y11.2536
G01 X25.7634 Y11.2912
G01 X25.6803 Y11.3211
G01 X25.6709 Y11.3239
G01 X25.5852 Y11.3453
G01 X25.4979 Y11.3583
G01 X25.4882 Y11.3593
G01 X25.4049 Y11.3634
G01 X25.3951 Y11.3634
G01 X25.3069 Y11.3589
G01 X25.2196 Y11.3461
G01 X25.2100 Y11.3442
G01 X25.1244 Y11.3226
G01 X25.0366 Y11.2912
G01 X24.9568 Y11.2536
G01 X24.9482 Y11.2490
G01 X24.8766 Y11.2061
G01 X24.8685 Y11.2007
G01 X24.7976 Y11.1480
G01 X24.7321 Y11.0888
G01 X24.7252 Y11.0819
G01 X24.6692 Y11.0201
G01 X24.6630 Y11.0125
G01 X24.6105 Y10.9415
G01 X24.5626 Y10.8616
G01 X24.5228 Y10.7774
G01 X24.4998 Y10.7136
G01 X22.2896 Y10.7136
G01 X22.2652 Y10.7124
G01 X22.2580 Y10.7116
G01 X22.2336 Y10.7078
G01 X22.2099 Y10.7020
G01 X22.2028 Y10.6999
G01 X22.1798 Y10.6917
G01 X22.1531 Y10.6794
G01 X22.1298 Y10.6657
G01 X22.1217 Y10.6603
G01 X22.1021 Y10.6456
G01 X22.0804 Y10.6260
G01 X18.8364 Y7.3819
G01 X18.8200 Y7.3637
G01 X18.8154 Y7.3580
G01 X18.8009 Y7.3383
G01 X18.7882 Y7.3173
G01 X18.7847 Y7.3109
G01 X18.7742 Y7.2887
G01 X18.7640 Y7.2611
G01 X18.7561 Y7.2302
G01 X18.7518 Y7.2011
G01 X18.7504 Y7.1743
G01 X18.7504 Y7.1232
G00 Z1.0000
G00 X22.4502 Y6.6227
G01 F60.00
G01 Z-0.0940
G01 F120.00
G01 X22.4262 Y6.6727
G01 X22.3821 Y6.7464
G01 X22.3781 Y6.7525
G01 X22.3240 Y6.8254
G01 X22.2648 Y6.8909
G01 X22.2596 Y6.8961
G01 X22.1924 Y6.9570
G01 X22.1175 Y7.0125
G01 X22.0376 Y7.0604
G01 X21.9578 Y7.0982
G01 X21.9511 Y7.1011
G01 X21.8656 Y7.1316
G01 X21.7752 Y7.1543
G01 X21.6831 Y7.1679
G01 X21.5900 Y7.1725
G01 X21.4969 Y7.1679
G01 X21.4048 Y7.1543
G01 X21.3144 Y7.1316
G01 X21.2312 Y7.1020
G01 X21.2244 Y7.0993
G01 X21.1424 Y7.0604
G01 X21.0625 Y7.0125
G01 X20.9876 Y6.9570
G01 X20.9186 Y6.8944
G01 X20.8560 Y6.8254
G01 X20.8005 Y6.7505
G01 X20.7526 Y6.6706
G01 X20.7128 Y6.5864
G01 X20.6814 Y6.4986
G01 X20.6587 Y6.4082
G01 X20.6451 Y6.3161
G01 X20.6405 Y6.2230
G01 X20.6451 Y6.1299
G01 X20.6587 Y6.0378
G01 X20.6814 Y5.9474
G01 X20.7110 Y5.8642
G01 X20.7137 Y5.8574
G01 X20.7526 Y5.7754
G01 X20.7979 Y5.6996
G01 X20.8033 Y5.6915
G01 X20.8560 Y5.6206
G01 X20.9152 Y5.5551
G01 X20.9221 Y5.5482
G01 X20.9876 Y5.4890
G01 X21.0585 Y5.4363
G01 X21.0666 Y5.4309
G01 X21.1424 Y5.3856
G01 X21.2222 Y5.3478
G01 X21.2312 Y5.3440
G01 X21.3144 Y5.3144
G01 X21.4000 Y5.2928
G01 X21.4096 Y5.2909
G01 X21.4994 Y5.2779
G01 X21.5900 Y5.2735
G01 X21.6782 Y5.2777
G01 X21.6879 Y5.2787
G01 X21.7752 Y5.2917
G01 X21.8656 Y5.3144
G01 X21.9488 Y5.3440
G01 X21.9578 Y5.3478
G01 X22.0397 Y5.3868
G01 X22.1175 Y5.4335
G01 X22.1885 Y5.4860
G01 X22.1961 Y5.4922
G01 X22.2631 Y5.5534
G01 X22.3240 Y5.6206
G01 X22.3781 Y5.6935
G01 X22.3821 Y5.6996
G01 X22.4262 Y5.7733
G01 X22.4502 Y5.8234
G01 X23.0765 Y5.8233
G01 X23.0765 Y5.7596
G01 X23.0782 Y5.7277
G01 X23.0832 Y5.6938
G01 X23.0909 Y5.6629
G01 X23.1031 Y5.6283
G01 X23.1178 Y5.5972
G01 X23.1354 Y5.5678
G01 X23.1543 Y5.5422
G01 X23.1789 Y5.5149
G01 X23.2043 Y5.4918
G01 X23.2318 Y5.4714
G01 X23.2612 Y5.4538
G01 X23.2923 Y5.4391
G01 X23.3245 Y5.4275
G01 X23.3578 Y5.4192
G01 X23.3917 Y5.4142
G01 X23.4260 Y5.4125
G01 X24.3260 Y5.4125
G01 X24.3582 Y5.4140
G01 X24.3880 Y5.4181
G01 X24.4216 Y5.4258
G01 X24.4479 Y5.4345
G01 X24.4565 Y5.4379
G01 X24.4818 Y5.4491
G01 X24.5060 Y5.4625
G01 X24.5138 Y5.4674
G01 X24.5366 Y5.4831
G01 X24.5580 Y5.5007
G01 X24.5648 Y5.5069
G01 X24.5843 Y5.5265
G01 X24.6021 Y5.5478
G01 X24.6076 Y5.5551
G01 X24.6232 Y5.5780
G01 X24.6399 Y5.6083
G01 X24.6519 Y5.6357
G01 X24.6608 Y5.6620
G01 X24.6633 Y5.6708
G01 X24.6695 Y5.6978
G01 X24.6735 Y5.7252
G01 X24.6743 Y5.7343
G01 X24.6755 Y5.7597
G01 X24.6755 Y6.4120
G01 X24.6738 Y6.4463
G01 X24.6696 Y6.4754
G01 X24.6677 Y6.4849
G01 X24.6605 Y6.5135
G01 X24.6507 Y6.5412
G01 X24.6469 Y6.5502
G01 X24.6342 Y6.5768
G01 X24.6192 Y6.6020
G01 X24.6138 Y6.6102
G01 X24.5977 Y6.6318
G01 X24.5731 Y6.6591
G01 X24.5514 Y6.6790
G01 X24.5439 Y6.6852
G01 X24.5202 Y6.7026
G01 X24.4950 Y6.7178
G01 X24.4886 Y6.7214
G01 X24.4642 Y6.7329
G01 X24.4552 Y6.7367
G01 X24.4275 Y6.7465
G01 X24.3942 Y6.7548
G01 X24.3603 Y6.7598
G01 X24.3284 Y6.7615
G01 X23.4260 Y6.7615
G01 X23.3966 Y6.7602
G01 X23.3869 Y6.7592
G01 X23.3578 Y6.7548
G01 X23.3245 Y6.7465
G01 X23.2923 Y6.7349
G01 X23.2591 Y6.7191
G01 X23.2318 Y6.7026
G01 X23.2024 Y6.6806
G01 X23.1772 Y6.6574
G01 X23.1574 Y6.6356
G01 X23.1475 Y6.6226
G01 X22.4502 Y6.6227
G00 Z1.0000
G00 X24.1342 Y8.8115
G01 F60.00
G01 Z-0.0940
G01 F120.00
G01 X23.4260 Y8.8115
G01 X23.3917 Y8.8098
G01 X23.3626 Y8.8056
G01 X23.3531 Y8.8037
G01 X23.3245 Y8.7965
G01 X23.2923 Y8.7849
G01 X23.2612 Y8.7702
G01 X23.2318 Y8.7526
G01 X23.2043 Y8.7322
G01 X23.1789 Y8.7091
G01 X23.1558 Y8.6837
G01 X23.1368 Y8.6582
G01 X23.1202 Y8.6310
G01 X23.1156 Y8.6224
G01 X23.1031 Y8.5957
G01 X23.0931 Y8.5681
G01 X23.0902 Y8.5587
G01 X23.0832 Y8.5302
G01 X23.0780 Y8.4938
G01 X23.0765 Y8.4620
G01 X23.0765 Y7.8120
G01 X23.0780 Y7.7802
G01 X23.0832 Y7.7438
G01 X23.0915 Y7.7105
G01 X23.1031 Y7.6783
G01 X23.1156 Y7.6516
G01 X23.1202 Y7.6430
G01 X23.1341 Y7.6199
G01 X23.1382 Y7.6138
G01 X23.1558 Y7.5903
G01 X23.1755 Y7.5684
G01 X23.1824 Y7.5615
G01 X23.2043 Y7.5418
G01 X23.2298 Y7.5228
G01 X23.2570 Y7.5062
G01 X23.2656 Y7.5016
G01 X23.2923 Y7.4891
G01 X23.3245 Y7.4775
G01 X23.3531 Y7.4703
G01 X23.3626 Y7.4684
G01 X23.3917 Y7.4642
G01 X23.4236 Y7.4625
G01 X24.3283 Y7.4625
G01 X24.3582 Y7.4640
G01 X24.3902 Y7.4685
G01 X24.4216 Y7.4758
G01 X24.4501 Y7.4853
G01 X24.4818 Y7.4991
G01 X24.5060 Y7.5125
G01 X24.5138 Y7.5174
G01 X24.5366 Y7.5331
G01 X24.5580 Y7.5507
G01 X24.5648 Y7.5569
G01 X24.5843 Y7.5765
G01 X24.6049 Y7.6014
G01 X24.6206 Y7.6242
G01 X24.6255 Y7.6320
G01 X24.6389 Y7.6562
G01 X24.6501 Y7.6815
G01 X24.6535 Y7.6901
G01 X24.6622 Y7.7164
G01 X24.6686 Y7.7433
G01 X24.6703 Y7.7523
G01 X24.6740 Y7.7798
G01 X24.6755 Y7.8097
G01 X24.6755 Y8.2644
G01 X26.2485 Y8.2644
G01 X26.2730 Y8.2655
G01 X26.2827 Y8.2664
G01 X26.3070 Y8.2701
G01 X26.3308 Y8.2760
G01 X26.3401 Y8.2788
G01 X26.3632 Y8.2872
G01 X26.3919 Y8.3009
G01 X26.4129 Y8.3135
G01 X26.4190 Y8.3177
G01 X26.4386 Y8.3324
G01 X26.4568 Y8.3488
G01 X26.9526 Y8.8444
G01 X28.5224 Y8.8444
G01 X28.5494 Y8.8458
G01 X28.5785 Y8.8502
G01 X28.6070 Y8.8573
G01 X28.6301 Y8.8654
G01 X28.6369 Y8.8682
G01 X28.6591 Y8.8787
G01 X28.6844 Y8.8936
G01 X28.7101 Y8.9124
G01 X28.7301 Y8.9304
G01 X29.6888 Y9.8891
G01 X29.6933 Y9.8825
G01 X29.7460 Y9.8116
G01 X29.8052 Y9.7461
G01 X29.8121 Y9.7392
G01 X29.8739 Y9.6832
G01 X29.8815 Y9.6770
G01 X29.9525 Y9.6245
G01 X30.0324 Y9.5766
G01 X30.1166 Y9.5368
G01 X30.2044 Y9.5054
G01 X30.2948 Y9.4827
G01 X30.3821 Y9.4697
G01 X30.3918 Y9.4687
G01 X30.4751 Y9.4646
G01 X30.4849 Y9.4646
G01 X30.5731 Y9.4691
G01 X30.6652 Y9.4827
G01 X30.7556 Y9.5054
G01 X30.8411 Y9.5359
G01 X30.8478 Y9.5388
G01 X30.9276 Y9.5766
G01 X31.0075 Y9.6245
G01 X31.0824 Y9.6800
G01 X31.1479 Y9.7392
G01 X31.1548 Y9.7461
G01 X31.2140 Y9.8116
G01 X31.2667 Y9.8825
G01 X31.2721 Y9.8906
G01 X31.3150 Y9.9622
G01 X31.3196 Y9.9708
G01 X31.3572 Y10.0506
G01 X31.3886 Y10.1384
G01 X31.4113 Y10.2288
G01 X31.4249 Y10.3209
G01 X31.4295 Y10.4140
G01 X31.4249 Y10.5071
G01 X31.4113 Y10.5992
G01 X31.3899 Y10.6849
G01 X31.3871 Y10.6943
G01 X31.3572 Y10.7774
G01 X31.3174 Y10.8616
G01 X31.2695 Y10.9415
G01 X31.2140 Y11.0164
G01 X31.1514 Y11.0854
G01 X31.0824 Y11.1480
G01 X31.0075 Y11.2035
G01 X30.9276 Y11.2514
G01 X30.8434 Y11.2912
G01 X30.7556 Y11.3226
G01 X30.6652 Y11.3453
G01 X30.5731 Y11.3589
G01 X30.4800 Y11.3635
G01 X30.3869 Y11.3589
G01 X30.2948 Y11.3453
G01 X30.2091 Y11.3239
G01 X30.1997 Y11.3211
G01 X30.1166 Y11.2912
G01 X30.0368 Y11.2536
G01 X30.0282 Y11.2490
G01 X29.9525 Y11.2035
G01 X29.8815 Y11.1510
G01 X29.8739 Y11.1448
G01 X29.8069 Y11.0836
G01 X29.7460 Y11.0164
G01 X29.6933 Y10.9455
G01 X29.6879 Y10.9374
G01 X29.6426 Y10.8616
G01 X29.6028 Y10.7774
G01 X29.5729 Y10.6943
G01 X29.5701 Y10.6849
G01 X29.5498 Y10.6040
G01 X29.5481 Y10.5958
G01 X28.3959 Y9.4436
G01 X26.8285 Y9.4436
G01 X26.8040 Y9.4425
G01 X26.7943 Y9.4416
G01 X26.7701 Y9.4378
G01 X26.7463 Y9.4320
G01 X26.7369 Y9.4292
G01 X26.7139 Y9.4208
G01 X26.6852 Y9.4070
G01 X26.6641 Y9.3944
G01 X26.6581 Y9.3903
G01 X26.6385 Y9.3756
G01 X26.6202 Y9.3592
G01 X26.1244 Y8.8636
G01 X24.3005 Y8.8636
G01 X24.2736 Y8.8621
G01 X24.2494 Y8.8587
G01 X24.2398 Y8.8568
G01 X24.2160 Y8.8507
G01 X24.1883 Y8.8408
G01 X24.1661 Y8.8304
G01 X24.1575 Y8.8258
G01 X24.1342 Y8.8115
G00 Z1.0000
G00 X21.5949 Y2.6066
G01 F60.00
G01 Z-0.0940
G01 F120.00
G01 X21.6831 Y2.6111
G01 X21.7704 Y2.6239
G01 X21.7800 Y2.6258
G01 X21.8656 Y2.6474
G01 X21.9534 Y2.6788
G01 X22.0332 Y2.7164
G01 X22.0418 Y2.7210
G01 X22.1134 Y2.7639
G01 X22.1215 Y2.7693
G01 X22.1924 Y2.8220
G01 X22.2579 Y2.8812
G01 X22.2648 Y2.8881
G01 X22.3208 Y2.9499
G01 X22.3270 Y2.9575
G01 X22.3795 Y3.0285
G01 X22.4274 Y3.1084
G01 X22.4672 Y3.1926
G01 X22.4902 Y3.2564
G01 X23.2439 Y3.2564
G01 X23.4729 Y3.0274
G01 X23.4729 Y2.3215
G01 X23.4418 Y2.3168
G01 X23.4133 Y2.3098
G01 X23.4039 Y2.3069
G01 X23.3785 Y2.2978
G01 X23.3718 Y2.2949
G01 X23.3452 Y2.2822
G01 X23.3158 Y2.2646
G01 X23.2883 Y2.2442
G01 X23.2664 Y2.2245
G01 X23.2612 Y2.2194
G01 X23.2430 Y2.1994
G01 X23.2368 Y2.1919
G01 X23.2194 Y2.1682
G01 X23.2018 Y2.1388
G01 X23.1891 Y2.1122
G01 X23.1853 Y2.1032
G01 X23.1755 Y2.0755
G01 X23.1672 Y2.0422
G01 X23.1622 Y2.0083
G01 X23.1605 Y1.9740
G01 X23.1605 Y1.0716
G01 X23.1622 Y1.0397
G01 X23.1672 Y1.0058
G01 X23.1755 Y0.9725
G01 X23.1881 Y0.9380
G01 X23.2018 Y0.9092
G01 X23.2168 Y0.8840
G01 X23.2222 Y0.8758
G01 X23.2398 Y0.8523
G01 X23.2595 Y0.8304
G01 X23.2664 Y0.8235
G01 X23.2883 Y0.8038
G01 X23.3118 Y0.7862
G01 X23.3200 Y0.7808
G01 X23.3474 Y0.7646
G01 X23.3763 Y0.7511
G01 X23.4039 Y0.7411
G01 X23.4133 Y0.7382
G01 X23.4418 Y0.7312
G01 X23.4709 Y0.7268
G01 X23.4806 Y0.7258
G01 X23.5100 Y0.7245
G01 X24.0350 Y0.7245
G01 X24.0693 Y0.7262
G01 X24.1008 Y0.7308
G01 X24.1365 Y0.7395
G01 X24.1687 Y0.7511
G01 X24.1998 Y0.7658
G01 X24.2292 Y0.7834
G01 X24.2567 Y0.8038
G01 X24.2821 Y0.8269
G01 X24.3052 Y0.8523
G01 X24.3269 Y0.8819
G01 X24.3408 Y0.9050
G01 X24.3454 Y0.9136
G01 X24.3579 Y0.9403
G01 X24.3679 Y0.9679
G01 X24.3708 Y0.9773
G01 X24.3778 Y1.0058
G01 X24.3822 Y1.0349
G01 X24.3832 Y1.0446
G01 X24.3845 Y1.0740
G01 X24.3845 Y1.9740
G01 X24.3825 Y2.0107
G01 X24.3778 Y2.0422
G01 X24.3695 Y2.0755
G01 X24.3579 Y2.1077
G01 X24.3454 Y2.1344
G01 X24.3421 Y2.1409
G01 X24.3282 Y2.1640
G01 X24.3228 Y2.1722
G01 X24.3052 Y2.1957
G01 X24.2821 Y2.2211
G01 X24.2567 Y2.2442
G01 X24.2332 Y2.2618
G01 X24.2250 Y2.2672
G01 X24.2019 Y2.2811
G01 X24.1954 Y2.2844
G01 X24.1687 Y2.2969
G01 X24.1365 Y2.3085
G01 X24.1032 Y2.3168
G01 X24.0721 Y2.3215
G01 X24.0721 Y3.1539
G01 X24.0709 Y3.1784
G01 X24.0701 Y3.1857
G01 X24.0663 Y3.2099
G01 X24.0599 Y3.2361
G01 X24.0493 Y3.2662
G01 X24.0389 Y3.2884
G01 X24.0343 Y3.2970
G01 X24.0216 Y3.3179
G01 X24.0071 Y3.3377
G01 X24.0025 Y3.3434
G01 X23.9877 Y3.3598
G01 X23.5798 Y3.7678
G01 X23.5581 Y3.7876
G01 X23.5324 Y3.8064
G01 X23.5092 Y3.8202
G01 X23.4871 Y3.8308
G01 X23.4781 Y3.8346
G01 X23.4550 Y3.8427
G01 X23.4312 Y3.8488
G01 X23.4216 Y3.8507
G01 X23.3974 Y3.8542
G01 X23.3729 Y3.8555
G01 X22.4902 Y3.8556
G01 X22.4672 Y3.9194
G01 X22.4296 Y3.9992
G01 X22.4250 Y4.0078
G01 X22.3795 Y4.0835
G01 X22.3270 Y4.1545
G01 X22.3208 Y4.1621
G01 X22.2614 Y4.2274
G01 X22.1961 Y4.2868
G01 X22.1885 Y4.2930
G01 X22.1175 Y4.3455
G01 X22.0418 Y4.3910
G01 X22.0332 Y4.3956
G01 X21.9534 Y4.4332
G01 X21.8703 Y4.4631
G01 X21.8609 Y4.4659
G01 X21.7776 Y4.4867
G01 X21.7704 Y4.4881
G01 X21.6831 Y4.5009
G01 X21.5900 Y4.5055
G01 X21.4969 Y4.5009
G01 X21.4048 Y4.4873
G01 X21.3144 Y4.4646
G01 X21.2266 Y4.4332
G01 X21.1424 Y4.3934
G01 X21.0645 Y4.3468
G01 X20.9915 Y4.2930
G01 X20.9839 Y4.2868
G01 X20.9186 Y4.2274
G01 X20.8560 Y4.1584
G01 X20.8005 Y4.0835
G01 X20.7550 Y4.0078
G01 X20.7504 Y3.9992
G01 X20.7148 Y3.9238
G01 X20.7110 Y3.9148
G01 X20.6814 Y3.8316
G01 X20.6587 Y3.7412
G01 X20.6451 Y3.6491
G01 X20.6406 Y3.5609
G01 X20.6406 Y3.5511
G01 X20.6447 Y3.4678
G01 X20.6457 Y3.4581
G01 X20.6587 Y3.3708
G01 X20.6814 Y3.2804
G01 X20.7128 Y3.1926
G01 X20.7504 Y3.1128
G01 X20.7550 Y3.1042
G01 X20.7979 Y3.0326
G01 X20.8033 Y3.0245
G01 X20.8560 Y2.9536
G01 X20.9186 Y2.8846
G01 X20.9876 Y2.8220
G01 X21.0585 Y2.7693
G01 X21.0666 Y2.7639
G01 X21.1382 Y2.7210
G01 X21.1468 Y2.7164
G01 X21.2266 Y2.6788
G01 X21.3144 Y2.6474
G01 X21.4048 Y2.6247
G01 X21.4921 Y2.6117
G01 X21.5018 Y2.6107
G01 X21.5851 Y2.6066
G01 X21.5949 Y2.6066
G00 Z1.0000
G00 X19.0549 Y2.6066
G01 F60.00
G01 Z-0.0940
G01 F120.00
G01 X19.1431 Y2.6111
G01 X19.2304 Y2.6239
G01 X19.2400 Y2.6258
G01 X19.3209 Y2.6461
G01 X19.3303 Y2.6489
G01 X19.4134 Y2.6788
G01 X19.4747 Y2.7076
G01 X19.8695 Y2.3128
G01 X19.8502 Y2.3077
G01 X19.8180 Y2.2959
G01 X19.7892 Y2.2822
G01 X19.7619 Y2.2659
G01 X19.7361 Y2.2472
G01 X19.7286 Y2.2410
G01 X19.7069 Y2.2211
G01 X19.6854 Y2.1976
G01 X19.6662 Y2.1722
G01 X19.6608 Y2.1640
G01 X19.6458 Y2.1388
G01 X19.6311 Y2.1077
G01 X19.6195 Y2.0755
G01 X19.6123 Y2.0470
G01 X19.6108 Y2.0398
G01 X19.6068 Y2.0131
G01 X19.6058 Y2.0034
G01 X19.6045 Y1.9740
G01 X19.6045 Y1.0740
G01 X19.6062 Y1.0397
G01 X19.6104 Y1.0106
G01 X19.6123 Y1.0010
G01 X19.6195 Y0.9725
G01 X19.6311 Y0.9403
G01 X19.6458 Y0.9092
G01 X19.6608 Y0.8840
G01 X19.6662 Y0.8758
G01 X19.6823 Y0.8542
G01 X19.6870 Y0.8486
G01 X19.7069 Y0.8269
G01 X19.7286 Y0.8070
G01 X19.7361 Y0.8008
G01 X19.7598 Y0.7834
G01 X19.7914 Y0.7646
G01 X19.8203 Y0.7511
G01 X19.8479 Y0.7411
G01 X19.8573 Y0.7382
G01 X19.8858 Y0.7312
G01 X19.9149 Y0.7268
G01 X19.9246 Y0.7258
G01 X19.9516 Y0.7245
G01 X20.4839 Y0.7246
G01 X20.5133 Y0.7262
G01 X20.5472 Y0.7312
G01 X20.5805 Y0.7395
G01 X20.6150 Y0.7521
G01 X20.6438 Y0.7658
G01 X20.6732 Y0.7834
G01 X20.7007 Y0.8038
G01 X20.7261 Y0.8269
G01 X20.7492 Y0.8523
G01 X20.7696 Y0.8798
G01 X20.7872 Y0.9092
G01 X20.8009 Y0.9380
G01 X20.8119 Y0.9679
G01 X20.8148 Y0.9773
G01 X20.8218 Y1.0058
G01 X20.8268 Y1.0397
G01 X20.8285 Y1.0740
G01 X20.8285 Y1.2244
G01 X21.3355 Y1.2244
G01 X21.3355 Y1.0740
G01 X21.3375 Y1.0373
G01 X21.3422 Y1.0058
G01 X21.3505 Y0.9725
G01 X21.3621 Y0.9403
G01 X21.3779 Y0.9071
G01 X21.3944 Y0.8798
G01 X21.4118 Y0.8561
G01 X21.4180 Y0.8486
G01 X21.4379 Y0.8269
G01 X21.4596 Y0.8070
G01 X21.4652 Y0.8023
G01 X21.4868 Y0.7862
G01 X21.4950 Y0.7808
G01 X21.5202 Y0.7658
G01 X21.5513 Y0.7511
G01 X21.5835 Y0.7395
G01 X21.6192 Y0.7308
G01 X21.6507 Y0.7262
G01 X21.6850 Y0.7245
G01 X22.2100 Y0.7245
G01 X22.2443 Y0.7262
G01 X22.2782 Y0.7312
G01 X22.3115 Y0.7395
G01 X22.3392 Y0.7493
G01 X22.3482 Y0.7531
G01 X22.3726 Y0.7646
G01 X22.3790 Y0.7682
G01 X22.4042 Y0.7834
G01 X22.4279 Y0.8008
G01 X22.4354 Y0.8070
G01 X22.4571 Y0.8269
G01 X22.4802 Y0.8523
G01 X22.5006 Y0.8798
G01 X22.5194 Y0.9114
G01 X22.5329 Y0.9403
G01 X22.5429 Y0.9679
G01 X22.5458 Y0.9773
G01 X22.5528 Y1.0058
G01 X22.5572 Y1.0349
G01 X22.5580 Y1.0422
G01 X22.5594 Y1.0691
G01 X22.5594 Y1.9789
G01 X22.5578 Y2.0083
G01 X22.5528 Y2.0422
G01 X22.5445 Y2.0755
G01 X22.5329 Y2.1077
G01 X22.5182 Y2.1388
G01 X22.5006 Y2.1682
G01 X22.4802 Y2.1957
G01 X22.4588 Y2.2194
G01 X22.4317 Y2.2442
G01 X22.4082 Y2.2618
G01 X22.4000 Y2.2672
G01 X22.3769 Y2.2811
G01 X22.3704 Y2.2844
G01 X22.3437 Y2.2969
G01 X22.3115 Y2.3085
G01 X22.2782 Y2.3168
G01 X22.2467 Y2.3215
G01 X22.2100 Y2.3235
G01 X21.6850 Y2.3235
G01 X21.6507 Y2.3218
G01 X21.6216 Y2.3176
G01 X21.6120 Y2.3157
G01 X21.5812 Y2.3077
G01 X21.5558 Y2.2987
G01 X21.5468 Y2.2949
G01 X21.5224 Y2.2834
G01 X21.5160 Y2.2798
G01 X21.4908 Y2.2646
G01 X21.4671 Y2.2472
G01 X21.4596 Y2.2410
G01 X21.4379 Y2.2211
G01 X21.4148 Y2.1957
G01 X21.3944 Y2.1682
G01 X21.3779 Y2.1409
G01 X21.3621 Y2.1077
G01 X21.3505 Y2.0755
G01 X21.3422 Y2.0422
G01 X21.3375 Y2.0107
G01 X21.3355 Y1.9740
G01 X21.3355 Y1.8236
G01 X20.8285 Y1.8236
G01 X20.8285 Y1.9764
G01 X20.8268 Y2.0083
G01 X20.8222 Y2.0398
G01 X20.8135 Y2.0755
G01 X20.8019 Y2.1077
G01 X20.7872 Y2.1388
G01 X20.7682 Y2.1702
G01 X20.7492 Y2.1957
G01 X20.7261 Y2.2211
G01 X20.7007 Y2.2442
G01 X20.6772 Y2.2618
G01 X20.6690 Y2.2672
G01 X20.6438 Y2.2822
G01 X20.6172 Y2.2949
G01 X20.6105 Y2.2978
G01 X20.5851 Y2.3069
G01 X20.5757 Y2.3098
G01 X20.5472 Y2.3168
G01 X20.5161 Y2.3215
G01 X20.5161 Y2.3919
G01 X20.5149 Y2.4164
G01 X20.5103 Y2.4479
G01 X20.5045 Y2.4718
G01 X20.5025 Y2.4788
G01 X20.4942 Y2.5019
G01 X20.4818 Y2.5286
G01 X20.4656 Y2.5559
G01 X20.4496 Y2.5777
G01 X20.4283 Y2.6013
G01 X19.8984 Y3.1313
G01 X19.9272 Y3.1926
G01 X19.9571 Y3.2757
G01 X19.9599 Y3.2851
G01 X19.9813 Y3.3708
G01 X19.9943 Y3.4581
G01 X19.9953 Y3.4678
G01 X19.9995 Y3.5560
G01 X19.9951 Y3.6466
G01 X19.9943 Y3.6539
G01 X19.9813 Y3.7412
G01 X19.9599 Y3.8269
G01 X19.9571 Y3.8363
G01 X19.9272 Y3.9194
G01 X19.8896 Y3.9992
G01 X19.8850 Y4.0078
G01 X19.8395 Y4.0835
G01 X19.7870 Y4.1545
G01 X19.7808 Y4.1621
G01 X19.7214 Y4.2274
G01 X19.6561 Y4.2868
G01 X19.6485 Y4.2930
G01 X19.5775 Y4.3455
G01 X19.4976 Y4.3934
G01 X19.4134 Y4.4332
G01 X19.3303 Y4.4631
G01 X19.3209 Y4.4659
G01 X19.2352 Y4.4873
G01 X19.1479 Y4.5003
G01 X19.1382 Y4.5013
G01 X19.0500 Y4.5055
G01 X18.9569 Y4.5009
G01 X18.8648 Y4.4873
G01 X18.7744 Y4.4646
G01 X18.6866 Y4.4332
G01 X18.6024 Y4.3934
G01 X18.5225 Y4.3455
G01 X18.4476 Y4.2900
G01 X18.3786 Y4.2274
G01 X18.3160 Y4.1584
G01 X18.2605 Y4.0835
G01 X18.2126 Y4.0036
G01 X18.1728 Y3.9194
G01 X18.1414 Y3.8316
G01 X18.1187 Y3.7412
G01 X18.1051 Y3.6491
G01 X18.1005 Y3.5560
G01 X18.1051 Y3.4629
G01 X18.1187 Y3.3708
G01 X18.1414 Y3.2804
G01 X18.1728 Y3.1926
G01 X18.2126 Y3.1084
G01 X18.2605 Y3.0285
G01 X18.3160 Y2.9536
G01 X18.3786 Y2.8846
G01 X18.4476 Y2.8220
G01 X18.5225 Y2.7665
G01 X18.6024 Y2.7186
G01 X18.6866 Y2.6788
G01 X18.7744 Y2.6474
G01 X18.8648 Y2.6247
G01 X18.9569 Y2.6111
G01 X19.0451 Y2.6066
G01 X19.0549 Y2.6066
G00 Z1.0000
G00 X14.9405 Y2.9711
G01 F60.00
G01 Z-0.0940
G01 F120.00
G01 X14.9418 Y2.9466
G01 X14.9462 Y2.9175
G01 X14.9533 Y2.8890
G01 X14.9632 Y2.8613
G01 X14.9758 Y2.8348
G01 X14.9909 Y2.8095
G01 X15.0084 Y2.7859
G01 X15.0248 Y2.7677
G01 X15.6999 Y2.0924
G01 X15.7199 Y2.0744
G01 X15.7436 Y2.0569
G01 X15.7688 Y2.0418
G01 X15.7953 Y2.0292
G01 X15.8230 Y2.0193
G01 X15.8515 Y2.0122
G01 X15.8806 Y2.0078
G01 X15.9076 Y2.0064
G01 X17.1100 Y2.0064
G01 X17.1345 Y2.0075
G01 X17.1442 Y2.0084
G01 X17.1685 Y2.0122
G01 X17.1923 Y2.0180
G01 X17.2016 Y2.0208
G01 X17.2247 Y2.0292
G01 X17.2534 Y2.0430
G01 X17.2764 Y2.0569
G01 X17.2962 Y2.0714
G01 X17.3038 Y2.0776
G01 X17.3219 Y2.0941
G01 X17.9936 Y2.7659
G01 X18.0131 Y2.7878
G01 X18.0277 Y2.8075
G01 X18.0317 Y2.8137
G01 X18.0442 Y2.8348
G01 X18.0548 Y2.8569
G01 X18.0577 Y2.8636
G01 X18.0660 Y2.8867
G01 X18.0728 Y2.9128
G01 X18.0747 Y2.9224
G01 X18.0782 Y2.9466
G01 X18.0796 Y2.9760
G01 X18.0796 Y4.4479
G01 X18.1581 Y4.5264
G01 X19.5054 Y4.5264
G01 X19.5324 Y4.5278
G01 X19.5615 Y4.5322
G01 X19.5900 Y4.5393
G01 X19.6177 Y4.5492
G01 X19.6442 Y4.5618
G01 X19.6695 Y4.5769
G01 X19.6931 Y4.5944
G01 X19.7131 Y4.6124
G01 X20.5119 Y5.4111
G01 X20.5316 Y5.4329
G01 X20.5477 Y5.4545
G01 X20.5618 Y5.4775
G01 X20.5664 Y5.4861
G01 X20.5768 Y5.5083
G01 X20.5867 Y5.5360
G01 X20.5928 Y5.5598
G01 X20.5947 Y5.5694
G01 X20.5982 Y5.5936
G01 X20.5996 Y5.6206
G01 X20.5996 Y7.4492
G01 X22.0148 Y8.8644
G01 X26.0000 Y8.8644
G01 X26.0294 Y8.8658
G01 X26.0585 Y8.8702
G01 X26.0870 Y8.8773
G01 X26.1101 Y8.8854
G01 X26.1191 Y8.8892
G01 X26.1412 Y8.8998
G01 X26.1623 Y8.9123
G01 X26.1704 Y8.9177
G01 X26.1901 Y8.9324
G01 X26.2101 Y8.9504
G01 X27.1488 Y9.8891
G01 X27.1533 Y9.8825
G01 X27.2030 Y9.8155
G01 X27.2092 Y9.8079
G01 X27.2686 Y9.7426
G01 X27.3376 Y9.6800
G01 X27.4125 Y9.6245
G01 X27.4882 Y9.5790
G01 X27.4968 Y9.5744
G01 X27.5722 Y9.5388
G01 X27.5812 Y9.5350
G01 X27.6644 Y9.5054
G01 X27.7548 Y9.4827
G01 X27.8469 Y9.4691
G01 X27.9351 Y9.4646
G01 X27.9449 Y9.4646
G01 X28.0282 Y9.4687
G01 X28.0379 Y9.4697
G01 X28.1252 Y9.4827
G01 X28.2156 Y9.5054
G01 X28.3034 Y9.5368
G01 X28.3876 Y9.5766
G01 X28.4675 Y9.6245
G01 X28.5385 Y9.6770
G01 X28.5461 Y9.6832
G01 X28.6114 Y9.7426
G01 X28.6708 Y9.8079
G01 X28.6770 Y9.8155
G01 X28.7267 Y9.8825
G01 X28.7321 Y9.8906
G01 X28.7774 Y9.9664
G01 X28.8172 Y10.0506
G01 X28.8486 Y10.1384
G01 X28.8702 Y10.2240
G01 X28.8721 Y10.2336
G01 X28.8843 Y10.3161
G01 X28.8853 Y10.3258
G01 X28.8895 Y10.4140
G01 X28.8853 Y10.5022
G01 X28.8843 Y10.5119
G01 X28.8713 Y10.5992
G01 X28.8486 Y10.6896
G01 X28.8172 Y10.7774
G01 X28.7796 Y10.8572
G01 X28.7762 Y10.8637
G01 X28.7295 Y10.9415
G01 X28.6740 Y11.0164
G01 X28.6114 Y11.0854
G01 X28.5424 Y11.1480
G01 X28.4675 Y11.2035
G01 X28.3876 Y11.2514
G01 X28.3034 Y11.2912
G01 X28.2156 Y11.3226
G01 X28.1252 Y11.3453
G01 X28.0331 Y11.3589
G01 X27.9400 Y11.3635
G01 X27.8469 Y11.3589
G01 X27.7548 Y11.3453
G01 X27.6644 Y11.3226
G01 X27.5766 Y11.2912
G01 X27.4968 Y11.2536
G01 X27.4882 Y11.2490
G01 X27.4125 Y11.2035
G01 X27.3376 Y11.1480
G01 X27.2686 Y11.0854
G01 X27.2092 Y11.0201
G01 X27.2030 Y11.0125
G01 X27.1533 Y10.9455
G01 X27.1479 Y10.9374
G01 X27.1026 Y10.8616
G01 X27.0648 Y10.7818
G01 X27.0610 Y10.7728
G01 X27.0314 Y10.6896
G01 X27.0098 Y10.6040
G01 X27.0081 Y10.5958
G01 X25.8759 Y9.4636
G01 X21.8883 Y9.4636
G01 X21.8613 Y9.4622
G01 X21.8371 Y9.4587
G01 X21.8275 Y9.4568
G01 X21.8037 Y9.4507
G01 X21.7761 Y9.4408
G01 X21.7538 Y9.4304
G01 X21.7452 Y9.4258
G01 X21.7222 Y9.4117
G01 X21.7006 Y9.3956
G01 X21.6789 Y9.3758
G01 X20.0882 Y7.7851
G01 X20.0684 Y7.7634
G01 X20.0509 Y7.7397
G01 X20.0358 Y7.7145
G01 X20.0252 Y7.6924
G01 X20.0223 Y7.6857
G01 X20.0140 Y7.6626
G01 X20.0067 Y7.6341
G01 X20.0018 Y7.6027
G01 X20.0004 Y7.5757
G01 X20.0004 Y5.7471
G01 X19.3789 Y5.1256
G01 X18.0340 Y5.1256
G01 X18.0046 Y5.1242
G01 X17.9756 Y5.1198
G01 X17.9517 Y5.1140
G01 X17.9424 Y5.1112
G01 X17.9193 Y5.1028
G01 X17.8971 Y5.0924
G01 X17.8885 Y5.0878
G01 X17.8676 Y5.0751
G01 X17.8421 Y5.0560
G01 X17.8222 Y5.0378
G01 X17.5682 Y4.7838
G01 X17.5484 Y4.7621
G01 X17.5323 Y4.7405
G01 X17.5182 Y4.7175
G01 X17.5136 Y4.7089
G01 X17.5032 Y4.6867
G01 X17.4933 Y4.6590
G01 X17.4872 Y4.6352
G01 X17.4853 Y4.6256
G01 X17.4818 Y4.6014
G01 X17.4804 Y4.5744
G01 X17.4804 Y3.1001
G01 X16.9859 Y2.6056
G01 X16.0341 Y2.6056
G01 X15.5396 Y3.1001
G01 X15.5396 Y4.6704
G01 X16.1969 Y5.3277
G01 X16.2367 Y5.3137
G01 X16.3224 Y5.2923
G01 X16.4121 Y5.2787
G01 X16.4194 Y5.2779
G01 X16.5100 Y5.2735
G01 X16.5982 Y5.2777
G01 X16.6079 Y5.2787
G01 X16.6928 Y5.2913
G01 X16.7000 Y5.2928
G01 X16.7856 Y5.3144
G01 X16.8688 Y5.3440
G01 X16.8778 Y5.3478
G01 X16.9576 Y5.3856
G01 X17.0334 Y5.4309
G01 X17.0415 Y5.4363
G01 X17.1104 Y5.4875
G01 X17.1161 Y5.4922
G01 X17.1814 Y5.5516
G01 X17.2440 Y5.6206
G01 X17.2995 Y5.6955
G01 X17.3474 Y5.7754
G01 X17.3872 Y5.8596
G01 X17.4186 Y5.9474
G01 X17.4413 Y6.0378
G01 X17.4547 Y6.1275
G01 X17.4594 Y6.2181
G01 X17.4594 Y6.2279
G01 X17.4549 Y6.3161
G01 X17.4421 Y6.4034
G01 X17.4402 Y6.4130
G01 X17.4186 Y6.4986
G01 X17.3890 Y6.5818
G01 X17.3852 Y6.5908
G01 X17.3474 Y6.6706
G01 X17.3021 Y6.7464
G01 X17.2967 Y6.7545
G01 X17.2440 Y6.8254
G01 X17.1814 Y6.8944
G01 X17.1161 Y6.9538
G01 X17.1085 Y6.9600
G01 X17.0375 Y7.0125
G01 X16.9618 Y7.0580
G01 X16.9532 Y7.0626
G01 X16.8734 Y7.1002
G01 X16.7856 Y7.1316
G01 X16.7000 Y7.1532
G01 X16.6904 Y7.1551
G01 X16.6031 Y7.1679
G01 X16.5149 Y7.1724
G01 X16.5051 Y7.1724
G01 X16.4169 Y7.1679
G01 X16.3296 Y7.1551
G01 X16.3200 Y7.1532
G01 X16.2344 Y7.1316
G01 X16.1512 Y7.1020
G01 X16.1422 Y7.0982
G01 X16.0603 Y7.0592
G01 X15.9825 Y7.0125
G01 X15.9076 Y6.9570
G01 X15.8386 Y6.8944
G01 X15.7792 Y6.8291
G01 X15.7730 Y6.8215
G01 X15.7205 Y6.7505
G01 X15.6750 Y6.6748
G01 X15.6704 Y6.6662
G01 X15.6328 Y6.5864
G01 X15.6029 Y6.5033
G01 X15.6001 Y6.4939
G01 X15.5798 Y6.4130
G01 X15.5779 Y6.4034
G01 X15.5651 Y6.3161
G01 X15.5605 Y6.2230
G01 X15.5651 Y6.1299
G01 X15.5787 Y6.0378
G01 X15.6014 Y5.9474
G01 X15.6328 Y5.8596
G01 X15.6726 Y5.7754
G01 X15.7193 Y5.6974
G01 X15.0264 Y5.0046
G01 X15.0100 Y4.9864
G01 X15.0054 Y4.9807
G01 X14.9909 Y4.9609
G01 X14.9782 Y4.9399
G01 X14.9736 Y4.9313
G01 X14.9632 Y4.9091
G01 X14.9526 Y4.8791
G01 X14.9462 Y4.8529
G01 X14.9424 Y4.8287
G01 X14.9415 Y4.8190
G01 X14.9404 Y4.7945
G01 X14.9405 Y2.9711
G00 Z1.0000
G00 X1.2985 Y18.5571
G01 F60.00
G01 Z-0.0940
G01 F120.00
G01 X1.3003 Y18.5228
G01 X1.3060 Y18.4840
G01 X1.3156 Y18.4460
G01 X1.3270 Y18.4136
G01 X1.3307 Y18.4046
G01 X1.3433 Y18.3780
G01 X1.3479 Y18.3694
G01 X1.3657 Y18.3400
G01 X1.3891 Y18.3085
G01 X1.4154 Y18.2794
G01 X2.0603 Y17.6345
G01 X2.0603 Y2.3060
G01 X2.0619 Y2.2717
G01 X2.0629 Y2.2620
G01 X2.0680 Y2.2280
G01 X2.0769 Y2.1923
G01 X2.0908 Y2.1531
G01 X2.1075 Y2.1176
G01 X2.1277 Y2.0840
G01 X2.1495 Y2.0544
G01 X2.1774 Y2.0234
G01 X2.2774 Y1.9234
G01 X2.3046 Y1.8986
G01 X2.3340 Y1.8765
G01 X2.3421 Y1.8711
G01 X2.3716 Y1.8535
G01 X2.4071 Y1.8368
G01 X2.4393 Y1.8251
G01 X2.4487 Y1.8223
G01 X2.4820 Y1.8140
G01 X2.5208 Y1.8083
G01 X2.5600 Y1.8063
G01 X6.0160 Y1.8063
G01 X6.0503 Y1.8079
G01 X6.0600 Y1.8089
G01 X6.0940 Y1.8140
G01 X6.1297 Y1.8229
G01 X6.1689 Y1.8368
G01 X6.2044 Y1.8535
G01 X6.2380 Y1.8737
G01 X6.2657 Y1.8941
G01 X6.2732 Y1.9003
G01 X6.2986 Y1.9234
G01 X6.6326 Y2.2574
G01 X6.6589 Y2.2865
G01 X6.6809 Y2.3160
G01 X6.7025 Y2.3516
G01 X6.7192 Y2.3871
G01 X6.7324 Y2.4240
G01 X6.7424 Y2.4644
G01 X6.7477 Y2.5008
G01 X6.7496 Y2.5376
G01 X6.7497 Y2.6958
G01 X6.7997 Y2.7198
G01 X6.8755 Y2.7652
G01 X6.8815 Y2.7693
G01 X6.9542 Y2.8236
G01 X7.0214 Y2.8846
G01 X7.0808 Y2.9499
G01 X7.0870 Y2.9575
G01 X7.1381 Y3.0265
G01 X7.1421 Y3.0326
G01 X7.1874 Y3.1084
G01 X7.2252 Y3.1882
G01 X7.2290 Y3.1972
G01 X7.2586 Y3.2804
G01 X7.2802 Y3.3660
G01 X7.2821 Y3.3756
G01 X7.2949 Y3.4629
G01 X7.2995 Y3.5560
G01 X7.2953 Y3.6442
G01 X7.2943 Y3.6539
G01 X7.2813 Y3.7412
G01 X7.2586 Y3.8316
G01 X7.2290 Y3.9148
G01 X7.2252 Y3.9238
G01 X7.1862 Y4.0057
G01 X7.1395 Y4.0835
G01 X7.0870 Y4.1545
G01 X7.0808 Y4.1621
G01 X7.0196 Y4.2291
G01 X6.9524 Y4.2900
G01 X6.8795 Y4.3441
G01 X6.8734 Y4.3481
G01 X6.7997 Y4.3922
G01 X6.7496 Y4.4162
G01 X6.7497 Y5.3628
G01 X6.7997 Y5.3868
G01 X6.8755 Y5.4322
G01 X6.8815 Y5.4363
G01 X6.9542 Y5.4906
G01 X7.0214 Y5.5516
G01 X7.0808 Y5.6169
G01 X7.0870 Y5.6245
G01 X7.1408 Y5.6975
G01 X7.1874 Y5.7754
G01 X7.2252 Y5.8552
G01 X7.2290 Y5.8642
G01 X7.2586 Y5.9474
G01 X7.2813 Y6.0378
G01 X7.2943 Y6.1251
G01 X7.2953 Y6.1348
G01 X7.2995 Y6.2230
G01 X7.2953 Y6.3112
G01 X7.2943 Y6.3209
G01 X7.2813 Y6.4082
G01 X7.2586 Y6.4986
G01 X7.2290 Y6.5818
G01 X7.2252 Y6.5908
G01 X7.1874 Y6.6706
G01 X7.1408 Y6.7485
G01 X7.0870 Y6.8215
G01 X7.0808 Y6.8291
G01 X7.0214 Y6.8944
G01 X6.9542 Y6.9554
G01 X6.8815 Y7.0097
G01 X6.8755 Y7.0138
G01 X6.7997 Y7.0592
G01 X6.7496 Y7.0832
G01 X6.7497 Y7.7085
G01 X7.4315 Y8.3904
G01 X11.8380 Y8.3904
G01 X11.8772 Y8.3923
G01 X11.9160 Y8.3980
G01 X11.9540 Y8.4076
G01 X11.9932 Y8.4217
G01 X12.0264 Y8.4375
G01 X12.0600 Y8.4577
G01 X12.0915 Y8.4811
G01 X12.1188 Y8.5057
G01 X12.8573 Y9.2442
G01 X12.8819 Y9.2715
G01 X12.9053 Y9.3030
G01 X12.9255 Y9.3366
G01 X12.9431 Y9.3743
G01 X12.9554 Y9.4090
G01 X12.9654 Y9.4494
G01 X12.9709 Y9.4883
G01 X12.9726 Y9.5226
G01 X12.9726 Y9.5538
G01 X13.0227 Y9.5778
G01 X13.0985 Y9.6232
G01 X13.1045 Y9.6273
G01 X13.1772 Y9.6816
G01 X13.2444 Y9.7426
G01 X13.3038 Y9.8079
G01 X13.3100 Y9.8155
G01 X13.3625 Y9.8865
G01 X13.4104 Y9.9664
G01 X13.4502 Y10.0506
G01 X13.4816 Y10.1384
G01 X13.5032 Y10.2240
G01 X13.5051 Y10.2336
G01 X13.5173 Y10.3161
G01 X13.5183 Y10.3258
G01 X13.5225 Y10.4140
G01 X13.5183 Y10.5022
G01 X13.5173 Y10.5119
G01 X13.5043 Y10.5992
G01 X13.4823 Y10.6873
G01 X13.4801 Y10.6943
G01 X13.4502 Y10.7774
G01 X13.4126 Y10.8572
G01 X13.4080 Y10.8658
G01 X13.3625 Y10.9415
G01 X13.3100 Y11.0125
G01 X13.3038 Y11.0201
G01 X13.2444 Y11.0854
G01 X13.1754 Y11.1480
G01 X13.1045 Y11.2007
G01 X13.0964 Y11.2061
G01 X13.0206 Y11.2514
G01 X12.9408 Y11.2892
G01 X12.9318 Y11.2930
G01 X12.8486 Y11.3226
G01 X12.7582 Y11.3453
G01 X12.6709 Y11.3583
G01 X12.6612 Y11.3593
G01 X12.5730 Y11.3635
G01 X12.4848 Y11.3593
G01 X12.4751 Y11.3583
G01 X12.3878 Y11.3453
G01 X12.3021 Y11.3239
G01 X12.2927 Y11.3211
G01 X12.2096 Y11.2912
G01 X12.1298 Y11.2536
G01 X12.1212 Y11.2490
G01 X12.0455 Y11.2035
G01 X11.9706 Y11.1480
G01 X11.9051 Y11.0888
G01 X11.8982 Y11.0819
G01 X11.8390 Y11.0164
G01 X11.7863 Y10.9455
G01 X11.7809 Y10.9374
G01 X11.7356 Y10.8616
G01 X11.6958 Y10.7774
G01 X11.6644 Y10.6896
G01 X11.6428 Y10.6040
G01 X11.6409 Y10.5944
G01 X11.6281 Y10.5071
G01 X11.6236 Y10.4189
G01 X11.6236 Y10.4091
G01 X11.6279 Y10.3234
G01 X11.6287 Y10.3161
G01 X11.6417 Y10.2288
G01 X11.6631 Y10.1431
G01 X11.6659 Y10.1337
G01 X11.6958 Y10.0506
G01 X11.7334 Y9.9708
G01 X11.7380 Y9.9622
G01 X11.7822 Y9.8885
G01 X11.7863 Y9.8825
G01 X11.8390 Y9.8116
G01 X11.8982 Y9.7461
G01 X11.9034 Y9.7409
G01 X11.9669 Y9.6832
G01 X11.9726 Y9.6785
G01 X12.0435 Y9.6259
G01 X12.0841 Y9.6013
G01 X11.6725 Y9.1896
G01 X7.2636 Y9.1896
G01 X7.2268 Y9.1877
G01 X7.1928 Y9.1828
G01 X7.1833 Y9.1809
G01 X7.1547 Y9.1737
G01 X7.1454 Y9.1709
G01 X7.1131 Y9.1592
G01 X7.0776 Y9.1425
G01 X7.0440 Y9.1223
G01 X7.0163 Y9.1019
G01 X7.0088 Y9.0957
G01 X6.9834 Y9.0726
G01 X6.0674 Y8.1566
G01 X6.0443 Y8.1312
G01 X6.0381 Y8.1237
G01 X6.0177 Y8.0960
G01 X5.9999 Y8.0666
G01 X5.9953 Y8.0580
G01 X5.9808 Y8.0269
G01 X5.9676 Y7.9900
G01 X5.9580 Y7.9520
G01 X5.9529 Y7.9180
G01 X5.9519 Y7.9083
G01 X5.9504 Y7.8740
G01 X5.9503 Y7.0832
G01 X5.9003 Y7.0592
G01 X5.8245 Y7.0138
G01 X5.8185 Y7.0097
G01 X5.7496 Y6.9585
G01 X5.7439 Y6.9538
G01 X5.6786 Y6.8944
G01 X5.6192 Y6.8291
G01 X5.6145 Y6.8234
G01 X5.5633 Y6.7545
G01 X5.5579 Y6.7464
G01 X5.5126 Y6.6706
G01 X5.4748 Y6.5908
G01 X5.4710 Y6.5818
G01 X5.4414 Y6.4986
G01 X5.4198 Y6.4130
G01 X5.4183 Y6.4058
G01 X5.4051 Y6.3161
G01 X5.4006 Y6.2279
G01 X5.4006 Y6.2181
G01 X5.4047 Y6.1348
G01 X5.4057 Y6.1251
G01 X5.4187 Y6.0378
G01 X5.4414 Y5.9474
G01 X5.4728 Y5.8596
G01 X5.5115 Y5.7776
G01 X5.5579 Y5.6996
G01 X5.5633 Y5.6915
G01 X5.6160 Y5.6206
G01 X5.6752 Y5.5551
G01 X5.6804 Y5.5499
G01 X5.7476 Y5.4890
G01 X5.8205 Y5.4349
G01 X5.8266 Y5.4309
G01 X5.9003 Y5.3868
G01 X5.9504 Y5.3628
G01 X5.9503 Y4.4162
G01 X5.9003 Y4.3922
G01 X5.8266 Y4.3481
G01 X5.8205 Y4.3441
G01 X5.7476 Y4.2900
G01 X5.6804 Y4.2291
G01 X5.6192 Y4.1621
G01 X5.6130 Y4.1545
G01 X5.5605 Y4.0835
G01 X5.5138 Y4.0057
G01 X5.4748 Y3.9238
G01 X5.4710 Y3.9148
G01 X5.4414 Y3.8316
G01 X5.4187 Y3.7412
G01 X5.4051 Y3.6491
G01 X5.4006 Y3.5609
G01 X5.4006 Y3.5511
G01 X5.4047 Y3.4678
G01 X5.4057 Y3.4581
G01 X5.4187 Y3.3708
G01 X5.4401 Y3.2851
G01 X5.4429 Y3.2757
G01 X5.4710 Y3.1972
G01 X5.4748 Y3.1882
G01 X5.5126 Y3.1084
G01 X5.5579 Y3.0326
G01 X5.5619 Y3.0265
G01 X5.6160 Y2.9536
G01 X5.6752 Y2.8881
G01 X5.6821 Y2.8812
G01 X5.7458 Y2.8236
G01 X5.8185 Y2.7693
G01 X5.8245 Y2.7652
G01 X5.9003 Y2.7198
G01 X5.9437 Y2.6989
G01 X5.8505 Y2.6056
G01 X2.8596 Y2.6056
G01 X2.8595 Y17.8049
G01 X2.8577 Y17.8392
G01 X2.8520 Y17.8780
G01 X2.8424 Y17.9160
G01 X2.8310 Y17.9484
G01 X2.8272 Y17.9574
G01 X2.8147 Y17.9840
G01 X2.8101 Y17.9926
G01 X2.7923 Y18.0220
G01 X2.7689 Y18.0535
G01 X2.7426 Y18.0826
G01 X2.0976 Y18.7275
G01 X2.0976 Y20.7624
G01 X4.0725 Y20.7624
G01 X4.6972 Y20.1377
G01 X4.6787 Y20.0853
G01 X4.6573 Y19.9996
G01 X4.6559 Y19.9924
G01 X4.6433 Y19.9075
G01 X4.6427 Y19.9002
G01 X4.6385 Y19.8120
G01 X4.6427 Y19.7238
G01 X4.6433 Y19.7165
G01 X4.6559 Y19.6316
G01 X4.6578 Y19.6220
G01 X4.6794 Y19.5364
G01 X4.7090 Y19.4532
G01 X4.7128 Y19.4442
G01 X4.7506 Y19.3644
G01 X4.7959 Y19.2886
G01 X4.7999 Y19.2825
G01 X4.8540 Y19.2096
G01 X4.9166 Y19.1406
G01 X4.9856 Y19.0780
G01 X5.0605 Y19.0225
G01 X5.1404 Y18.9746
G01 X5.2246 Y18.9348
G01 X5.3124 Y18.9034
G01 X5.3980 Y18.8818
G01 X5.4076 Y18.8799
G01 X5.4901 Y18.8677
G01 X5.4998 Y18.8667
G01 X5.5880 Y18.8625
G01 X5.6762 Y18.8667
G01 X5.6859 Y18.8677
G01 X5.7732 Y18.8807
G01 X5.8589 Y18.9021
G01 X5.8683 Y18.9049
G01 X5.9514 Y18.9348
G01 X6.0312 Y18.9724
G01 X6.0398 Y18.9770
G01 X6.1155 Y19.0225
G01 X6.1865 Y19.0750
G01 X6.1941 Y19.0812
G01 X6.2594 Y19.1406
G01 X6.3188 Y19.2059
G01 X6.3250 Y19.2135
G01 X6.3775 Y19.2845
G01 X6.4230 Y19.3602
G01 X6.4276 Y19.3688
G01 X6.4652 Y19.4486
G01 X6.4951 Y19.5317
G01 X6.4979 Y19.5411
G01 X6.5193 Y19.6268
G01 X6.5323 Y19.7141
G01 X6.5333 Y19.7238
G01 X6.5375 Y19.8120
G01 X6.5333 Y19.9002
G01 X6.5323 Y19.9099
G01 X6.5193 Y19.9972
G01 X6.4966 Y20.0876
G01 X6.4652 Y20.1754
G01 X6.4276 Y20.2552
G01 X6.4230 Y20.2638
G01 X6.3801 Y20.3354
G01 X6.3747 Y20.3435
G01 X6.3220 Y20.4144
G01 X6.2594 Y20.4834
G01 X6.1904 Y20.5460
G01 X6.1155 Y20.6015
G01 X6.0356 Y20.6494
G01 X5.9558 Y20.6872
G01 X5.9468 Y20.6910
G01 X5.8636 Y20.7206
G01 X5.7780 Y20.7422
G01 X5.7684 Y20.7441
G01 X5.6835 Y20.7567
G01 X5.6762 Y20.7573
G01 X5.5880 Y20.7615
G01 X5.4998 Y20.7573
G01 X5.4925 Y20.7567
G01 X5.4076 Y20.7441
G01 X5.4004 Y20.7427
G01 X5.3147 Y20.7213
G01 X5.2623 Y20.7028
G01 X4.5171 Y21.4480
G01 X4.4952 Y21.4677
G01 X4.4877 Y21.4739
G01 X4.4600 Y21.4943
G01 X4.4306 Y21.5121
G01 X4.4220 Y21.5167
G01 X4.3909 Y21.5312
G01 X4.3540 Y21.5444
G01 X4.3160 Y21.5540
G01 X4.2820 Y21.5591
G01 X4.2723 Y21.5601
G01 X4.2380 Y21.5617
G01 X1.7980 Y21.5617
G01 X1.7637 Y21.5601
G01 X1.7540 Y21.5591
G01 X1.7200 Y21.5540
G01 X1.6820 Y21.5444
G01 X1.6451 Y21.5312
G01 X1.6096 Y21.5145
G01 X1.5760 Y21.4943
G01 X1.5464 Y21.4725
G01 X1.5154 Y21.4446
G01 X1.4154 Y21.3446
G01 X1.3906 Y21.3174
G01 X1.3685 Y21.2880
G01 X1.3631 Y21.2799
G01 X1.3455 Y21.2504
G01 X1.3288 Y21.2149
G01 X1.3171 Y21.1827
G01 X1.3143 Y21.1733
G01 X1.3060 Y21.1400
G01 X1.3005 Y21.1036
G01 X1.2983 Y21.0620
G01 X1.2985 Y18.5571
G00 Z1.0000
G00 X0.6984 Y21.3520
G01 F60.00
G01 Z-0.0940
G01 F120.00
G01 X0.6984 Y18.2720
G01 X0.6998 Y18.2427
G01 X0.7041 Y18.2136
G01 X0.7100 Y18.1898
G01 X0.7128 Y18.1804
G01 X0.7212 Y18.1574
G01 X0.7338 Y18.1308
G01 X0.7463 Y18.1097
G01 X0.7517 Y18.1016
G01 X0.7664 Y18.0820
G01 X0.7828 Y18.0637
G01 X1.4604 Y17.3859
G01 X1.4604 Y2.0160
G01 X1.4618 Y1.9867
G01 X1.4661 Y1.9576
G01 X1.4733 Y1.9291
G01 X1.4814 Y1.9060
G01 X1.4852 Y1.8969
G01 X1.4946 Y1.8770
G01 X1.4982 Y1.8706
G01 X1.5123 Y1.8476
G01 X1.5269 Y1.8279
G01 X1.5316 Y1.8223
G01 X1.5481 Y1.8042
G01 X2.0582 Y1.2941
G01 X2.0781 Y1.2760
G01 X2.0996 Y1.2597
G01 X2.1077 Y1.2543
G01 X2.1288 Y1.2418
G01 X2.1554 Y1.2292
G01 X2.1831 Y1.2193
G01 X2.2068 Y1.2132
G01 X2.2164 Y1.2113
G01 X2.2383 Y1.2081
G01 X2.2456 Y1.2075
G01 X2.2700 Y1.2064
G01 X15.7300 Y1.2064
G01 X15.7594 Y1.2078
G01 X15.7860 Y1.2117
G01 X15.8146 Y1.2186
G01 X15.8316 Y1.2244
G01 X17.7795 Y1.2244
G01 X17.7795 Y1.0740
G01 X17.7812 Y1.0397
G01 X17.7862 Y1.0058
G01 X17.7932 Y0.9773
G01 X17.7961 Y0.9679
G01 X17.8052 Y0.9425
G01 X17.8081 Y0.9358
G01 X17.8208 Y0.9092
G01 X17.8384 Y0.8798
G01 X17.8588 Y0.8523
G01 X17.8819 Y0.8269
G01 X17.9073 Y0.8038
G01 X17.9348 Y0.7834
G01 X17.9642 Y0.7658
G01 X17.9975 Y0.7502
G01 X18.0275 Y0.7395
G01 X18.0608 Y0.7312
G01 X18.0947 Y0.7262
G01 X18.1266 Y0.7245
G01 X18.6540 Y0.7245
G01 X18.6858 Y0.7260
G01 X18.7174 Y0.7304
G01 X18.7270 Y0.7323
G01 X18.7555 Y0.7395
G01 X18.7877 Y0.7511
G01 X18.8188 Y0.7658
G01 X18.8440 Y0.7808
G01 X18.8502 Y0.7848
G01 X18.8719 Y0.8008
G01 X18.8794 Y0.8070
G01 X18.9011 Y0.8269
G01 X18.9242 Y0.8523
G01 X18.9446 Y0.8798
G01 X18.9622 Y0.9092
G01 X18.9769 Y0.9403
G01 X18.9885 Y0.9725
G01 X18.9968 Y1.0058
G01 X19.0018 Y1.0397
G01 X19.0035 Y1.0740
G01 X19.0035 Y1.9740
G01 X19.0015 Y2.0107
G01 X18.9968 Y2.0422
G01 X18.9885 Y2.0755
G01 X18.9769 Y2.1077
G01 X18.9644 Y2.1344
G01 X18.9611 Y2.1409
G01 X18.9472 Y2.1640
G01 X18.9418 Y2.1722
G01 X18.9242 Y2.1957
G01 X18.9011 Y2.2211
G01 X18.8757 Y2.2442
G01 X18.8482 Y2.2646
G01 X18.8188 Y2.2822
G01 X18.7922 Y2.2949
G01 X18.7832 Y2.2987
G01 X18.7578 Y2.3077
G01 X18.7507 Y2.3098
G01 X18.7222 Y2.3168
G01 X18.6858 Y2.3220
G01 X18.6540 Y2.3235
G01 X18.1290 Y2.3235
G01 X18.0996 Y2.3222
G01 X18.0899 Y2.3212
G01 X18.0608 Y2.3168
G01 X18.0275 Y2.3085
G01 X17.9953 Y2.2969
G01 X17.9642 Y2.2822
G01 X17.9348 Y2.2646
G01 X17.9073 Y2.2442
G01 X17.8819 Y2.2211
G01 X17.8620 Y2.1994
G01 X17.8558 Y2.1919
G01 X17.8398 Y2.1702
G01 X17.8358 Y2.1640
G01 X17.8208 Y2.1388
G01 X17.8061 Y2.1077
G01 X17.7961 Y2.0801
G01 X17.7932 Y2.0707
G01 X17.7862 Y2.0422
G01 X17.7812 Y2.0083
G01 X17.7795 Y1.9740
G01 X17.7795 Y1.8236
G01 X15.7480 Y1.8236
G01 X15.7186 Y1.8222
G01 X15.6920 Y1.8183
G01 X15.6634 Y1.8114
G01 X15.6464 Y1.8056
G01 X2.3941 Y1.8056
G01 X2.0596 Y2.1401
G01 X2.0595 Y17.5149
G01 X2.0581 Y17.5394
G01 X2.0538 Y17.5685
G01 X2.0467 Y17.5971
G01 X2.0385 Y17.6201
G01 X2.0358 Y17.6270
G01 X2.0264 Y17.6469
G01 X2.0218 Y17.6555
G01 X2.0091 Y17.6765
G01 X1.9900 Y17.7020
G01 X1.9719 Y17.7218
G01 X1.2976 Y18.3961
G01 X1.2976 Y21.2279
G01 X1.6321 Y21.5624
G01 X5.2639 Y21.5624
G01 X6.5384 Y20.2879
G01 X6.5384 Y18.3921
G01 X5.9719 Y17.8256
G01 X4.3097 Y17.8256
G01 X4.3097 Y19.0500
G01 X4.3070 Y19.1014
G01 X4.3009 Y19.1427
G01 X4.2990 Y19.1523
G01 X4.2882 Y19.1951
G01 X4.2734 Y19.2367
G01 X4.2697 Y19.2457
G01 X4.2507 Y19.2856
G01 X4.2255 Y19.3276
G01 X4.1963 Y19.3670
G01 X4.1650 Y19.4016
G01 X3.9975 Y19.5692
G01 X3.9975 Y20.6644
G01 X3.9970 Y20.6718
G01 X3.9960 Y20.6790
G01 X3.9939 Y20.6885
G01 X3.9917 Y20.6955
G01 X3.9890 Y20.7023
G01 X3.9858 Y20.7089
G01 X3.9807 Y20.7173
G01 X3.9764 Y20.7232
G01 X3.9701 Y20.7306
G01 X3.9611 Y20.7389
G01 X3.9512 Y20.7461
G01 X3.9427 Y20.7509
G01 X3.9338 Y20.7548
G01 X3.9222 Y20.7585
G01 X3.9126 Y20.7604
G01 X3.9004 Y20.7615
G01 X2.1956 Y20.7615
G01 X2.1858 Y20.7608
G01 X2.1786 Y20.7596
G01 X2.1715 Y20.7579
G01 X2.1622 Y20.7548
G01 X2.1533 Y20.7509
G01 X2.1468 Y20.7473
G01 X2.1407 Y20.7433
G01 X2.1349 Y20.7389
G01 X2.1276 Y20.7324
G01 X2.1227 Y20.7270
G01 X2.1181 Y20.7213
G01 X2.1127 Y20.7132
G01 X2.1081 Y20.7045
G01 X2.1052 Y20.6978
G01 X2.1021 Y20.6885
G01 X2.1004 Y20.6814
G01 X2.0990 Y20.6718
G01 X2.0985 Y20.6620
G01 X2.0985 Y18.9620
G01 X2.0988 Y18.9547
G01 X2.0996 Y18.9474
G01 X2.1009 Y18.9402
G01 X2.1028 Y18.9331
G01 X2.1052 Y18.9262
G01 X2.1081 Y18.9195
G01 X2.1114 Y18.9130
G01 X2.1153 Y18.9067
G01 X2.1227 Y18.8970
G01 X2.1312 Y18.8883
G01 X2.1387 Y18.8821
G01 X2.1490 Y18.8754
G01 X2.1577 Y18.8710
G01 X2.1691 Y18.8668
G01 X2.1810 Y18.8640
G01 X2.1931 Y18.8626
G01 X3.2908 Y18.8625
G01 X3.3103 Y18.8430
G01 X3.3103 Y7.1725
G01 X2.9600 Y7.1725
G01 X2.9502 Y7.1720
G01 X2.9382 Y7.1701
G01 X2.9288 Y7.1675
G01 X2.9219 Y7.1649
G01 X2.9131 Y7.1608
G01 X2.9068 Y7.1571
G01 X2.9007 Y7.1529
G01 X2.8932 Y7.1467
G01 X2.8879 Y7.1416
G01 X2.8816 Y7.1342
G01 X2.8773 Y7.1283
G01 X2.8722 Y7.1199
G01 X2.8690 Y7.1133
G01 X2.8655 Y7.1042
G01 X2.8629 Y7.0948
G01 X2.8616 Y7.0876
G01 X2.8608 Y7.0803
G01 X2.8605 Y7.0730
G01 X2.8605 Y5.3730
G01 X2.8608 Y5.3657
G01 X2.8620 Y5.3560
G01 X2.8635 Y5.3488
G01 X2.8655 Y5.3418
G01 X2.8681 Y5.3349
G01 X2.8711 Y5.3283
G01 X2.8747 Y5.3218
G01 X2.8801 Y5.3137
G01 X2.8847 Y5.3080
G01 X2.8896 Y5.3026
G01 X2.8950 Y5.2977
G01 X2.9007 Y5.2931
G01 X2.9088 Y5.2877
G01 X2.9153 Y5.2841
G01 X2.9219 Y5.2811
G01 X2.9288 Y5.2785
G01 X2.9358 Y5.2765
G01 X2.9430 Y5.2750
G01 X2.9502 Y5.2740
G01 X2.9600 Y5.2735
G01 X3.3103 Y5.2735
G01 X3.3103 Y4.5055
G01 X2.9600 Y4.5055
G01 X2.9502 Y4.5050
G01 X2.9430 Y4.5040
G01 X2.9358 Y4.5025
G01 X2.9288 Y4.5005
G01 X2.9219 Y4.4979
G01 X2.9153 Y4.4949
G01 X2.9088 Y4.4913
G01 X2.9027 Y4.4873
G01 X2.8969 Y4.4829
G01 X2.8914 Y4.4781
G01 X2.8863 Y4.4728
G01 X2.8816 Y4.4672
G01 X2.8773 Y4.4613
G01 X2.8734 Y4.4550
G01 X2.8701 Y4.4485
G01 X2.8672 Y4.4418
G01 X2.8648 Y4.4349
G01 X2.8629 Y4.4278
G01 X2.8610 Y4.4158
G01 X2.8605 Y4.4060
G01 X2.8605 Y2.7036
G01 X2.8616 Y2.6914
G01 X2.8641 Y2.6795
G01 X2.8681 Y2.6679
G01 X2.8722 Y2.6591
G01 X2.8787 Y2.6487
G01 X2.8863 Y2.6392
G01 X2.8950 Y2.6307
G01 X2.9027 Y2.6247
G01 X2.9088 Y2.6207
G01 X2.9153 Y2.6171
G01 X2.9219 Y2.6141
G01 X2.9311 Y2.6108
G01 X2.9382 Y2.6089
G01 X2.9454 Y2.6076
G01 X2.9527 Y2.6068
G01 X2.9600 Y2.6065
G01 X4.6624 Y2.6065
G01 X4.6698 Y2.6070
G01 X4.6770 Y2.6080
G01 X4.6865 Y2.6101
G01 X4.6935 Y2.6123
G01 X4.7003 Y2.6150
G01 X4.7090 Y2.6194
G01 X4.7153 Y2.6233
G01 X4.7231 Y2.6291
G01 X4.7304 Y2.6356
G01 X4.7353 Y2.6410
G01 X4.7413 Y2.6487
G01 X4.7453 Y2.6548
G01 X4.7489 Y2.6613
G01 X4.7528 Y2.6702
G01 X4.7559 Y2.6795
G01 X4.7576 Y2.6866
G01 X4.7590 Y2.6962
G01 X4.7595 Y2.7060
G01 X4.7595 Y4.4060
G01 X4.7588 Y4.4182
G01 X4.7565 Y4.4302
G01 X4.7545 Y4.4372
G01 X4.7519 Y4.4441
G01 X4.7489 Y4.4507
G01 X4.7453 Y4.4572
G01 X4.7413 Y4.4633
G01 X4.7369 Y4.4691
G01 X4.7321 Y4.4746
G01 X4.7268 Y4.4797
G01 X4.7212 Y4.4844
G01 X4.7153 Y4.4887
G01 X4.7090 Y4.4926
G01 X4.7025 Y4.4959
G01 X4.6958 Y4.4988
G01 X4.6889 Y4.5012
G01 X4.6770 Y4.5040
G01 X4.6698 Y4.5050
G01 X4.6600 Y4.5055
G01 X4.3097 Y4.5055
G01 X4.3097 Y5.2735
G01 X4.6600 Y5.2735
G01 X4.6698 Y5.2740
G01 X4.6818 Y5.2759
G01 X4.6912 Y5.2785
G01 X4.6981 Y5.2811
G01 X4.7069 Y5.2852
G01 X4.7132 Y5.2889
G01 X4.7193 Y5.2931
G01 X4.7268 Y5.2993
G01 X4.7321 Y5.3044
G01 X4.7384 Y5.3118
G01 X4.7441 Y5.3198
G01 X4.7478 Y5.3261
G01 X4.7519 Y5.3349
G01 X4.7545 Y5.3418
G01 X4.7565 Y5.3488
G01 X4.7580 Y5.3560
G01 X4.7592 Y5.3657
G01 X4.7595 Y5.3730
G01 X4.7595 Y7.0730
G01 X4.7588 Y7.0852
G01 X4.7565 Y7.0972
G01 X4.7545 Y7.1042
G01 X4.7519 Y7.1111
G01 X4.7489 Y7.1177
G01 X4.7453 Y7.1242
G01 X4.7413 Y7.1303
G01 X4.7369 Y7.1361
G01 X4.7321 Y7.1416
G01 X4.7268 Y7.1467
G01 X4.7212 Y7.1514
G01 X4.7153 Y7.1557
G01 X4.7090 Y7.1596
G01 X4.7025 Y7.1629
G01 X4.6958 Y7.1658
G01 X4.6889 Y7.1682
G01 X4.6770 Y7.1710
G01 X4.6698 Y7.1720
G01 X4.6600 Y7.1725
G01 X4.3097 Y7.1725
G01 X4.3097 Y9.9143
G01 X6.6870 Y9.9138
G01 X6.7049 Y9.8845
G01 X6.7575 Y9.8136
G01 X6.7622 Y9.8079
G01 X6.8234 Y9.7409
G01 X6.8906 Y9.6800
G01 X6.9615 Y9.6273
G01 X6.9696 Y9.6219
G01 X7.0476 Y9.5755
G01 X7.1296 Y9.5368
G01 X7.2127 Y9.5069
G01 X7.2221 Y9.5041
G01 X7.3078 Y9.4827
G01 X7.3999 Y9.4691
G01 X7.4881 Y9.4646
G01 X7.4979 Y9.4646
G01 X7.5812 Y9.4687
G01 X7.5909 Y9.4697
G01 X7.6782 Y9.4827
G01 X7.7686 Y9.5054
G01 X7.8564 Y9.5368
G01 X7.9406 Y9.5766
G01 X8.0205 Y9.6245
G01 X8.0954 Y9.6800
G01 X8.1644 Y9.7426
G01 X8.2270 Y9.8116
G01 X8.2825 Y9.8865
G01 X8.3304 Y9.9664
G01 X8.3702 Y10.0506
G01 X8.4016 Y10.1384
G01 X8.4243 Y10.2288
G01 X8.4379 Y10.3209
G01 X8.4425 Y10.4140
G01 X8.4381 Y10.5046
G01 X8.4373 Y10.5119
G01 X8.4243 Y10.5992
G01 X8.4029 Y10.6849
G01 X8.4001 Y10.6943
G01 X8.3720 Y10.7728
G01 X8.3682 Y10.7818
G01 X8.3304 Y10.8616
G01 X8.2825 Y10.9415
G01 X8.2270 Y11.0164
G01 X8.1644 Y11.0854
G01 X8.0954 Y11.1480
G01 X8.0245 Y11.2007
G01 X8.0164 Y11.2061
G01 X7.9448 Y11.2490
G01 X7.9362 Y11.2536
G01 X7.8564 Y11.2912
G01 X7.7686 Y11.3226
G01 X7.6782 Y11.3453
G01 X7.5861 Y11.3589
G01 X7.4930 Y11.3635
G01 X7.4048 Y11.3593
G01 X7.3951 Y11.3583
G01 X7.3078 Y11.3453
G01 X7.2221 Y11.3239
G01 X7.2127 Y11.3211
G01 X7.1296 Y11.2912
G01 X7.0476 Y11.2525
G01 X6.9696 Y11.2061
G01 X6.9615 Y11.2007
G01 X6.8906 Y11.1480
G01 X6.8234 Y11.0871
G01 X6.7622 Y11.0201
G01 X6.7575 Y11.0144
G01 X6.7049 Y10.9435
G01 X6.6867 Y10.9137
G01 X4.3097 Y10.9137
G01 X4.3097 Y17.2264
G01 X6.0960 Y17.2264
G01 X6.1205 Y17.2275
G01 X6.1302 Y17.2284
G01 X6.1544 Y17.2322
G01 X6.1830 Y17.2393
G01 X6.2107 Y17.2492
G01 X6.2329 Y17.2596
G01 X6.2415 Y17.2642
G01 X6.2624 Y17.2769
G01 X6.2822 Y17.2914
G01 X6.2879 Y17.2960
G01 X6.3061 Y17.3124
G01 X7.0499 Y18.0562
G01 X7.0696 Y18.0779
G01 X7.0871 Y18.1016
G01 X7.1022 Y18.1268
G01 X7.1148 Y18.1533
G01 X7.1232 Y18.1764
G01 X7.1254 Y18.1834
G01 X7.1308 Y18.2048
G01 X7.1327 Y18.2144
G01 X7.1362 Y18.2386
G01 X7.1376 Y18.2680
G01 X7.1376 Y20.4144
G01 X7.1362 Y20.4414
G01 X7.1327 Y20.4656
G01 X7.1308 Y20.4752
G01 X7.1247 Y20.4990
G01 X7.1148 Y20.5267
G01 X7.1044 Y20.5489
G01 X7.0998 Y20.5575
G01 X7.0857 Y20.5805
G01 X7.0696 Y20.6021
G01 X7.0499 Y20.6239
G01 X5.5981 Y22.0756
G01 X5.5781 Y22.0936
G01 X5.5565 Y22.1097
G01 X5.5335 Y22.1238
G01 X5.5249 Y22.1284
G01 X5.5026 Y22.1388
G01 X5.4750 Y22.1487
G01 X5.4464 Y22.1559
G01 X5.4198 Y22.1599
G01 X5.3880 Y22.1616
G01 X1.5080 Y22.1616
G01 X1.4787 Y22.1602
G01 X1.4520 Y22.1563
G01 X1.4258 Y22.1500
G01 X1.4164 Y22.1472
G01 X1.3934 Y22.1388
G01 X1.3712 Y22.1284
G01 X1.3626 Y22.1238
G01 X1.3416 Y22.1111
G01 X1.3218 Y22.0966
G01 X1.3143 Y22.0904
G01 X1.2962 Y22.0739
G01 X0.7844 Y21.5621
G01 X0.7664 Y21.5420
G01 X0.7489 Y21.5184
G01 X0.7338 Y21.4932
G01 X0.7212 Y21.4666
G01 X0.7113 Y21.4389
G01 X0.7041 Y21.4104
G01 X0.6998 Y21.3813
G01 X0.6984 Y21.3520
G00 Z1.0000
M05
G00 Z1.0000
G00 Z15.00

G01 X0Y0 F300