;FLAVOR:Marlin
;TIME:9388
;Filament used: 5.19982m
;Layer height: 0.2
;MINX:122.3
;MINY:105.301
;MINZ:0.3
;MAXX:177.701
;MAXY:194.7
;MAXZ:15.9
;TARGET_MACHINE.NAME:Anet A8 Plus
;Generated with Cura_SteamEngine 5.8.1
M140 S60
M105
M190 S60
M104 S185
M105
M109 S185
M82 ;absolute extrusion mode
G28 ;Home
G1 Z15.0 F2000 ;Move the platform
G92 E0
G92 E0
G1 F1500 E-6.5
;LAYER_COUNT:79
;LAYER:0
M107
M204 S1000
G0 F7500 X123.801 Y107.517 Z0.3
;TYPE:SKIRT
G1 F1500 E0
G1 X124.134 Y107.137 E0.02521
G1 X124.371 Y106.927 E0.04101
G1 X124.979 Y106.442 E0.07981
G1 X125.398 Y106.159 E0.10503
G1 X125.696 Y106.011 E0.12163
G1 X126.407 Y105.701 E0.16033
G1 X126.885 Y105.536 E0.18556
G1 X127.194 Y105.472 E0.2013
G1 X127.824 Y105.374 E0.23311
G1 X128.15 Y105.334 E0.2495
G1 X128.456 Y105.314 E0.2648
G1 X128.994 Y105.304 E0.29164
G1 X170.835 Y105.301 E2.3791
G1 X171.546 Y105.311 E2.41457
G1 X171.819 Y105.327 E2.42822
G1 X172.206 Y105.369 E2.44764
G1 X172.689 Y105.44 E2.47199
G1 X173.182 Y105.553 E2.49723
G1 X173.421 Y105.638 E2.50988
G1 X174.165 Y105.938 E2.5499
G1 X174.617 Y106.164 E2.57512
G1 X174.914 Y106.366 E2.59304
G1 X175.542 Y106.847 E2.6325
G1 X175.918 Y107.185 E2.65772
G1 X176.135 Y107.439 E2.67439
G1 X176.616 Y108.066 E2.71382
G1 X176.891 Y108.49 E2.73903
G1 X177.034 Y108.79 E2.75561
G1 X177.344 Y109.539 E2.79605
G1 X177.5 Y110.02 E2.82128
G1 X177.559 Y110.344 E2.83771
G1 X177.663 Y111.132 E2.87737
G1 X177.69 Y111.453 E2.89344
G1 X177.701 Y111.878 E2.91465
G1 X177.7 Y187.784 E6.70161
G1 X177.69 Y188.482 E6.73644
G1 X177.676 Y188.739 E6.74928
G1 X177.633 Y189.143 E6.76955
G1 X177.556 Y189.679 E6.79657
G1 X177.445 Y190.172 E6.82178
G1 X177.356 Y190.423 E6.83506
G1 X177.061 Y191.153 E6.87434
G1 X176.835 Y191.605 E6.89956
G1 X176.664 Y191.861 E6.91492
G1 X176.204 Y192.481 E6.95343
G1 X175.872 Y192.862 E6.97864
G1 X175.625 Y193.079 E6.99505
G1 X175.007 Y193.57 E7.03443
G1 X174.587 Y193.853 E7.05969
G1 X174.294 Y193.999 E7.07602
G1 X173.596 Y194.303 E7.11401
G1 X173.118 Y194.467 E7.13922
G1 X172.781 Y194.535 E7.15637
G1 X171.946 Y194.657 E7.19847
G1 X171.543 Y194.69 E7.21864
G1 X171.007 Y194.7 E7.24539
G1 X129.161 Y194.7 E9.3331
G1 X128.464 Y194.69 E9.36787
G1 X128.19 Y194.674 E9.38157
G1 X127.773 Y194.628 E9.4025
G1 X127.296 Y194.556 E9.42656
G1 X126.575 Y194.359 E9.46385
G1 X125.823 Y194.055 E9.50432
G1 X125.37 Y193.829 E9.52958
G1 X125.075 Y193.627 E9.54741
G1 X124.466 Y193.16 E9.5857
G1 X124.09 Y192.822 E9.61093
G1 X123.876 Y192.572 E9.62734
G1 X123.38 Y191.927 E9.66794
G1 X123.105 Y191.503 E9.69315
G1 X122.957 Y191.192 E9.71033
G1 X122.657 Y190.462 E9.74971
G1 X122.503 Y189.981 E9.77491
G1 X122.451 Y189.71 E9.78867
G1 X122.366 Y189.12 E9.81841
G1 X122.33 Y188.801 E9.83443
G1 X122.311 Y188.522 E9.84838
G1 X122.3 Y188.041 E9.87238
G1 X122.3 Y112.198 E13.65621
G1 X122.31 Y111.522 E13.68994
G1 X122.324 Y111.269 E13.70258
G1 X122.367 Y110.857 E13.72324
G1 X122.443 Y110.33 E13.74981
G1 X122.639 Y109.599 E13.78757
G1 X122.934 Y108.861 E13.82722
G1 X123.158 Y108.408 E13.85243
G1 X123.339 Y108.137 E13.86869
G1 X123.801 Y107.517 E13.90726
G1 F1500 E7.40726
;MESH:BD241S-Backplane.24CM.DCBarrelSolder.stl
G0 F7500 X130.367 Y111.435
G0 X145.431 Y126.086
;TYPE:WALL-INNER
G1 F1500 E13.90726
G1 X145.229 Y126.156 E13.91793
G1 X131.087 Y126.153 E14.62348
G1 X130.866 Y126.086 E14.635
G1 X130.697 Y125.953 E14.64573
G1 X130.552 Y125.682 E14.66106
G1 X130.551 Y111.454 E15.3709
G1 X130.645 Y111.227 E15.38316
G1 X130.845 Y111.037 E15.39692
G1 X131.066 Y110.956 E15.40866
G1 X145.148 Y110.956 E16.11122
G1 X145.431 Y111.026 E16.12576
G1 X145.628 Y111.195 E16.13871
G1 X145.748 Y111.435 E16.1521
G1 X145.748 Y125.676 E16.86258
G1 X145.628 Y125.916 E16.87597
G1 X145.431 Y126.086 E16.88895
G1 F1500 E10.38895
G0 F7500 X145.929 Y125.555
G0 X155.248 Y125.555
G0 X155.765 Y126.086
G1 F1500 E16.88895
G1 X155.568 Y125.916 E16.90193
G1 X155.448 Y125.676 E16.91532
G1 X155.448 Y111.433 E17.62591
G1 X155.568 Y111.195 E17.6392
G1 X155.765 Y111.026 E17.65215
G1 X155.967 Y110.956 E17.66282
G1 X170.048 Y110.956 E18.36532
G1 X170.297 Y111.009 E18.37802
G1 X170.487 Y111.145 E18.38968
G1 X170.645 Y111.415 E18.40529
G1 X170.643 Y125.689 E19.11742
G1 F1345.3 X170.405 Y126.154 E19.14648
G1 F1111.1 X170.205 Y126.232 E19.16094
G1 F1207.2 X169.894 Y126.16 E19.18073
G1 F1488.8 X156.048 Y126.156 E19.87669
G1 F1500 X155.765 Y126.086 E19.89123
G1 F1500 E13.39123
G0 F7500 X155.348 Y125.47
G0 X155.622 Y125.985
G0 X160.742 Y125.963
G0 X166.138 Y126.356
G0 X166.4 Y128.912
G0 X166.4 Y131.924
G1 F1500 E19.89123
G1 X166.112 Y131.892 E19.90569
G1 X165.694 Y131.744 E19.92781
G1 X165.354 Y131.448 E19.9503
G1 X165.146 Y131.139 E19.96889
G1 X165.032 Y130.82 E19.98579
G1 X165.003 Y130.577 E19.998
G1 X165.028 Y130.231 E20.0153
G1 X165.168 Y129.812 E20.03734
G1 X165.38 Y129.536 E20.05471
G1 X165.694 Y129.274 E20.07511
G1 X166.088 Y129.128 E20.09607
G1 X166.4 Y129.092 E20.11174
G1 X166.771 Y129.134 E20.13037
G1 X167.128 Y129.301 E20.15003
G1 X167.395 Y129.506 E20.16682
G1 X167.609 Y129.795 E20.18477
G1 X167.729 Y130.077 E20.20006
G1 X167.795 Y130.466 E20.21974
G1 X167.761 Y130.873 E20.24012
G1 X167.577 Y131.27 E20.26195
G1 X167.334 Y131.558 E20.28075
G1 X167.041 Y131.762 E20.29856
G1 X166.712 Y131.888 E20.31613
G1 X166.4 Y131.924 E20.3318
G1 F1500 E13.8318
G0 F7500 X166.138 Y131.996
G0 X166.089 Y133.052
G0 X162.947 Y156.68
G1 F1500 E20.3318
G1 X162.802 Y156.562 E20.34113
G1 X162.69 Y156.383 E20.35166
G1 X162.649 Y156.199 E20.36107
G1 X162.648 Y133.452 E21.49592
G1 X162.767 Y133.091 E21.51489
G1 X163.017 Y132.898 E21.53064
G1 X163.248 Y132.852 E21.54239
G1 X169.966 Y132.852 E21.87756
G1 F1534.5 X170.424 Y132.863 E21.8999
G1 F1595.7 X170.671 Y132.963 E21.91239
G1 F1554.4 X170.943 Y133.307 E21.93351
G1 F1500 X170.948 Y156.236 E23.07744
G1 X170.903 Y156.391 E23.08549
G1 X170.783 Y156.574 E23.09641
G1 X170.631 Y156.69 E23.10595
G1 X170.442 Y156.76 E23.116
G1 X163.207 Y156.759 E23.47696
G1 X162.947 Y156.68 E23.49052
G1 F1500 E16.99052
G0 F7500 X162.549 Y156.115
G0 X162.653 Y156.696
G0 X139.128 Y156.694
G0 X138.585 Y178.3
G1 F1500 E23.49052
G1 X138.415 Y178.345 E23.49929
G1 X129.571 Y178.344 E23.94052
G1 X129.365 Y178.278 E23.95131
G1 X129.213 Y178.162 E23.96085
G1 X129.094 Y177.979 E23.97174
G1 X129.048 Y177.825 E23.97976
G1 X129.048 Y134.56 E26.13826
G1 X129.15 Y134.337 E26.15049
G1 X129.257 Y134.216 E26.15855
G1 X129.465 Y134.1 E26.17043
G1 X129.65 Y134.072 E26.17977
G1 X138.348 Y134.072 E26.61371
G1 X138.748 Y134.472 E26.64194
G1 X138.748 Y128.508 E26.93948
G1 X138.868 Y128.268 E26.95287
G1 X139.065 Y128.098 E26.96585
G1 X139.267 Y128.028 E26.97652
G1 X161.248 Y128.028 E28.07315
G1 X161.562 Y128.116 E28.08942
G1 X161.762 Y128.317 E28.10357
G1 X161.84 Y128.529 E28.11484
G1 X161.848 Y134.757 E28.42555
G1 X161.73 Y135.032 E28.44048
G1 X161.48 Y135.226 E28.45627
G1 X161.248 Y135.272 E28.46807
G1 X139.348 Y135.272 E29.56067
G1 X138.947 Y134.935 E29.5868
G1 X138.947 Y177.786 E31.72464
G1 X138.912 Y177.956 E31.7333
G1 X138.802 Y178.142 E31.74408
G1 X138.585 Y178.3 E31.75748
G1 F1500 E25.25748
G0 F7500 X135.322 Y178.547
G0 X135.187 Y179.751
G0 X135.287 Y182.68
G1 F1500 E31.75748
G1 X134.893 Y182.733 E31.77731
G1 X134.564 Y182.687 E31.79388
G1 X134.196 Y182.544 E31.81358
G1 X133.896 Y182.311 E31.83253
G1 X133.681 Y182.019 E31.85062
G1 X133.539 Y181.662 E31.86979
G1 X133.495 Y181.316 E31.88719
G1 X133.527 Y181.036 E31.90125
G1 X133.648 Y180.681 E31.91996
G1 X133.86 Y180.37 E31.93874
G1 X134.189 Y180.082 E31.96056
G1 X134.588 Y179.936 E31.98175
G1 X134.9 Y179.9 E31.99742
G1 X135.274 Y179.943 E32.0162
G1 X135.662 Y180.133 E32.03776
G1 X135.942 Y180.372 E32.05612
G1 X136.149 Y180.681 E32.07468
G1 X136.257 Y180.97 E32.09007
G1 X136.296 Y181.327 E32.10799
G1 X136.259 Y181.676 E32.1255
G1 X136.115 Y182.015 E32.14387
G1 X135.9 Y182.315 E32.16229
G1 X135.607 Y182.536 E32.1806
G1 X135.287 Y182.68 E32.1981
G1 F1500 E25.6981
G0 F7500 X135.322 Y182.776
G0 X136.272 Y182.104
G0 X136.27 Y190.716
G0 X150 Y190.898
G1 F1500 E32.1981
G1 X171.451 Y190.899 E33.2683
G1 X172.119 Y190.808 E33.30193
G1 X172.689 Y190.566 E33.33283
G1 X173.188 Y190.179 E33.36433
G1 X173.569 Y189.673 E33.39593
G1 X173.811 Y189.081 E33.42784
G1 X173.844 Y188.827 E33.44062
G1 X173.585 Y189.138 E33.46081
G1 X173.021 Y189.578 E33.4965
G1 X172.265 Y189.886 E33.53722
G1 X171.506 Y189.994 E33.57547
G1 X170.711 Y189.885 E33.61551
G1 X169.983 Y189.58 E33.65488
G1 X169.352 Y189.089 E33.69477
G1 X168.869 Y188.446 E33.7349
G1 X168.566 Y187.707 E33.77474
G1 X168.467 Y186.916 E33.81451
G1 X168.566 Y186.121 E33.85448
G1 X168.874 Y185.373 E33.89484
G1 X169.361 Y184.735 E33.93488
G1 X169.984 Y184.254 E33.97415
G1 X170.733 Y183.94 E34.01467
G1 X171.501 Y183.842 E34.0533
G1 X172.283 Y183.943 E34.09263
G1 X173.022 Y184.259 E34.13273
G1 X173.64 Y184.739 E34.17177
G1 X173.9 Y185.083 E34.19328
G1 X173.9 Y131.457 E36.8687
G1 X173.618 Y131.83 E36.89203
G1 X173 Y132.31 E36.93107
G1 X172.275 Y132.617 E36.97035
G1 F1530.6 X171.477 Y132.72 E37.00968
G1 F1587.3 X170.801 Y132.613 E37.04195
G1 X170.425 Y132.482 E37.06072
G1 F1530.6 X170.002 Y132.315 E37.08296
G1 F1500 X169.381 Y131.829 E37.1223
G1 X168.901 Y131.194 E37.16201
G1 X168.6 Y130.458 E37.20169
G1 X168.504 Y129.669 E37.24134
G1 X168.602 Y128.907 E37.27967
G1 X168.9 Y128.165 E37.31956
G1 X169.376 Y127.535 E37.35895
G1 X169.936 Y127.101 E37.3943
G1 F1488.8 X170.068 Y127.02 E37.40209
G1 F1207.2 X170.385 Y126.788 E37.42644
G1 F1025.6 X170.61 Y126.695 E37.4442
G1 F1158.3 X170.799 Y126.709 E37.45644
G1 F1401.9 X171.509 Y126.652 E37.49447
G1 F1500 X172.276 Y126.747 E37.53303
G1 X173 Y127.054 E37.57226
G1 X173.617 Y127.537 E37.61135
G1 X173.9 Y127.911 E37.63475
G1 X173.9 Y111.596 E38.44871
G1 X173.811 Y110.916 E38.48292
G1 X173.57 Y110.328 E38.51463
G1 X173.187 Y109.82 E38.54637
G1 X172.692 Y109.43 E38.57781
G1 X172.121 Y109.189 E38.60873
G1 X171.452 Y109.1 E38.6424
G1 X128.544 Y109.104 E40.78309
G1 X127.879 Y109.193 E40.81656
G1 X127.307 Y109.434 E40.84753
G1 X126.808 Y109.825 E40.87916
G1 X126.427 Y110.332 E40.9108
G1 X126.186 Y110.918 E40.94241
G1 X126.1 Y111.602 E40.9768
G1 X126.1 Y127.902 E41.79001
G1 X126.38 Y127.531 E41.8132
G1 X126.997 Y127.054 E41.85211
G1 X127.724 Y126.746 E41.8915
G1 X128.507 Y126.647 E41.93087
G1 X129.268 Y126.751 E41.96919
G1 X129.998 Y127.053 E42.00861
G1 X130.623 Y127.545 E42.04829
G1 X131.095 Y128.169 E42.08733
G1 X131.394 Y128.903 E42.12687
G1 X131.492 Y129.669 E42.16539
G1 X131.395 Y130.463 E42.2053
G1 X131.094 Y131.202 E42.24511
G1 X130.62 Y131.829 E42.28433
G1 X129.998 Y132.311 E42.32358
G1 X129.272 Y132.617 E42.36289
G1 X128.495 Y132.716 E42.40197
G1 X127.727 Y132.619 E42.44059
G1 X126.994 Y132.309 E42.48029
G1 X126.381 Y131.829 E42.51914
G1 X126.1 Y131.458 E42.54236
G1 X126.101 Y185.075 E45.21732
G1 X126.35 Y184.744 E45.23798
G1 X126.976 Y184.258 E45.27752
G1 X127.713 Y183.943 E45.31751
G1 X128.501 Y183.842 E45.35714
G1 X129.287 Y183.944 E45.39669
G1 X130.016 Y184.262 E45.43637
G1 X130.64 Y184.739 E45.47555
G1 X131.122 Y185.376 E45.5154
G1 X131.423 Y186.115 E45.55521
G1 X131.529 Y186.92 E45.59572
G1 X131.43 Y187.703 E45.6351
G1 X131.13 Y188.445 E45.67503
G1 X130.646 Y189.09 E45.71526
G1 X130.018 Y189.579 E45.75497
G1 X129.286 Y189.885 E45.79455
G1 X128.488 Y189.993 E45.83472
G1 X127.7 Y189.881 E45.87443
G1 X126.98 Y189.577 E45.91342
G1 X126.352 Y189.089 E45.9531
G1 X126.152 Y188.821 E45.96979
G1 X126.185 Y189.083 E45.98296
G1 X126.427 Y189.673 E46.01478
G1 X126.808 Y190.178 E46.04634
G1 X127.307 Y190.566 E46.07787
G1 X127.876 Y190.808 E46.10872
G1 X128.54 Y190.896 E46.14214
G1 X150 Y190.898 E47.21278
G0 F7500 X150 Y191.298
;TYPE:WALL-OUTER
G1 F1500 X171.478 Y191.299 E48.28432
G1 X172.226 Y191.197 E48.32199
G1 X172.893 Y190.914 E48.35813
G1 X173.476 Y190.462 E48.39494
G1 X173.92 Y189.872 E48.43178
G1 X174.201 Y189.184 E48.46885
G1 X174.307 Y188.372 E48.50971
G1 F1388.9 X174.178 Y187.583 E48.55279
G1 X173.761 Y188.273 E48.59623
G1 F1500 X173.376 Y188.785 E48.62819
G1 X172.815 Y189.231 E48.66394
G1 X172.174 Y189.496 E48.69855
G1 X171.484 Y189.588 E48.73327
G1 X170.84 Y189.499 E48.76571
G1 X170.21 Y189.241 E48.79967
G1 X169.639 Y188.805 E48.83552
G1 X169.21 Y188.224 E48.87155
G1 X168.956 Y187.604 E48.90497
G1 X168.873 Y186.891 E48.94079
G1 X168.956 Y186.223 E48.97437
G1 X169.22 Y185.581 E49.009
G1 X169.636 Y185.033 E49.04333
G1 X170.187 Y184.604 E49.07817
G1 X170.817 Y184.335 E49.11234
G1 X171.5 Y184.246 E49.1467
G1 X172.176 Y184.332 E49.1807
G1 X172.835 Y184.621 E49.2166
G1 X173.355 Y185.024 E49.24942
G1 X173.76 Y185.559 E49.2829
G1 F1287.6 X174.181 Y186.253 E49.33008
G1 X174.3 Y185.506 E49.37404
G1 F1500 X174.3 Y131.083 E52.08922
G1 F1373 X174.161 Y130.344 E52.1302
G1 X173.728 Y131.021 E52.17401
G1 F1500 X173.333 Y131.545 E52.20674
G1 X172.815 Y131.947 E52.23946
G1 X172.171 Y132.227 E52.27449
G1 X171.501 Y132.319 E52.30823
G1 X170.827 Y132.227 E52.34217
G1 X170.225 Y131.973 E52.37477
G1 X169.688 Y131.562 E52.4085
G1 X169.252 Y130.996 E52.44415
G1 X168.992 Y130.366 E52.47815
G1 X168.908 Y129.69 E52.51214
G1 X168.996 Y128.996 E52.54704
G1 X169.242 Y128.388 E52.57976
G1 X169.665 Y127.816 E52.61525
G1 X170.225 Y127.391 E52.65033
G1 X170.825 Y127.137 E52.68283
G1 X171.5 Y127.05 E52.71679
G1 X172.171 Y127.137 E52.75054
G1 X172.796 Y127.402 E52.78441
G1 X173.344 Y127.839 E52.81938
G1 X173.728 Y128.347 E52.85115
G1 F1265.8 X173.94 Y128.679 E52.87444
G1 F967.7 X174.153 Y129.012 E52.90501
G1 F909.1 X174.188 Y128.92 E52.91311
G1 F1171.9 X174.3 Y128.285 E52.95429
G1 F1500 X174.3 Y111.57 E53.7882
G1 X174.201 Y110.812 E53.82634
G1 X173.92 Y110.128 E53.86323
G1 X173.475 Y109.538 E53.9001
G1 X172.897 Y109.082 E53.93683
G1 X172.227 Y108.799 E53.97312
G1 X171.478 Y108.7 E54.01081
G1 X128.518 Y108.704 E56.15409
G1 X127.773 Y108.803 E56.19159
G1 X127.103 Y109.086 E56.22787
G1 X126.52 Y109.542 E56.2648
G1 X126.076 Y110.132 E56.30164
G1 X125.796 Y110.816 E56.33851
G1 X125.7 Y111.577 E56.37678
G1 X125.701 Y128.283 E57.21024
G1 F1171.9 X125.812 Y128.922 E57.25166
G1 F911.9 X125.845 Y129.012 E57.25953
G1 F969.3 X126.056 Y128.678 E57.29003
G1 F1268.5 X126.268 Y128.343 E57.31342
G1 F1500 X126.665 Y127.817 E57.3463
G1 X127.181 Y127.417 E57.37887
G1 X127.826 Y127.137 E57.41395
G1 X128.487 Y127.052 E57.4472
G1 X129.167 Y127.138 E57.48139
G1 X129.795 Y127.401 E57.51536
G1 X130.323 Y127.815 E57.54883
G1 X130.744 Y128.369 E57.58355
G1 X131.004 Y129.004 E57.61778
G1 X131.09 Y129.684 E57.65198
G1 X131.004 Y130.364 E57.68617
G1 X130.754 Y130.976 E57.71916
G1 X130.331 Y131.548 E57.75465
G1 X129.771 Y131.973 E57.78972
G1 X129.169 Y132.227 E57.82232
G1 X128.5 Y132.319 E57.85601
G1 X127.831 Y132.229 E57.88969
G1 X127.201 Y131.962 E57.92382
G1 X126.688 Y131.562 E57.95628
G1 X126.268 Y131.017 E57.99061
G1 F1265.8 X125.835 Y130.355 E58.03737
G1 X125.7 Y131.079 E58.08091
G1 F1500 X125.7 Y185.504 E60.79619
G1 F1293.1 X125.816 Y186.253 E60.84005
G1 X126.236 Y185.559 E60.887
G1 F1500 X126.639 Y185.026 E60.92033
G1 X127.161 Y184.621 E60.95329
G1 X127.82 Y184.332 E60.98919
G1 X128.5 Y184.246 E61.02339
G1 X129.159 Y184.33 E61.05653
G1 X129.814 Y184.607 E61.09201
G1 X130.355 Y185.024 E61.12609
G1 X130.778 Y185.587 E61.16122
G1 X131.032 Y186.217 E61.19511
G1 X131.124 Y186.902 E61.2296
G1 X131.04 Y187.604 E61.26487
G1 X130.786 Y188.228 E61.29848
G1 X130.36 Y188.806 E61.3343
G1 X129.79 Y189.241 E61.37007
G1 X129.156 Y189.499 E61.40422
G1 X128.509 Y189.588 E61.43681
G1 X127.84 Y189.499 E61.47048
G1 X127.21 Y189.241 E61.50444
G1 X126.639 Y188.806 E61.54025
G1 X126.227 Y188.256 E61.57454
G1 F1293.1 X125.82 Y187.595 E61.61946
G1 X125.693 Y188.369 E61.66485
G1 F1500 X125.795 Y189.185 E61.70588
G1 X126.076 Y189.872 E61.74291
G1 X126.52 Y190.462 E61.77975
G1 X127.103 Y190.914 E61.81656
G1 X127.77 Y191.197 E61.8527
G1 X128.514 Y191.296 E61.89015
G1 X150 Y191.298 E62.96209
G0 F7500 X150.2 Y191.298
G1 F1500 E56.46209
G0 F7500 X150.2 Y190.797
G0 X135.194 Y190.716
G0 X134.882 Y182.915
G0 X135.156 Y182.298
G1 F1500 E62.96209
G1 X134.911 Y182.328 E62.9744
G1 X134.649 Y182.296 E62.98757
G1 X134.413 Y182.201 E63.00027
G1 X134.195 Y182.039 E63.01382
