;FLAVOR:Marlin
;TIME:8989
;Filament used: 4.90416m
;Layer height: 0.2
;MINX:123.527
;MINY:106.554
;MINZ:0.3
;MAXX:176.473
;MAXY:193.446
;MAXZ:13.1
;TARGET_MACHINE.NAME:Anet A8 Plus
;Generated with Cura_SteamEngine 5.8.1
M140 S60
M105
M190 S60
M104 S185
M105
M109 S185
M82 ;absolute extrusion mode
G28 ;Home
G1 Z15.0 F2000 ;Move the platform
G92 E0
G92 E0
G1 F1500 E-6.5
;LAYER_COUNT:65
;LAYER:0
M107
M204 S1000
G0 F7500 X124.181 Y107.839 Z0.3
;TYPE:SKIRT
G1 F1500 E0
G1 X124.516 Y107.461 E0.0252
G1 X124.907 Y107.14 E0.05044
G1 X125.343 Y106.884 E0.07566
G1 X125.814 Y106.701 E0.10087
G1 X126.308 Y106.594 E0.12609
G1 X126.648 Y106.566 E0.14311
G1 X126.97 Y106.557 E0.15918
G1 X172.61 Y106.554 E2.43617
G1 X173.309 Y106.564 E2.47105
G1 X173.812 Y106.611 E2.49625
G1 X174.302 Y106.737 E2.52149
G1 X174.766 Y106.939 E2.54674
G1 X175.192 Y107.211 E2.57195
G1 X175.57 Y107.546 E2.59715
G1 X175.89 Y107.937 E2.62236
G1 X176.145 Y108.374 E2.6476
G1 X176.328 Y108.845 E2.67281
G1 X176.435 Y109.339 E2.69803
G1 X176.462 Y109.675 E2.71485
G1 X176.473 Y110.122 E2.73715
G1 X176.472 Y126.764 E3.56743
G1 X176.45 Y128.361 E3.64711
G1 X176.45 Y131.122 E3.78486
G1 X176.47 Y132.063 E3.83181
G1 X176.469 Y184.048 E6.42536
G1 X176.458 Y184.751 E6.46043
G1 X176.41 Y185.254 E6.48564
G1 X176.283 Y185.744 E6.5109
G1 X176.081 Y186.207 E6.5361
G1 X175.823 Y186.614 E6.56014
G1 X174.848 Y187.921 E6.64149
G1 X173.279 Y190.106 E6.77569
G1 X171.966 Y192.036 E6.89215
G1 X171.649 Y192.43 E6.91738
G1 X171.275 Y192.77 E6.9426
G1 X170.851 Y193.046 E6.96784
G1 X170.39 Y193.252 E6.99303
G1 X169.901 Y193.383 E7.01829
G1 X169.414 Y193.435 E7.04272
G1 X169.107 Y193.444 E7.05804
G1 X131.362 Y193.446 E8.94115
G1 X130.659 Y193.436 E8.97623
G1 X130.156 Y193.389 E9.00143
G1 X129.666 Y193.263 E9.02667
G1 X129.203 Y193.061 E9.05187
G1 X128.776 Y192.79 E9.0771
G1 X128.398 Y192.454 E9.10234
G1 X128.057 Y192.032 E9.1294
G1 X127.448 Y191.134 E9.18354
G1 X125.884 Y188.892 E9.31992
G1 X124.171 Y186.581 E9.46343
G1 X123.903 Y186.152 E9.48867
G1 X123.706 Y185.687 E9.51386
G1 X123.585 Y185.196 E9.53909
G1 X123.543 Y184.774 E9.56025
G1 X123.533 Y184.447 E9.57657
G1 X123.527 Y132.574 E12.16453
G1 X123.549 Y131.008 E12.24266
G1 X123.549 Y128.251 E12.38021
G1 X123.529 Y127.328 E12.42627
G1 X123.528 Y110.412 E13.27021
G1 X123.537 Y109.723 E13.30459
G1 X123.584 Y109.22 E13.32979
G1 X123.709 Y108.73 E13.35502
G1 X123.91 Y108.266 E13.38025
G1 X124.181 Y107.839 E13.40548
G1 F1500 E6.90548
;MESH:BD241S.3DDispKB.24CQ.stl
G0 F7500 X145.559 Y128.755
G0 X146.198 Y130.204
;TYPE:WALL-INNER
G1 F1500 E13.40548
G1 X146.387 Y130.066 E13.41716
G1 X146.452 Y129.971 E13.4229
G1 X146.507 Y129.707 E13.43635
G1 X146.508 Y129.233 E13.46
G1 X146.381 Y128.889 E13.4783
G1 X146.214 Y128.766 E13.48864
G1 X146.032 Y128.729 E13.49791
G1 X145.85 Y128.766 E13.50718
G1 X145.689 Y128.884 E13.51713
G1 X145.601 Y129.061 E13.527
G1 X145.551 Y129.484 E13.54825
G1 X145.595 Y129.872 E13.56773
G1 X145.709 Y130.088 E13.57991
G1 X145.883 Y130.204 E13.59035
G1 X146.198 Y130.204 E13.60606
G0 F7500 X146.236 Y130.604
;TYPE:WALL-OUTER
G1 F1500 X146.387 Y130.561 E13.61389
G1 X146.678 Y130.35 E13.63183
G1 X146.828 Y130.131 E13.64507
G1 X146.905 Y129.761 E13.66393
G1 X146.923 Y129.471 E13.67842
G1 X146.905 Y129.177 E13.69312
G1 X146.771 Y128.749 E13.71549
G1 X146.671 Y128.606 E13.7242
G1 X146.38 Y128.392 E13.74222
G1 X146.032 Y128.321 E13.75994
G1 X145.684 Y128.392 E13.77766
G1 X145.398 Y128.602 E13.79536
G1 X145.217 Y128.943 E13.81462
G1 X145.167 Y129.191 E13.82724
G1 X145.149 Y129.484 E13.84189
G1 X145.177 Y129.936 E13.86448
G1 X145.399 Y130.357 E13.88823
G1 X145.682 Y130.561 E13.90563
G1 X145.825 Y130.604 E13.91308
G1 X146.236 Y130.604 E13.93358
G0 F7500 X146.387 Y130.561
G0 X146.421 Y130.536
G0 X146.224 Y130.057
G0 X146.408 Y129.391
G0 X146.105 Y129.381
;TYPE:SKIN
G1 F925.9 X146.065 Y129.451 E13.9401
G1 X145.984 Y129.451 E13.94665
G1 X145.943 Y129.381 E13.9532
G1 X145.983 Y129.311 E13.95972
G1 X146.064 Y129.311 E13.96627
G1 X146.105 Y129.381 E13.97282
G1 F1500 E7.47282
G0 F7500 X146.408 Y129.391
G0 X146.268 Y129.008
G0 X145.559 Y128.755
G0 X144.541 Y127.544
G0 X144.152 Y127.694
;TYPE:WALL-INNER
G1 F1500 E13.97282
G1 F1485.1 X144.077 Y127.651 E13.97718
G1 X144.077 Y127.737 E13.98151
G1 X144.152 Y127.694 E13.98587
G0 F7500 X145.092 Y127.162
G0 X145.544 Y127.038
G0 X146.521 Y127.038
G0 X146.977 Y127.161
G0 X147.389 Y127.372
G0 X147.743 Y127.669
G0 X148.03 Y128.038
G0 X148.23 Y128.464
G0 X148.346 Y128.936
G0 X148.385 Y129.45
G0 X148.333 Y130.083
G0 X148.171 Y130.629
G0 X147.713 Y131.305
G0 X147.406 Y131.568
G0 X147.06 Y131.758
G0 X146.576 Y131.902
G0 X146.043 Y131.948
G0 X145.553 Y131.908
G0 X145.099 Y131.784
G0 X144.688 Y131.571
G0 X144.333 Y131.273
G0 X143.929 Y131.868
G0 X142.486 Y131.874
G0 X142.132 Y131.297
G0 X141.756 Y131.644
G0 X141.403 Y131.968
G1 F1500 X141.197 Y132.04 E13.99676
G1 X140.248 Y132.04 E14.0441
G1 X140.021 Y131.922 E14.05687
G1 X139.851 Y131.725 E14.06985
G1 X139.78 Y131.44 E14.0845
G1 X139.78 Y127.425 E14.28481
G1 X139.845 Y127.23 E14.29507
G1 X140.091 Y126.978 E14.31263
G1 X140.302 Y126.904 E14.32379
G1 X141.312 Y126.906 E14.37418
G1 F1477.8 X141.563 Y127.036 E14.38849
G1 F1421.8 X141.676 Y127.144 E14.39672
G1 F1382.5 X142.141 Y127.888 E14.44421
G1 F1366.7 X142.141 Y127.504 E14.46524
G1 X142.237 Y127.18 E14.48374
G1 F1405.2 X141.99 Y126.847 E14.50582
G1 F1459.9 X141.806 Y126.364 E14.53232
G1 F1481.5 X141.742 Y125.884 E14.55678
G1 F1492.5 X141.817 Y125.382 E14.58223
G1 F1500 X141.99 Y124.951 E14.6054
G1 X142.27 Y124.585 E14.62839
G1 X142.656 Y124.266 E14.65337
G1 X143.118 Y124.071 E14.67839
G1 X143.6 Y124.006 E14.70266
G1 X144.085 Y124.072 E14.72707
G1 X144.607 Y124.295 E14.75539
G1 X143.075 Y121.214 E14.92706
G1 X143.05 Y120.934 E14.94108
G1 X143.091 Y120.786 E14.94875
G1 X145.107 Y116.742 E15.17418
G1 X145.212 Y116.598 E15.18307
G1 X145.441 Y116.453 E15.1966
G1 X145.64 Y116.42 E15.20666
G1 X147.731 Y116.42 E15.31098
G1 X147.926 Y116.492 E15.32135
G1 X148.135 Y116.679 E15.33534
G1 X148.231 Y116.913 E15.34796
G1 X148.238 Y117.072 E15.3559
G1 X148.178 Y117.288 E15.36709
G1 X147.397 Y118.847 E15.45408
G1 X147.993 Y118.599 E15.48629
G1 X148.642 Y118.514 E15.51894
G1 X149.297 Y118.606 E15.55194
G1 X149.89 Y118.855 E15.58403
G1 X150.416 Y119.246 E15.61672
G1 X150.809 Y119.767 E15.64928
G1 X151.062 Y120.378 E15.68228
G1 X151.145 Y121.019 E15.71452
G1 X151.06 Y121.671 E15.74733
G1 X150.814 Y122.265 E15.7794
G1 X150.415 Y122.787 E15.81218
G1 X149.89 Y123.186 E15.84508
G1 X149.297 Y123.434 E15.87715
G1 X148.642 Y123.526 E15.91015
G1 X147.993 Y123.44 E15.94281
G1 X147.397 Y123.193 E15.97499
G1 X148.22 Y124.837 E16.06672
G1 X148.24 Y125.034 E16.0766
G1 X148.208 Y125.217 E16.08587
G1 X148.113 Y125.391 E16.09576
G1 X147.952 Y125.533 E16.10647
G1 X147.711 Y125.616 E16.11918
G1 X145.615 Y125.62 E16.22375
G1 X145.41 Y125.556 E16.23447
G1 X145.454 Y125.89 E16.25127
G1 X145.389 Y126.372 E16.27554
G1 X145.243 Y126.742 E16.29538
G1 X145.075 Y127.001 E16.31079
G1 X145.507 Y126.879 E16.33318
G1 X146.034 Y126.833 E16.35957
G1 X146.547 Y126.879 E16.38527
G1 X147.039 Y127.009 E16.41066
G1 X147.481 Y127.238 E16.43549
G1 X147.859 Y127.558 E16.4602
G1 X148.167 Y127.946 E16.48492
G1 X148.381 Y128.411 E16.51045
G1 X148.505 Y128.91 E16.53611
G1 X148.539 Y129.492 E16.56519
G1 X148.49 Y130.111 E16.59617
G1 X148.31 Y130.707 E16.62723
G1 X148.105 Y131.08 E16.64847
G1 X147.823 Y131.422 E16.67058
G1 X147.502 Y131.694 E16.69157
G1 X147.118 Y131.909 E16.71353
G1 X146.6 Y132.06 E16.74045
G1 X146.04 Y132.108 E16.76849
G1 X145.515 Y132.065 E16.79477
G1 X145.039 Y131.931 E16.81944
G1 X144.597 Y131.703 E16.84425
G1 X144.223 Y131.389 E16.86861
G1 X144.101 Y131.237 E16.87834
G1 X144.098 Y131.495 E16.89121
G1 X144.013 Y131.751 E16.90467
G1 X143.819 Y131.949 E16.9185
G1 X143.576 Y132.04 E16.93144
G1 X142.728 Y132.04 E16.97375
G1 X142.441 Y131.968 E16.98851
G1 X142.216 Y131.754 E17.004
G1 X141.716 Y130.938 E17.05175
G1 X141.716 Y131.44 E17.07679
G1 X141.628 Y131.754 E17.09306
G1 X141.403 Y131.968 E17.10856
G1 F1500 E10.60856
G0 F7500 X141.756 Y131.644
G0 X141.568 Y131.846
G0 X139.914 Y132.067
G0 X137.788 Y133.488
G0 X136.012 Y135.876
G1 F1500 E17.10856
G1 F1324.5 X133.656 Y135.88 E17.24167
G1 F1310 X133.5 Y135.87 E17.2506
G1 F1500 E10.7506
G0 F7500 X132.028 Y133.31
G0 X133.439 Y130.61
G0 X133.324 Y129.817
G0 X133.237 Y129.456
G0 X134.418 Y129.446
G0 X134.418 Y122.081
G0 X134.266 Y121.331
G0 X134.474 Y120.624
G0 X134.457 Y119.722
G0 X134.327 Y119.272
G0 X134.096 Y118.882
G0 X133.768 Y118.586
G0 X133.379 Y118.403
G0 X132.947 Y118.34
G0 X132.343 Y118.467
G0 X131.716 Y118.136
G0 X130.91 Y118.277
G0 X130.259 Y118.589
G0 X129.996 Y118.833
G0 X129.652 Y119.478
G0 X129.548 Y120.269
G0 X129.589 Y120.812
G0 X129.724 Y121.296
G0 X129.629 Y122.081
G0 X129.629 Y125.928
G0 X132.455 Y126.189
G0 X132.679 Y126.411
G1 F1500 E17.2506
G1 F1224.5 X132.683 Y125.874 E17.28342
G1 X132.452 Y125.921 E17.29783
G1 X131.788 Y125.921 E17.33841
G1 F1176.5 X131.517 Y125.884 E17.35581
G1 F1129.9 X131.328 Y125.741 E17.3715
G1 X131.213 Y125.948 E17.38719
G1 F1310 X130.822 Y126.083 E17.41082
G1 F1566.6 X130.004 Y126.088 E17.44989
G1 F1538.5 X129.74 Y126.011 E17.46327
G1 F1500 X129.537 Y125.803 E17.47777
G1 X129.456 Y125.579 E17.48965
G1 X129.456 Y122.508 E17.64287
G1 X129.557 Y122.173 E17.66032
G1 X129.738 Y121.998 E17.67288
G1 X129.966 Y121.919 E17.68492
G1 X129.8 Y121.738 E17.69717
G1 X129.569 Y121.361 E17.71923
G1 X129.432 Y120.84 E17.74611
G1 X129.388 Y120.225 E17.77687
G1 X129.408 Y119.881 E17.79406
G1 X129.493 Y119.437 E17.81661
G1 X129.655 Y119.044 E17.83782
G1 X129.872 Y118.729 E17.85691
G1 X130.162 Y118.452 E17.87691
G1 X130.546 Y118.237 E17.89887
G1 X130.858 Y118.122 E17.91546
G1 X131.222 Y118.051 E17.93396
G1 X131.439 Y118.048 E17.94479
G1 X131.745 Y118.2 E17.96183
G1 X131.852 Y118.331 E17.97027
G1 X131.931 Y118.572 E17.98293
G1 X132.26 Y118.326 E18.00342
G1 X132.916 Y118.179 E18.03696
G1 X133.413 Y118.239 E18.06194
G1 X133.776 Y118.409 E18.08193
G1 F1492.5 X134.036 Y118.605 E18.09826
G1 F1200 X134.354 Y118.809 E18.12182
G1 X134.331 Y118.45 E18.14425
G1 F1488.8 X134.258 Y117.889 E18.17269
G1 F1496.3 X134.342 Y117.237 E18.20557
G1 F1500 X134.596 Y116.629 E18.23844
G1 X134.934 Y116.176 E18.26664
G1 X132.267 Y116.172 E18.3997
G1 X132.037 Y116.118 E18.41149
G1 X131.861 Y115.994 E18.42223
G1 X131.73 Y115.794 E18.43415
G1 X131.688 Y115.644 E18.44193
G1 X131.688 Y114.904 E18.47884
G1 X131.723 Y114.7 E18.48917
G1 X131.818 Y114.53 E18.49889
G1 X131.993 Y114.381 E18.51035
G1 X132.288 Y114.304 E18.52556
G1 X132.852 Y114.304 E18.5537
G1 X132.852 Y111.64 E18.68661
G1 X133.203 Y111.223 E18.7138
G1 X128.185 Y111.224 E18.96415
G1 X128.188 Y126.844 E19.74344
G1 X128.557 Y126.849 E19.76185
G1 X129.121 Y126.925 E19.79024
G1 X129.457 Y127.046 E19.80806
G1 X129.484 Y126.873 E19.81679
G1 X129.589 Y126.678 E19.82784
G1 X129.74 Y126.545 E19.83788
G1 F1538.5 X130.004 Y126.468 E19.85126
G1 F1566.6 X130.855 Y126.465 E19.89191
G1 F1310 X131.409 Y126.391 E19.92384
G1 F1176.5 X131.788 Y126.411 E19.94798
G1 F1224.5 X132.679 Y126.411 E20.00243
G0 F7500 X132.455 Y126.189
G0 X129.629 Y125.928
G0 X129.629 Y122.081
G0 X129.724 Y121.296
G0 X129.589 Y120.812
G0 X129.572 Y119.856
G0 X129.792 Y119.134
G0 X129.996 Y118.833
G0 X130.565 Y118.404
G0 X130.91 Y118.277
G0 X131.716 Y118.136
G0 X132.343 Y118.467
G0 X132.947 Y118.34
G0 X133.379 Y118.403
G0 X133.729 Y118.568
G0 X134.944 Y119.751
G0 X134.546 Y119.193
G1 F1045.3 X134.354 Y118.809 E20.03317
G0 F7500 X133.99 Y118.444
G0 X134.634 Y116.011
G0 X131.861 Y116
G0 X131.861 Y114.479
G0 X133.025 Y114.479
G0 X133.025 Y111.212
G0 X134.675 Y111.212
G0 X135.158 Y114.037
G0 X135.426 Y114.26
G1 F1219.5 X135.382 Y114.032 E20.04742
G1 X135.382 Y113.372 E20.08792
G1 F1171.9 X135.42 Y113.099 E20.10552
G1 F1125.7 X135.565 Y112.909 E20.12141
G1 X135.356 Y112.793 E20.1373
G1 F1290.3 X135.213 Y112.383 E20.16249
G1 F1492.5 X135.22 Y111.483 E20.20761
G1 F1470.6 X135.502 Y111.227 E20.22699
G1 X134.494 Y111.228 E20.27829
G1 X134.828 Y111.483 E20.29967
G1 F1507.5 X134.836 Y112.435 E20.34693
G1 F1304.3 X134.91 Y112.99 E20.37906
G1 F1171.9 X134.89 Y113.372 E20.40349
G1 F1219.5 X134.89 Y114.258 E20.45785
G1 X135.426 Y114.26 E20.49075
G0 F7500 X135.158 Y114.037
G0 X135.378 Y111.212
G0 X139.225 Y111.212
G0 X139.529 Y111.343
G1 F940.4 X139.489 Y111.275 E20.49702
G1 X139.41 Y111.275 E20.50331
G1 X139.371 Y111.343 E20.50955
G1 X139.411 Y111.411 E20.51583
G1 X139.49 Y111.411 E20.52211
G1 X139.529 Y111.343 E20.52835
G1 F1500 E14.02835
G0 F7500 X139.276 Y111.87
G0 X140.739 Y114.158
G0 X141.109 Y114.341
G1 F1500 E20.52835
G1 F1511.3 X141.49 Y114.301 E20.54732
G1 F1470.6 X141.606 Y114.225 E20.55438
G1 F1500 E14.05438
G0 F7500 X141.606 Y114.248
G0 X143.296 Y114.917
G0 X156.316 Y119.737
G1 F1500 E20.55438
G1 X155.667 Y119.647 E20.58707
G1 X155.066 Y119.408 E20.61933
G1 X154.541 Y119.006 E20.65232
G1 X154.143 Y118.481 E20.68519
G1 X153.903 Y117.891 E20.71697
G1 X153.81 Y117.234 E20.75007
G1 X153.896 Y116.581 E20.78293
G1 X154.144 Y115.99 E20.81491
G1 X152.498 Y116.812 E20.9067
G1 X152.158 Y116.811 E20.92366
G1 X151.953 Y116.711 E20.93504
G1 X151.842 Y116.601 E20.94284
G1 X151.716 Y116.295 E20.95935
G1 X151.717 Y114.183 E21.06471
G1 X151.754 Y114.021 E21.07301
G1 X151.857 Y113.844 E21.08322
G1 X152.048 Y113.695 E21.09531
G1 F1488.8 X156.16 Y111.64 E21.32637
G1 F1477.8 X156.316 Y111.633 E21.33428
G1 F1488.8 X156.584 Y111.699 E21.34815
G1 F1500 X160.584 Y113.695 E21.57118
G1 X160.778 Y113.848 E21.5835
G1 X160.881 Y114.028 E21.59385
G1 X160.915 Y114.192 E21.6022
G1 X160.915 Y116.275 E21.70613
G1 X160.857 Y116.494 E21.71743
G1 X160.634 Y116.742 E21.73407
G1 X160.41 Y116.826 E21.746
G1 X160.139 Y116.814 E21.75954
G1 X158.489 Y115.989 E21.85157
G1 X158.737 Y116.585 E21.88378
G1 X158.821 Y117.231 E21.91628
G1 X158.74 Y117.864 E21.94812
G1 X158.489 Y118.482 E21.98139
G1 X158.091 Y119.005 E22.01418
G1 X157.551 Y119.414 E22.04798
G1 X156.965 Y119.648 E22.07946
G1 X156.316 Y119.737 E22.11214
G1 F1500 E15.61214
G0 F7500 X155.601 Y119.737
G0 X157.017 Y119.841
G0 X161.911 Y122.351
G0 X164.931 Y125.535
G1 F1500 E22.11214
G1 X164.736 Y125.346 E22.12569
G1 X164.64 Y125.051 E22.14117
G1 X164.66 Y124.837 E22.15189
G1 X165.481 Y123.194 E22.24352
G1 X164.891 Y123.442 E22.27545
G1 X164.231 Y123.526 E22.30865
G1 X163.585 Y123.433 E22.34121
G1 X162.99 Y123.186 E22.37335
G1 X162.469 Y122.786 E22.40612
G1 X162.069 Y122.261 E22.43905
G1 X161.816 Y121.66 E22.47158
G1 X161.744 Y120.994 E22.505
G1 X161.816 Y120.384 E22.53564
G1 X162.067 Y119.78 E22.56828
G1 X162.469 Y119.251 E22.60142
G1 X162.993 Y118.855 E22.63419
G1 X163.583 Y118.607 E22.66612
G1 X164.235 Y118.514 E22.69898
G1 X164.892 Y118.599 E22.73203
G1 X165.484 Y118.849 E22.76409
G1 X164.66 Y117.203 E22.85593
G1 X164.669 Y116.832 E22.87444
G1 X164.827 Y116.583 E22.88915
G1 X164.965 Y116.486 E22.89757
G1 X165.16 Y116.42 E22.90784
G1 X167.352 Y116.42 E23.0172
G1 X167.672 Y116.602 E23.03557
G1 X167.777 Y116.751 E23.04466
G1 X169.831 Y120.859 E23.2738
G1 X169.831 Y121.181 E23.28986
G1 X167.766 Y125.31 E23.52019
G1 X167.54 Y125.54 E23.53627
G1 X167.342 Y125.621 E23.54695
G1 X165.147 Y125.62 E23.65646
G1 X164.931 Y125.535 E23.66804
G1 F1500 E17.16804
G0 F7500 X164.584 Y125.444
G0 X161.097 Y125.81
G0 X156.13 Y130.387
G1 F1500 E23.66804
G1 X151.991 Y128.313 E23.89901
G1 X151.78 Y128.078 E23.91476
G1 X151.719 Y127.871 E23.92553
G1 X151.718 Y125.76 E24.03085
G1 X151.8 Y125.5 E24.04445
G1 X152.007 Y125.293 E24.05905
G1 X152.285 Y125.208 E24.07356
G1 X152.502 Y125.228 E24.08443
G1 X154.143 Y126.05 E24.17599
G1 X153.896 Y125.46 E24.20791
G1 X153.81 Y124.805 E24.24086
G1 X153.903 Y124.149 E24.27392
G1 X154.148 Y123.551 E24.30616
G1 X154.547 Y123.033 E24.33878
G1 X155.064 Y122.646 E24.371
G1 X155.664 Y122.388 E24.40358
G1 X156.318 Y122.303 E24.43649
G1 X156.962 Y122.392 E24.46892
G1 X157.569 Y122.638 E24.5016
G1 X158.094 Y123.043 E24.53468
G1 X158.488 Y123.562 E24.56719
G1 X158.74 Y124.174 E24.60021
G1 X158.821 Y124.809 E24.63214
G1 X158.736 Y125.459 E24.66485
