;FLAVOR:Marlin
;TIME:10339
;Filament used: 5.86589m
;Layer height: 0.2
;MINX:121.9
;MINY:112.901
;MINZ:0.3
;MAXX:178.1
;MAXY:187.098
;MAXZ:13.3
;TARGET_MACHINE.NAME:Anet A8 Plus
;Generated with Cura_SteamEngine 5.8.1
M140 S60
M105
M190 S60
M104 S185
M105
M109 S185
M82 ;absolute extrusion mode
G28 ;Home
G1 Z15.0 F2000 ;Move the platform
G92 E0
G92 E0
G1 F1500 E-6.5
;LAYER_COUNT:66
;LAYER:0
M107
M204 S1000
G0 F7500 X123.04 Y113.892 Z0.3
;TYPE:SKIRT
G1 F1500 E0
G1 X122.658 Y114.314 E0.0284
G1 X122.348 Y114.791 E0.05678
G1 X122.117 Y115.311 E0.08517
G1 X121.971 Y115.86 E0.11351
G1 X121.91 Y116.457 E0.14345
G1 X121.9 Y117.139 E0.17748
G1 X121.901 Y180.2 E3.3236
G1 X121.928 Y180.794 E3.35327
G1 X121.97 Y181.181 E3.37269
G1 X122.055 Y181.771 E3.40243
G1 X122.11 Y182.059 E3.41706
G1 X122.277 Y182.587 E3.44469
G1 X122.589 Y183.347 E3.48567
G1 X122.768 Y183.718 E3.50622
G1 X123.043 Y184.142 E3.53144
G1 X123.562 Y184.819 E3.574
G1 X123.822 Y185.118 E3.59376
G1 X124.198 Y185.455 E3.61895
G1 X124.875 Y185.972 E3.66145
G1 X125.164 Y186.168 E3.67887
G1 X125.663 Y186.421 E3.70679
G1 X126.42 Y186.728 E3.74754
G1 X127.19 Y186.941 E3.7874
G1 X127.718 Y187.023 E3.81406
G1 X128.149 Y187.07 E3.83569
G1 X128.458 Y187.088 E3.85113
G1 X129.155 Y187.098 E3.88591
G1 X171.014 Y187.098 E5.97426
G1 X171.55 Y187.088 E6.00101
G1 X171.875 Y187.067 E6.01725
G1 X172.224 Y187.025 E6.03479
G1 X172.886 Y186.922 E6.06822
G1 X173.195 Y186.858 E6.08396
G1 X173.751 Y186.669 E6.11326
G1 X174.46 Y186.36 E6.15184
G1 X174.773 Y186.204 E6.16929
G1 X175.263 Y185.876 E6.19871
G1 X175.874 Y185.39 E6.23766
G1 X176.17 Y185.125 E6.25748
G1 X176.522 Y184.721 E6.28421
G1 X176.985 Y184.098 E6.32294
G1 X177.386 Y183.405 E6.36288
G1 X177.532 Y183.07 E6.38111
G1 X177.747 Y182.52 E6.41057
G1 X177.943 Y181.778 E6.44886
G1 X178.03 Y181.191 E6.47847
G1 X178.074 Y180.772 E6.49949
G1 X178.089 Y180.5 E6.51308
G1 X178.1 Y179.766 E6.5497
G1 X178.099 Y117.322 E9.66505
G1 X178.09 Y117.004 E9.68092
G1 X178.061 Y116.645 E9.69889
G1 X177.945 Y116.099 E9.72673
G1 X177.743 Y115.567 E9.75512
G1 X177.459 Y115.074 E9.78351
G1 X177.102 Y114.633 E9.81182
G1 X176.679 Y114.252 E9.84022
G1 X176.201 Y113.943 E9.86861
G1 X175.622 Y113.693 E9.90008
G1 X175.132 Y113.568 E9.92531
G1 X174.534 Y113.51 E9.95528
G1 X174.03 Y113.504 E9.98043
G1 X173.667 Y113.511 E9.99854
G1 X173.1 Y113.572 E10.02699
G1 X170.811 Y114.019 E10.14335
G1 X168.131 Y114.478 E10.279
G1 X165.444 Y114.858 E10.41439
G1 X162.726 Y115.167 E10.55087
G1 X159.98 Y115.399 E10.68835
G1 X157.293 Y115.549 E10.82262
G1 X154.539 Y115.626 E10.96007
G1 X151.844 Y115.624 E11.09452
G1 X149.091 Y115.545 E11.23193
G1 X146.37 Y115.391 E11.36789
G1 X143.65 Y115.156 E11.5041
G1 X140.983 Y114.853 E11.63801
G1 X138.251 Y114.462 E11.7757
G1 X135.556 Y113.999 E11.91213
G1 X132.9 Y113.465 E12.04729
G1 X131.457 Y113.132 E12.12117
G1 X130.796 Y112.991 E12.15489
G1 X130.096 Y112.911 E12.19004
G1 X129.395 Y112.901 E12.22502
G1 X125.74 Y112.902 E12.40737
G1 X125.409 Y112.911 E12.42389
G1 X125.054 Y112.939 E12.44165
G1 X124.508 Y113.053 E12.46948
G1 X123.976 Y113.254 E12.49785
G1 X123.482 Y113.537 E12.52626
G1 X123.04 Y113.892 E12.55454
G0 F7500 X123.293 Y114.202
G1 F1500 X122.957 Y114.58 E12.57977
G1 X122.685 Y115.006 E12.60499
G1 X122.484 Y115.47 E12.63021
G1 X122.358 Y115.96 E12.65546
G1 X122.31 Y116.463 E12.68066
G1 X122.3 Y117.145 E12.71469
G1 X122.301 Y180.2 E15.86052
G1 X122.328 Y180.775 E15.88924
G1 X122.368 Y181.137 E15.90741
G1 X122.451 Y181.714 E15.93649
G1 X122.503 Y181.983 E15.95016
G1 X122.658 Y182.464 E15.97537
G1 X122.959 Y183.195 E16.01481
G1 X123.104 Y183.5 E16.03166
G1 X123.379 Y183.924 E16.05687
G1 X123.866 Y184.559 E16.0968
G1 X124.089 Y184.82 E16.11393
G1 X124.465 Y185.157 E16.13912
G1 X125.1 Y185.641 E16.17895
G1 X125.389 Y185.837 E16.19637
G1 X125.842 Y186.063 E16.22163
G1 X126.57 Y186.357 E16.2608
G1 X127.295 Y186.555 E16.29829
G1 X127.777 Y186.627 E16.32261
G1 X128.192 Y186.672 E16.34343
G1 X128.464 Y186.688 E16.35703
G1 X129.161 Y186.698 E16.3918
G1 X171.007 Y186.698 E18.47951
G1 X171.543 Y186.688 E18.50626
G1 X171.849 Y186.668 E18.52155
G1 X172.175 Y186.628 E18.53794
G1 X172.805 Y186.53 E18.56975
G1 X173.114 Y186.466 E18.58549
G1 X173.591 Y186.302 E18.61066
G1 X174.3 Y185.993 E18.64924
G1 X174.595 Y185.846 E18.66569
G1 X175.014 Y185.563 E18.69091
G1 X175.625 Y185.077 E18.72986
G1 X175.869 Y184.862 E18.74609
G1 X176.201 Y184.482 E18.77126
G1 X176.664 Y183.859 E18.80999
G1 X177.039 Y183.206 E18.84755
G1 X177.164 Y182.913 E18.86345
G1 X177.374 Y182.375 E18.89226
G1 X177.556 Y181.677 E18.92825
G1 X177.634 Y181.134 E18.95562
G1 X177.676 Y180.731 E18.97583
G1 X177.69 Y180.478 E18.98847
G1 X177.7 Y179.76 E19.0243
G1 X177.699 Y117.322 E22.13934
G1 X177.69 Y117.016 E22.15461
G1 X177.662 Y116.678 E22.17154
G1 X177.554 Y116.184 E22.19676
G1 X177.37 Y115.713 E22.22199
G1 X177.114 Y115.277 E22.24722
G1 X176.793 Y114.887 E22.27242
G1 X176.414 Y114.552 E22.29765
G1 X175.987 Y114.281 E22.32288
G1 X175.523 Y114.081 E22.34809
G1 X175.033 Y113.956 E22.37332
G1 X174.529 Y113.91 E22.39857
G1 X174.025 Y113.904 E22.42372
G1 X173.675 Y113.911 E22.44118
G1 X173.144 Y113.97 E22.46784
G1 X170.888 Y114.412 E22.58253
G1 X168.187 Y114.874 E22.71924
G1 X165.5 Y115.254 E22.85463
G1 X162.76 Y115.565 E22.9922
G1 X160.014 Y115.797 E23.12969
G1 X157.304 Y115.949 E23.26511
G1 X154.55 Y116.026 E23.40256
G1 X151.833 Y116.024 E23.53811
G1 X149.08 Y115.945 E23.67551
G1 X146.336 Y115.789 E23.81263
G1 X143.616 Y115.555 E23.94884
G1 X140.926 Y115.249 E24.08391
G1 X138.194 Y114.858 E24.22159
G1 X135.481 Y114.392 E24.35893
G1 X132.81 Y113.855 E24.49485
G1 X131.367 Y113.522 E24.56874
G1 X130.712 Y113.382 E24.60215
G1 X130.09 Y113.311 E24.63339
G1 X129.389 Y113.301 E24.66836
G1 X125.74 Y113.302 E24.85041
G1 X125.42 Y113.311 E24.86638
G1 X125.086 Y113.338 E24.8831
G1 X124.592 Y113.444 E24.90831
G1 X124.121 Y113.627 E24.93352
G1 X123.684 Y113.882 E24.95876
G1 X123.293 Y114.202 E24.98397
G1 F1500 E18.48397
;MESH:BD241S-AMPCenter.24CM.stl
G0 F7500 X156.831 Y129.318
G0 X157.051 Y130.448
;TYPE:WALL-INNER
G1 F1500 E24.98397
G1 X161.148 Y130.448 E25.18837
G1 X161.148 Y127.576 E25.33165
G1 X155.775 Y127.576 E25.59971
G1 X156.255 Y127.946 E25.62995
G1 X156.718 Y128.559 E25.66827
G1 X157.003 Y129.269 E25.70644
G1 X157.106 Y130.036 E25.74505
G1 X157.051 Y130.448 E25.76579
G1 F1500 E19.26579
G0 F7500 X157.353 Y130.348
G0 X161 Y130.631
G0 X161.005 Y165.6
G0 X161 Y171.672
G1 F1500 E25.76579
G1 X160.246 Y171.571 E25.80374
G1 X159.542 Y171.277 E25.8418
G1 X158.945 Y170.814 E25.8795
G1 X158.473 Y170.19 E25.91853
G1 X158.189 Y169.476 E25.95687
G1 X158.096 Y168.732 E25.99427
G1 X158.194 Y167.974 E26.03241
G1 X158.484 Y167.258 E26.07095
G1 X158.94 Y166.648 E26.10894
G1 X159.542 Y166.177 E26.14708
G1 X160.247 Y165.883 E26.18518
G1 X161 Y165.788 E26.22305
G1 X161.751 Y165.888 E26.26085
G1 X162.435 Y166.168 E26.29772
G1 X163.043 Y166.637 E26.33603
G1 X163.519 Y167.26 E26.37515
G1 X163.801 Y167.97 E26.41326
G1 X163.9 Y168.733 E26.45164
G1 X163.806 Y169.49 E26.4897
G1 X163.517 Y170.202 E26.52804
G1 X163.056 Y170.814 E26.56626
G1 X162.442 Y171.289 E26.60499
G1 X161.755 Y171.571 E26.64204
G1 X161 Y171.672 E26.68005
G1 F1500 E20.18005
G0 F7500 X161.807 Y171.751
G0 X169.663 Y178.945
G0 X171.069 Y180.533
G1 F1500 E26.68005
G1 X170.665 Y180.362 E26.70193
G1 X170.326 Y180.099 E26.72334
G1 X170.058 Y179.742 E26.74561
G1 X169.897 Y179.339 E26.76726
G1 X169.848 Y178.911 E26.78875
G1 X169.903 Y178.486 E26.81013
G1 X170.064 Y178.078 E26.83202
G1 X170.325 Y177.729 E26.85376
G1 X170.669 Y177.469 E26.87527
G1 X171.055 Y177.3 E26.89629
G1 X171.5 Y177.238 E26.91871
G1 X171.932 Y177.296 E26.94045
G1 X172.332 Y177.467 E26.96216
G1 X172.669 Y177.729 E26.98345
G1 X172.934 Y178.079 E27.00536
G1 X173.101 Y178.496 E27.02777
G1 X173.148 Y178.916 E27.04885
G1 X173.099 Y179.337 E27.07
G1 X172.934 Y179.748 E27.09209
G1 X172.671 Y180.099 E27.11397
G1 X172.341 Y180.355 E27.13481
G1 X171.943 Y180.529 E27.15648
G1 X171.505 Y180.589 E27.17854
G1 X171.069 Y180.533 E27.20047
G1 F1500 E20.70047
G0 F7500 X171.054 Y180.633
G0 X169.9 Y179.832
G0 X169.9 Y182.696
G0 X150 Y182.896
G1 F1500 E27.20047
G1 X171.452 Y182.896 E28.27071
G1 X172.117 Y182.808 E28.30418
G1 X172.689 Y182.566 E28.33517
G1 X173.188 Y182.175 E28.36679
G1 X173.569 Y181.672 E28.39827
G1 X173.81 Y181.081 E28.43012
G1 X173.9 Y180.397 E28.46454
G1 X173.9 Y118.337 E31.56072
G1 X173.748 Y118.464 E31.5706
G1 X170.548 Y118.464 E31.73025
G1 X170.548 Y120.326 E31.82315
G1 X170.735 Y120.204 E31.83429
G1 X171.058 Y120.065 E31.85183
G1 X171.496 Y120.001 E31.87391
G1 X171.931 Y120.065 E31.89585
G1 X172.322 Y120.23 E31.91702
G1 X172.664 Y120.486 E31.93834
G1 X172.934 Y120.843 E31.96067
G1 X173.101 Y121.26 E31.98308
G1 X173.148 Y121.68 E32.00416
G1 X173.099 Y122.104 E32.02546
G1 X172.935 Y122.513 E32.04744
G1 X172.674 Y122.86 E32.0691
G1 X172.331 Y123.126 E32.09076
G1 X171.939 Y123.294 E32.11204
G1 X171.502 Y123.359 E32.13408
G1 X171.069 Y123.297 E32.1559
G1 X170.742 Y123.163 E32.17353
G1 X170.549 Y123.039 E32.18498
G1 X170.548 Y131.122 E32.58824
G1 X170.429 Y131.409 E32.60374
G1 X170.308 Y131.528 E32.61221
G1 X170.027 Y131.648 E32.62745
G1 X163.1 Y131.648 E32.97304
G1 X163.1 Y134.685 E33.12456
G1 X163.003 Y134.94 E33.13817
G1 X162.805 Y135.129 E33.15182
G1 X162.597 Y135.212 E33.163
G1 X160.1 Y135.212 E33.28757
G1 X160.1 Y147.764 E33.91379
G1 X162.597 Y147.764 E34.03837
G1 X162.805 Y147.847 E34.04954
G1 X162.994 Y148.022 E34.06239
G1 X163.096 Y148.289 E34.07665
G1 X163.1 Y159.639 E34.64291
G1 X162.991 Y159.91 E34.65748
G1 X162.822 Y160.071 E34.66912
G1 X162.542 Y160.163 E34.68383
G1 X154.451 Y160.163 E35.08749
G1 X154.17 Y160.066 E35.10232
G1 X154.023 Y159.93 E35.11231
G1 X153.9 Y159.643 E35.12789
G1 X153.9 Y132.939 E36.46016
G1 X153.436 Y132.878 E36.48351
G1 X152.748 Y132.58 E36.52091
G1 X152.149 Y132.122 E36.55853
G1 X151.678 Y131.5 E36.59746
G1 X151.388 Y130.777 E36.63632
G1 X151.295 Y130.026 E36.67407
G1 X151.393 Y129.27 E36.71211
G1 X151.678 Y128.559 E36.75032
G1 X152.145 Y127.946 E36.78877
G1 X152.619 Y127.577 E36.81874
G1 X139.848 Y127.576 E37.45589
G1 X139.848 Y130.6 E37.60675
G1 X140 Y130.448 E37.61748
G1 X150.044 Y130.449 E38.11857
G1 X150.269 Y130.511 E38.13022
G1 X150.393 Y130.595 E38.13769
G1 X150.6 Y130.915 E38.1567
G1 X150.6 Y133.504 E38.28587
G1 X152.574 Y133.508 E38.38435
G1 X152.827 Y133.598 E38.39775
G1 X152.967 Y133.726 E38.40721
G1 X153.1 Y134.104 E38.42721
G1 X153.1 Y151.501 E39.29515
G1 X152.982 Y151.776 E39.31008
G1 X152.732 Y151.97 E39.32586
G1 X152.5 Y152.016 E39.33766
G1 X149.1 Y152.016 E39.50729
G1 X149.1 Y161.6 E39.98544
G1 X149.067 Y161.798 E39.99545
G1 X148.943 Y162.006 E40.00753
G1 X148.821 Y162.108 E40.01547
G1 X148.543 Y162.199 E40.03006
G1 X142.411 Y162.199 E40.33599
G1 X142.253 Y162.148 E40.34427
G1 X142.07 Y162.02 E40.35541
G1 X141.958 Y161.859 E40.3652
G1 X141.902 Y161.655 E40.37575
G1 X141.9 Y152.016 E40.85664
G1 X139.5 Y152.016 E40.97638
G1 X139.243 Y151.959 E40.98951
G1 X138.992 Y151.737 E41.00623
G1 X138.9 Y151.518 E41.01808
G1 X138.9 Y134.104 E41.88687
G1 X138.932 Y133.908 E41.89678
G1 X139.065 Y133.689 E41.90956
G1 X139.4 Y133.546 E41.92773
G1 X139.4 Y131.521 E42.02876
G1 X139.248 Y131.648 E42.03864
G1 X129.969 Y131.648 E42.50157
G1 X129.687 Y131.528 E42.51686
G1 X129.567 Y131.408 E42.52533
G1 X129.448 Y131.122 E42.54078
G1 X129.448 Y123.035 E42.94425
G1 X129.26 Y123.156 E42.9554
G1 X128.938 Y123.295 E42.9729
G1 X128.497 Y123.359 E42.99513
G1 X128.062 Y123.295 E43.01707
G1 X127.665 Y123.131 E43.0385
G1 X127.33 Y122.866 E43.05981
G1 X127.06 Y122.514 E43.08194
G1 X126.895 Y122.099 E43.10422
G1 X126.848 Y121.68 E43.12525
G1 X126.895 Y121.261 E43.14629
G1 X127.059 Y120.849 E43.16841
G1 X127.325 Y120.498 E43.19038
G1 X127.667 Y120.232 E43.212
G1 X128.052 Y120.073 E43.23278
G1 X128.49 Y120 E43.25493
G1 X128.924 Y120.063 E43.27681
G1 X129.258 Y120.203 E43.29488
G1 X129.448 Y120.324 E43.30612
G1 X129.448 Y117.1 E43.46697
G1 X126.1 Y117.1 E43.634
G1 X126.1 Y180.398 E46.79195
G1 X126.186 Y181.082 E46.82634
G1 X126.427 Y181.67 E46.85805
G1 X126.806 Y182.176 E46.88959
G1 X127.303 Y182.566 E46.9211
G1 X127.879 Y182.807 E46.95226
G1 X128.548 Y182.896 E46.98593
G1 X150 Y182.896 E48.05617
G1 F1500 E41.55617
G0 F7500 X150 Y182.796
G0 X128.936 Y182.696
G0 X128.686 Y180.764
G0 X128.936 Y180.531
G1 F1500 E48.05617
G1 X128.491 Y180.589 E48.07856
G1 X128.061 Y180.53 E48.10021
G1 X127.658 Y180.357 E48.12209
G1 X127.326 Y180.098 E48.1431
G1 X127.058 Y179.741 E48.16537
G1 X126.9 Y179.343 E48.18674
G1 X126.841 Y178.919 E48.20809
G1 X126.897 Y178.493 E48.22953
G1 X127.058 Y178.087 E48.25132
G1 X127.326 Y177.73 E48.27359
G1 X127.665 Y177.465 E48.29506
G1 X128.054 Y177.302 E48.3161
G1 X128.494 Y177.237 E48.33829
G1 X128.933 Y177.296 E48.36039
G1 X129.336 Y177.474 E48.38237
G1 X129.669 Y177.729 E48.40329
G1 X129.941 Y178.092 E48.42592
G1 X130.092 Y178.482 E48.44679
G1 X130.148 Y178.911 E48.46837
G1 X130.099 Y179.339 E48.48986
G1 X129.938 Y179.742 E48.51152
G1 X129.67 Y180.099 E48.53379
G1 X129.331 Y180.362 E48.55519
G1 X128.936 Y180.531 E48.57663
G0 F7500 X128.799 Y180.147
;TYPE:WALL-OUTER
G1 F1500 X128.509 Y180.184 E48.59121
G1 X128.185 Y180.144 E48.6075
G1 X127.878 Y180.017 E48.62407
G1 X127.633 Y179.83 E48.63945
G1 X127.411 Y179.546 E48.65744
G1 X127.285 Y179.215 E48.6751
G1 X127.249 Y178.89 E48.69142
G1 X127.298 Y178.565 E48.70782
G1 X127.402 Y178.305 E48.72179
G1 X127.612 Y178.014 E48.73969
G1 X127.894 Y177.803 E48.75726
G1 X128.142 Y177.699 E48.77068
G1 X128.498 Y177.641 E48.78867
G1 X128.846 Y177.695 E48.80624
G1 X129.128 Y177.816 E48.82155
G1 X129.394 Y178.027 E48.83849
G1 X129.576 Y178.27 E48.85364
G1 X129.706 Y178.587 E48.87073
G1 X129.747 Y178.89 E48.88599
G1 X129.711 Y179.215 E48.9023
G1 X129.594 Y179.523 E48.91874
G1 X129.384 Y179.814 E48.93664
G1 X129.103 Y180.024 E48.95414
G1 X128.799 Y180.147 E48.9705
G0 F7500 X128.601 Y180.172
G1 F1500 E42.4705
G0 F7500 X128.408 Y180.681
G0 X130.098 Y179.829
G0 X130.098 Y182.696
G0 X150 Y183.296
G1 F1500 E48.9705
G1 X171.478 Y183.296 E50.04204
G1 X172.223 Y183.197 E50.07954
G1 X172.893 Y182.914 E50.11583
G1 X173.476 Y182.458 E50.15275
G1 X173.92 Y181.872 E50.18943
G1 X174.2 Y181.184 E50.22649
G1 X174.3 Y180.423 E50.26478
G1 X174.3 Y118.616 E53.34835
G1 F1546.4 X174.312 Y117.288 E53.41262
G1 F1595.7 X173.936 Y117.288 E53.43025
G1 F1591.5 X173.935 Y117.897 E53.45888
G1 F1542.4 X173.748 Y118.064 E53.47105
G1 F1500 X170.148 Y118.064 E53.65065
G1 F1470.6 X170.155 Y121.021 E53.80113
G1 F1260.5 X170.217 Y121.369 E53.82212
G1 X170.395 Y121.067 E53.84293
G1 F1470.6 X170.596 Y120.802 E53.85985
G1 F1500 X170.849 Y120.598 E53.87607
G1 X171.145 Y120.464 E53.89228
G1 X171.495 Y120.405 E53.90999
G1 X171.846 Y120.463 E53.92774
G1 X172.137 Y120.59 E53.94358
G1 X172.362 Y120.76 E53.95764
G1 X172.569 Y121.024 E53.97438
G1 X172.698 Y121.329 E53.9909
G1 X172.747 Y121.654 E54.0073
G1 X172.71 Y121.991 E54.02421
G1 X172.594 Y122.291 E54.04026
G1 X172.4 Y122.558 E54.05673
G1 X172.127 Y122.778 E54.07422
G1 X171.812 Y122.909 E54.09124
G1 X171.501 Y122.954 E54.10692
G1 X171.195 Y122.911 E54.12233
G1 X170.868 Y122.782 E54.13987
G1 X170.601 Y122.562 E54.15713
G1 F1470.6 X170.395 Y122.293 E54.17437
G1 F1260.5 X170.217 Y121.991 E54.19519
G1 F1271.2 X170.148 Y122.378 E54.21833
G1 F1485.1 X170.146 Y131.083 E54.65696
G1 F1500 X170.109 Y131.169 E54.66164
G1 X169.985 Y131.245 E54.66889
G1 X162.7 Y131.248 E55.03234
G1 X162.697 Y134.648 E55.20197
G1 X162.638 Y134.758 E55.2082
G1 X162.544 Y134.808 E55.21351
G1 X159.7 Y134.812 E55.3554
G1 X159.7 Y148.164 E56.02153
G1 X162.544 Y148.168 E56.16342
G1 X162.651 Y148.232 E56.16964
G1 X162.698 Y148.329 E56.17502
G1 X162.698 Y159.599 E56.73728
G1 X162.629 Y159.718 E56.74414
G1 X162.528 Y159.763 E56.74966
G1 X154.459 Y159.764 E57.15222
G1 X154.341 Y159.686 E57.15928
G1 X154.302 Y159.599 E57.16403
G1 X154.3 Y132.678 E58.50713
G1 X154.402 Y132.547 E58.51541
G1 X154.174 Y132.571 E58.52685
G1 X153.549 Y132.491 E58.55829
G1 X152.948 Y132.234 E58.5909
G1 X152.423 Y131.822 E58.62419
G1 X152.028 Y131.3 E58.65685
